( This gcode generated by /home/lg/eagle/ULPs/pcb-gcode.ulp )
( Copyright 2005 by John Johnson. See readme.txt for licensing terms. )

( This file generated from the board /home/lg/eagle/dspic-servo/dspic-servo-2.brd )
( This file generated  8/02/2006 18:11:55  )

( T01 0.023622 )
( T02 0.024000 )
( T03 0.031496 )
( T04 0.032000 )
( T05 0.040000 )
( T06 0.044000 )
( T07 0.052000 )
( T08 0.059000 )
( T09 0.067000 )
( T10 0.079000 )
( T11 0.130000 )
G20

G90
M05
G00 X0.0000 Y0.0000 Z1.0000 
M06 T01 (0.0236 )
G00 Z0.0200 
M03
G04 P0.200000
G00 Z0.020000
G00 X-0.0000 Y0.0000 
G01 Z-0.1000 F5.00  
G01 Z0.020000
(R0.0200  P0.100000)
(G00 Z0.020000)
G00 X-0.8850 Y1.4950 
G01 Z-0.100000
G01 Z0.020000
(G00 Z0.020000)
G00 X-1.1350 Y1.7500 
G01 Z-0.100000
G01 Z0.020000
(G00 Z0.020000)
G00 X-1.2550 Y1.1100 
G01 Z-0.100000
G01 Z0.020000
(G00 Z0.020000)
G00 X-1.2550 Y1.6950 
G01 Z-0.100000
G01 Z0.020000
(G00 Z0.020000)
G00 X-1.4800 Y1.4950 
G01 Z-0.100000
G01 Z0.020000
(G00 Z0.020000)
G00 X-1.7150 Y2.7800 
G01 Z-0.100000
G01 Z0.020000
(G00 Z0.020000)
G00 X-1.8000 Y2.6800 
G01 Z-0.100000
G01 Z0.020000
(G00 Z0.020000)
G00 X-1.9400 Y2.6700 
G01 Z-0.100000
G01 Z0.020000
(G00 Z0.020000)
G00 X-1.9900 Y1.0700 
G01 Z-0.100000
G01 Z0.020000
(G00 Z0.020000)
G00 X-2.0700 Y2.6700 
G01 Z-0.100000
G01 Z0.020000
(G00 Z0.020000)
G00 X-2.1400 Y2.5200 
G01 Z-0.100000
G01 Z0.020000
(G00 Z0.020000)
G00 X-2.2750 Y2.3300 
G01 Z-0.100000
G01 Z0.020000
M05
G00 X0.0000 Y0.0000 Z1.0000 
M06 T02 (0.0240 )
G00 Z0.0200 
M03
G04 P0.200000
G00 Z0.020000
G00 X-1.5500 Y0.3750 
G01 Z-0.1000 F5.00  
G01 Z0.020000
(R0.0200  P0.100000)
(G00 Z0.020000)
G00 X-1.7500 Y0.3750 
G01 Z-0.100000
G01 Z0.020000
M05
G00 X0.0000 Y0.0000 Z1.0000 
M06 T03 (0.0315 )
G00 Z0.0200 
M03
G04 P0.200000
G00 Z0.020000
G00 X-0.6850 Y1.3975 
G01 Z-0.1000 F5.00  
G01 Z0.020000
(R0.0200  P0.100000)
(G00 Z0.020000)
G00 X-2.5475 Y1.3975 
G01 Z-0.100000
G01 Z0.020000
M05
G00 X0.0000 Y0.0000 Z1.0000 
M06 T04 (0.0320 )
G00 Z0.0200 
M03
G04 P0.200000
G00 Z0.020000
G00 X-0.7850 Y0.6600 
G01 Z-0.1000 F5.00  
G01 Z0.020000
(R0.0200  P0.100000)
(G00 Z0.020000)
G00 X-0.7850 Y0.9600 
G01 Z-0.100000
G01 Z0.020000
(G00 Z0.020000)
G00 X-0.8850 Y0.6600 
G01 Z-0.100000
G01 Z0.020000
(G00 Z0.020000)
G00 X-0.8850 Y0.9600 
G01 Z-0.100000
G01 Z0.020000
(G00 Z0.020000)
G00 X-0.9850 Y0.6600 
G01 Z-0.100000
G01 Z0.020000
(G00 Z0.020000)
G00 X-0.9850 Y0.9600 
G01 Z-0.100000
G01 Z0.020000
(G00 Z0.020000)
G00 X-1.0850 Y0.6600 
G01 Z-0.100000
G01 Z0.020000
(G00 Z0.020000)
G00 X-1.0850 Y0.9600 
G01 Z-0.100000
G01 Z0.020000
(G00 Z0.020000)
G00 X-1.1375 Y1.1875 
G01 Z-0.100000
G01 Z0.020000
(G00 Z0.020000)
G00 X-1.1375 Y1.2875 
G01 Z-0.100000
G01 Z0.020000
(G00 Z0.020000)
G00 X-1.1850 Y0.6600 
G01 Z-0.100000
G01 Z0.020000
(G00 Z0.020000)
G00 X-1.1850 Y0.9600 
G01 Z-0.100000
G01 Z0.020000
(G00 Z0.020000)
G00 X-1.2850 Y0.6600 
G01 Z-0.100000
G01 Z0.020000
(G00 Z0.020000)
G00 X-1.2850 Y0.9600 
G01 Z-0.100000
G01 Z0.020000
(G00 Z0.020000)
G00 X-1.3850 Y0.6600 
G01 Z-0.100000
G01 Z0.020000
(G00 Z0.020000)
G00 X-1.3850 Y0.9600 
G01 Z-0.100000
G01 Z0.020000
(G00 Z0.020000)
G00 X-1.4850 Y0.6600 
G01 Z-0.100000
G01 Z0.020000
(G00 Z0.020000)
G00 X-1.4850 Y0.9600 
G01 Z-0.100000
G01 Z0.020000
(G00 Z0.020000)
G00 X-1.5850 Y0.6600 
G01 Z-0.100000
G01 Z0.020000
(G00 Z0.020000)
G00 X-1.5850 Y0.9600 
G01 Z-0.100000
G01 Z0.020000
(G00 Z0.020000)
G00 X-1.6325 Y1.9950 
G01 Z-0.100000
G01 Z0.020000
(G00 Z0.020000)
G00 X-1.6325 Y2.1350 
G01 Z-0.100000
G01 Z0.020000
(G00 Z0.020000)
G00 X-1.6850 Y0.6600 
G01 Z-0.100000
G01 Z0.020000
(G00 Z0.020000)
G00 X-1.6850 Y0.9600 
G01 Z-0.100000
G01 Z0.020000
(G00 Z0.020000)
G00 X-1.7850 Y0.6600 
G01 Z-0.100000
G01 Z0.020000
(G00 Z0.020000)
G00 X-1.7850 Y0.9600 
G01 Z-0.100000
G01 Z0.020000
(G00 Z0.020000)
G00 X-1.8850 Y0.6600 
G01 Z-0.100000
G01 Z0.020000
(G00 Z0.020000)
G00 X-1.8850 Y0.9600 
G01 Z-0.100000
G01 Z0.020000
(G00 Z0.020000)
G00 X-1.9850 Y0.6600 
G01 Z-0.100000
G01 Z0.020000
(G00 Z0.020000)
G00 X-1.9850 Y0.9600 
G01 Z-0.100000
G01 Z0.020000
(G00 Z0.020000)
G00 X-2.0850 Y0.6600 
G01 Z-0.100000
G01 Z0.020000
(G00 Z0.020000)
G00 X-2.0850 Y0.9600 
G01 Z-0.100000
G01 Z0.020000
(G00 Z0.020000)
G00 X-2.4225 Y1.9650 
G01 Z-0.100000
G01 Z0.020000
(G00 Z0.020000)
G00 X-2.4225 Y2.1050 
G01 Z-0.100000
G01 Z0.020000
(G00 Z0.020000)
G00 X-2.5850 Y0.7650 
G01 Z-0.100000
G01 Z0.020000
(G00 Z0.020000)
G00 X-2.5850 Y1.1650 
G01 Z-0.100000
G01 Z0.020000
(G00 Z0.020000)
G00 X-2.8350 Y0.6600 
G01 Z-0.100000
G01 Z0.020000
(G00 Z0.020000)
G00 X-2.8350 Y0.9600 
G01 Z-0.100000
G01 Z0.020000
(G00 Z0.020000)
G00 X-2.9350 Y0.6600 
G01 Z-0.100000
G01 Z0.020000
(G00 Z0.020000)
G00 X-2.9350 Y0.9600 
G01 Z-0.100000
G01 Z0.020000
(G00 Z0.020000)
G00 X-3.0350 Y0.6600 
G01 Z-0.100000
G01 Z0.020000
(G00 Z0.020000)
G00 X-3.0350 Y0.9600 
G01 Z-0.100000
G01 Z0.020000
(G00 Z0.020000)
G00 X-3.1350 Y0.6600 
G01 Z-0.100000
G01 Z0.020000
(G00 Z0.020000)
G00 X-3.1350 Y0.9600 
G01 Z-0.100000
G01 Z0.020000
M05
G00 X0.0000 Y0.0000 Z1.0000 
M06 T05 (0.0400 )
G00 Z0.0200 
M03
G04 P0.200000
G00 Z0.020000
G00 X-1.6704 Y2.9500 
G01 Z-0.1000 F5.00  
G01 Z0.020000
(R0.0200  P0.100000)
(G00 Z0.020000)
G00 X-1.7373 Y3.1500 
G01 Z-0.100000
G01 Z0.020000
(G00 Z0.020000)
G00 X-1.8042 Y2.9500 
G01 Z-0.100000
G01 Z0.020000
(G00 Z0.020000)
G00 X-1.8711 Y3.1500 
G01 Z-0.100000
G01 Z0.020000
(G00 Z0.020000)
G00 X-1.9350 Y1.6250 
G01 Z-0.100000
G01 Z0.020000
(G00 Z0.020000)
G00 X-1.9381 Y2.9500 
G01 Z-0.100000
G01 Z0.020000
(G00 Z0.020000)
G00 X-2.0050 Y3.1500 
G01 Z-0.100000
G01 Z0.020000
(G00 Z0.020000)
G00 X-2.0350 Y1.6250 
G01 Z-0.100000
G01 Z0.020000
(G00 Z0.020000)
G00 X-2.0719 Y2.9500 
G01 Z-0.100000
G01 Z0.020000
(G00 Z0.020000)
G00 X-2.1350 Y1.6250 
G01 Z-0.100000
G01 Z0.020000
(G00 Z0.020000)
G00 X-2.1389 Y3.1500 
G01 Z-0.100000
G01 Z0.020000
(G00 Z0.020000)
G00 X-2.2058 Y2.9500 
G01 Z-0.100000
G01 Z0.020000
(G00 Z0.020000)
G00 X-2.2350 Y1.6250 
G01 Z-0.100000
G01 Z0.020000
(G00 Z0.020000)
G00 X-2.2727 Y3.1500 
G01 Z-0.100000
G01 Z0.020000
(G00 Z0.020000)
G00 X-2.3350 Y1.6250 
G01 Z-0.100000
G01 Z0.020000
(G00 Z0.020000)
G00 X-2.3396 Y2.9500 
G01 Z-0.100000
G01 Z0.020000
M05
G00 X0.0000 Y0.0000 Z1.0000 
M06 T06 (0.0440 )
G00 Z0.0200 
M03
G04 P0.200000
G00 Z0.020000
G00 X-3.7300 Y3.1400 
G01 Z-0.1000 F5.00  
G01 Z0.020000
(R0.0200  P0.100000)
(G00 Z0.020000)
G00 X-3.8300 Y3.1400 
G01 Z-0.100000
G01 Z0.020000
(G00 Z0.020000)
G00 X-3.9300 Y3.1400 
G01 Z-0.100000
G01 Z0.020000
M05
G00 X0.0000 Y0.0000 Z1.0000 
M06 T07 (0.0520 )
G00 Z0.0200 
M03
G04 P0.200000
G00 Z0.020000
G00 X-0.5000 Y0.2500 
G01 Z-0.1000 F5.00  
G01 Z0.020000
(R0.0200  P0.100000)
(G00 Z0.020000)
G00 X-0.6750 Y0.2350 
G01 Z-0.100000
G01 Z0.020000
(G00 Z0.020000)
G00 X-0.8600 Y0.2400 
G01 Z-0.100000
G01 Z0.020000
(G00 Z0.020000)
G00 X-1.1050 Y0.2550 
G01 Z-0.100000
G01 Z0.020000
(G00 Z0.020000)
G00 X-1.4400 Y2.7050 
G01 Z-0.100000
G01 Z0.020000
(G00 Z0.020000)
G00 X-1.9850 Y1.2650 
G01 Z-0.100000
G01 Z0.020000
(G00 Z0.020000)
G00 X-2.0000 Y1.9950 
G01 Z-0.100000
G01 Z0.020000
(G00 Z0.020000)
G00 X-2.0000 Y2.1025 
G01 Z-0.100000
G01 Z0.020000
(G00 Z0.020000)
G00 X-2.0000 Y2.2050 
G01 Z-0.100000
G01 Z0.020000
(G00 Z0.020000)
G00 X-2.2750 Y2.6550 
G01 Z-0.100000
G01 Z0.020000
(G00 Z0.020000)
G00 X-2.4850 Y0.5800 
G01 Z-0.100000
G01 Z0.020000
(G00 Z0.020000)
G00 X-2.5900 Y0.1400 
G01 Z-0.100000
G01 Z0.020000
(G00 Z0.020000)
G00 X-2.5950 Y2.7050 
G01 Z-0.100000
G01 Z0.020000
(G00 Z0.020000)
G00 X-2.7600 Y1.4000 
G01 Z-0.100000
G01 Z0.020000
(G00 Z0.020000)
G00 X-2.9150 Y1.4000 
G01 Z-0.100000
G01 Z0.020000
(G00 Z0.020000)
G00 X-3.0650 Y1.3950 
G01 Z-0.100000
G01 Z0.020000
M05
G00 X0.0000 Y0.0000 Z1.0000 
M06 T08 (0.0590 )
G00 Z0.0200 
M03
G04 P0.200000
G00 Z0.020000
G00 X-0.4525 Y3.1650 
G01 Z-0.1000 F5.00  
G01 Z0.020000
(R0.0200  P0.100000)
(G00 Z0.020000)
G00 X-1.0525 Y3.1650 
G01 Z-0.100000
G01 Z0.020000
(G00 Z0.020000)
G00 X-2.8025 Y3.1825 
G01 Z-0.100000
G01 Z0.020000
(G00 Z0.020000)
G00 X-3.4025 Y3.1825 
G01 Z-0.100000
G01 Z0.020000
M05
G00 X0.0000 Y0.0000 Z1.0000 
M06 T09 (0.0670 )
G00 Z0.0200 
M03
G04 P0.200000
G00 Z0.020000
G00 X-1.4375 Y3.0100 
G01 Z-0.1000 F5.00  
G01 Z0.020000
(R0.0200  P0.100000)
M05
G00 X0.0000 Y0.0000 Z1.0000 
M06 T10 (0.0790 )
G00 Z0.0200 
M03
G04 P0.200000
G00 Z0.020000
G00 X-0.7050 Y2.1500 
G01 Z-0.1000 F5.00  
G01 Z0.020000
(R0.0200  P0.100000)
(G00 Z0.020000)
G00 X-0.7050 Y2.5500 
G01 Z-0.100000
G01 Z0.020000
(G00 Z0.020000)
G00 X-3.3200 Y2.1550 
G01 Z-0.100000
G01 Z0.020000
(G00 Z0.020000)
G00 X-3.3200 Y2.5550 
G01 Z-0.100000
G01 Z0.020000
M05
G00 X0.0000 Y0.0000 Z1.0000 
M06 T11 (0.1300 )
G00 Z0.0200 
M03
G04 P0.200000
G00 Z0.020000
G00 X-3.8300 Y3.7300 
G01 Z-0.1000 F5.00  
G01 Z0.020000
(R0.0200  P0.100000)
(File Footer)
T01 
G00 Z0.5000 
M05
M02
