( This gcode generated by /home/lg/eagle/ULPs/pcb-gcode.ulp )
( Copyright 2005 by John Johnson. See readme.txt for licensing terms. )

( This file generated from the board /home/lg/eagle/dspic-servo/dspic-servo-2.brd )
( This file generated  8/02/2006 18:11:50  )

G20

G90
G00 Z0.5000 
G00 X0 Y0
M03
G04 P0.200000
G00 Z0.0200 
G00 X-1.1709 Y1.7177 
G01 Z-0.0070 F5.00  
G01 X-1.1709 Y1.7278 
G01 X-1.1761 Y1.7330 
G01 X-1.1761 Y1.7670 
G01 X-1.1709 Y1.7722 
G01 X-1.1709 Y1.7823 
G01 X-1.1673 Y1.7859 
G01 X-1.1572 Y1.7859 
G01 X-1.1541 Y1.7891 
G01 X-0.8111 Y1.8313 
G01 X-0.8111 Y1.8595 
G01 X-0.8116 Y1.8600 
G01 X-0.8116 Y1.9280 
G01 X-0.8080 Y1.9316 
G01 X-0.7965 Y1.9316 
G01 X-0.7870 Y1.9411 
G01 X-0.7693 Y1.9411 
G01 X-0.4651 Y1.9420 
G01 X-0.4480 Y1.9420 
G01 X-0.4425 Y1.9366 
G01 X-0.4231 Y1.9366 
G01 X-0.4195 Y1.9330 
G01 X-0.4195 Y1.8689 
G01 X-0.4231 Y1.8653 
G01 X-0.4425 Y1.8653 
G01 X-0.4479 Y1.8599 
G01 X-0.7289 Y1.8590 
G01 X-0.7289 Y1.8255 
G01 X-0.7284 Y1.8250 
G01 X-0.7284 Y1.7570 
G01 X-0.7320 Y1.7534 
G01 X-0.7495 Y1.7534 
G01 X-0.7530 Y1.7499 
G01 X-0.7870 Y1.7499 
G01 X-0.7884 Y1.7513 
G01 X-1.1325 Y1.7089 
G01 X-1.1520 Y1.7089 
G01 X-1.1572 Y1.7141 
G01 X-1.1673 Y1.7141 
G01 X-1.1709 Y1.7177 
G00 Z0.0200 
G00 X-2.1059 Y2.6377 
G01 Z-0.0070 F5.00  
G01 X-2.1059 Y2.7023 
G01 X-2.1041 Y2.7041 
G01 X-2.1041 Y2.8716 
G01 X-2.1130 Y2.8805 
G01 X-2.1130 Y3.0195 
G01 X-2.0889 Y3.0436 
G01 X-2.0549 Y3.0436 
G01 X-2.0308 Y3.0195 
G01 X-2.0308 Y2.8805 
G01 X-2.0359 Y2.8754 
G01 X-2.0359 Y2.7041 
G01 X-2.0341 Y2.7023 
G01 X-2.0341 Y2.6377 
G01 X-2.0377 Y2.6341 
G01 X-2.1023 Y2.6341 
G01 X-2.1059 Y2.6377 
G00 Z0.0200 
G00 X-2.2416 Y0.5470 
G01 Z-0.0070 F5.00  
G01 X-2.2416 Y0.6230 
G01 X-2.2380 Y0.6266 
G01 X-2.2326 Y0.6266 
G01 X-2.2350 Y0.6666 
G01 X-2.2366 Y0.6681 
G01 X-2.2366 Y0.7519 
G01 X-2.2330 Y0.7555 
G01 X-2.1689 Y0.7555 
G01 X-2.1653 Y0.7519 
G01 X-2.1653 Y0.7236 
G01 X-2.1242 Y0.7236 
G01 X-2.1221 Y0.7215 
G01 X-2.1221 Y0.7219 
G01 X-2.1004 Y0.7436 
G01 X-2.0696 Y0.7436 
G01 X-2.0479 Y0.7219 
G01 X-2.0479 Y0.5981 
G01 X-2.0696 Y0.5764 
G01 X-2.1004 Y0.5764 
G01 X-2.1221 Y0.5981 
G01 X-2.1221 Y0.6477 
G01 X-2.1458 Y0.6714 
G01 X-2.1653 Y0.6714 
G01 X-2.1653 Y0.6681 
G01 X-2.1689 Y0.6645 
G01 X-2.1826 Y0.6645 
G01 X-2.1804 Y0.6266 
G01 X-2.1700 Y0.6266 
G01 X-2.1664 Y0.6230 
G01 X-2.1664 Y0.5470 
G01 X-2.1700 Y0.5434 
G01 X-2.2380 Y0.5434 
G01 X-2.2416 Y0.5470 
G00 Z0.0200 
G00 X-2.5936 Y0.5605 
G01 Z-0.0070 F5.00  
G01 X-2.5936 Y0.5995 
G01 X-2.5660 Y0.6271 
G01 X-2.4040 Y0.6271 
G01 X-2.3910 Y0.6141 
G01 X-2.3536 Y0.6121 
G01 X-2.3536 Y0.6230 
G01 X-2.3500 Y0.6266 
G01 X-2.2820 Y0.6266 
G01 X-2.2784 Y0.6230 
G01 X-2.2784 Y0.5470 
G01 X-2.2820 Y0.5434 
G01 X-2.3500 Y0.5434 
G01 X-2.3536 Y0.5470 
G01 X-2.3536 Y0.5598 
G01 X-2.3764 Y0.5611 
G01 X-2.3764 Y0.5605 
G01 X-2.4040 Y0.5329 
G01 X-2.5660 Y0.5329 
G01 X-2.5936 Y0.5605 
G00 Z0.0200 
G00 X-2.0045 Y1.3736 
G01 Z-0.0070 F5.00  
G01 X-1.9655 Y1.3736 
G01 X-1.9379 Y1.3460 
G01 X-1.9379 Y1.1840 
G01 X-1.9655 Y1.1564 
G01 X-2.0045 Y1.1564 
G01 X-2.0081 Y1.1600 
G01 X-2.0467 Y1.1214 
G01 X-2.0683 Y1.1214 
G01 X-2.0714 Y1.1214 
G01 X-2.0714 Y1.1095 
G01 X-2.0750 Y1.1059 
G01 X-2.1430 Y1.1059 
G01 X-2.1466 Y1.1095 
G01 X-2.1466 Y1.1855 
G01 X-2.1430 Y1.1891 
G01 X-2.0750 Y1.1891 
G01 X-2.0714 Y1.1855 
G01 X-2.0714 Y1.1736 
G01 X-2.0683 Y1.1736 
G01 X-2.0326 Y1.2093 
G01 X-2.0321 Y1.2107 
G01 X-2.0321 Y1.3460 
G01 X-2.0045 Y1.3736 
G00 Z0.0200 
G00 X-1.0305 Y0.4870 
G01 Z-0.0070 F5.00  
G01 X-1.0305 Y0.4964 
G01 X-1.2333 Y0.4964 
G01 X-1.2486 Y0.5117 
G01 X-1.3111 Y0.5742 
G01 X-1.3111 Y0.5871 
G01 X-1.3221 Y0.5981 
G01 X-1.3221 Y0.7219 
G01 X-1.3004 Y0.7436 
G01 X-1.2696 Y0.7436 
G01 X-1.2479 Y0.7219 
G01 X-1.2479 Y0.5981 
G01 X-1.2546 Y0.5915 
G01 X-1.2117 Y0.5486 
G01 X-1.0305 Y0.5486 
G01 X-1.0305 Y0.5511 
G01 X-1.0269 Y0.5547 
G01 X-1.0109 Y0.5547 
G01 X-1.0020 Y0.5636 
G01 X-0.9680 Y0.5636 
G01 X-0.9591 Y0.5547 
G01 X-0.9431 Y0.5547 
G01 X-0.9395 Y0.5511 
G01 X-0.9395 Y0.5412 
G01 X-0.9016 Y0.5412 
G01 X-0.9016 Y0.5500 
G01 X-0.8980 Y0.5536 
G01 X-0.8220 Y0.5536 
G01 X-0.8184 Y0.5500 
G01 X-0.8184 Y0.4820 
G01 X-0.8220 Y0.4784 
G01 X-0.8980 Y0.4784 
G01 X-0.9016 Y0.4820 
G01 X-0.9016 Y0.4890 
G01 X-0.9395 Y0.4890 
G01 X-0.9395 Y0.4870 
G01 X-0.9431 Y0.4834 
G01 X-0.9625 Y0.4834 
G01 X-0.9680 Y0.4780 
G01 X-1.0020 Y0.4780 
G01 X-1.0075 Y0.4834 
G01 X-1.0269 Y0.4834 
G01 X-1.0305 Y0.4870 
G00 Z0.0200 
G00 X-1.1529 Y1.3246 
G01 Z-0.0070 F5.00  
G01 X-1.1221 Y1.3246 
G01 X-1.1004 Y1.3029 
G01 X-1.1004 Y1.2721 
G01 X-1.1221 Y1.2504 
G01 X-1.1529 Y1.2504 
G01 X-1.1664 Y1.2639 
G01 X-1.3057 Y1.2639 
G01 X-1.3429 Y1.2336 
G01 X-1.3429 Y1.1766 
G01 X-1.3350 Y1.1766 
G01 X-1.3314 Y1.1730 
G01 X-1.3314 Y1.0970 
G01 X-1.3350 Y1.0934 
G01 X-1.4030 Y1.0934 
G01 X-1.4066 Y1.0970 
G01 X-1.4066 Y1.1730 
G01 X-1.4030 Y1.1766 
G01 X-1.3951 Y1.1766 
G01 X-1.3951 Y1.2352 
G01 X-1.3951 Y1.2568 
G01 X-1.3865 Y1.2654 
G01 X-1.3865 Y1.2654 
G01 X-1.3798 Y1.2721 
G01 X-1.3783 Y1.2721 
G01 X-1.3325 Y1.3094 
G01 X-1.3258 Y1.3161 
G01 X-1.1614 Y1.3161 
G01 X-1.1529 Y1.3246 
G00 Z0.0200 
G00 X-2.2945 Y2.7636 
G01 Z-0.0070 F5.00  
G01 X-2.2763 Y2.7636 
G01 X-2.2469 Y2.8891 
G01 X-2.2469 Y3.0195 
G01 X-2.2228 Y3.0436 
G01 X-2.1888 Y3.0436 
G01 X-2.1647 Y3.0195 
G01 X-2.1647 Y2.8805 
G01 X-2.1888 Y2.8564 
G01 X-2.2009 Y2.8564 
G01 X-2.2289 Y2.7370 
G01 X-2.2279 Y2.7360 
G01 X-2.2279 Y2.5740 
G01 X-2.2489 Y2.5530 
G01 X-2.2489 Y2.3659 
G01 X-2.2427 Y2.3659 
G01 X-2.2391 Y2.3623 
G01 X-2.2391 Y2.2977 
G01 X-2.2427 Y2.2941 
G01 X-2.3073 Y2.2941 
G01 X-2.3109 Y2.2977 
G01 X-2.3109 Y2.3623 
G01 X-2.3073 Y2.3659 
G01 X-2.3011 Y2.3659 
G01 X-2.3011 Y2.5530 
G01 X-2.3221 Y2.5740 
G01 X-2.3221 Y2.7360 
G01 X-2.2945 Y2.7636 
G00 Z0.0200 
G00 X-1.2311 Y1.5745 
G01 Z-0.0070 F5.00  
G01 X-1.2311 Y1.5808 
G01 X-1.2380 Y1.5739 
G01 X-1.2653 Y1.5739 
G01 X-1.2653 Y1.5731 
G01 X-1.2689 Y1.5695 
G01 X-1.3330 Y1.5695 
G01 X-1.3366 Y1.5731 
G01 X-1.3366 Y1.6569 
G01 X-1.3330 Y1.6605 
G01 X-1.2961 Y1.6605 
G01 X-1.2961 Y1.7120 
G01 X-1.2909 Y1.7172 
G01 X-1.2909 Y1.7273 
G01 X-1.2873 Y1.7309 
G01 X-1.2772 Y1.7309 
G01 X-1.2720 Y1.7361 
G01 X-1.2380 Y1.7361 
G01 X-1.2328 Y1.7309 
G01 X-1.2227 Y1.7309 
G01 X-1.2191 Y1.7273 
G01 X-1.2191 Y1.7172 
G01 X-1.2139 Y1.7120 
G01 X-1.2139 Y1.6541 
G01 X-1.1595 Y1.6541 
G01 X-1.1559 Y1.6505 
G01 X-1.1559 Y1.5745 
G01 X-1.1595 Y1.5709 
G01 X-1.2275 Y1.5709 
G01 X-1.2311 Y1.5745 
G00 Z0.0200 
G00 X-0.3105 Y2.3345 
G01 Z-0.0070 F5.00  
G01 X-0.3105 Y2.3986 
G01 X-0.3069 Y2.4022 
G01 X-0.3061 Y2.4022 
G01 X-0.3061 Y2.4580 
G01 X-0.3061 Y2.4920 
G01 X-0.2820 Y2.5161 
G01 X-0.2648 Y2.5161 
G01 X-0.2648 Y2.5161 
G01 X-0.2480 Y2.5161 
G01 X-0.2478 Y2.5159 
G01 X-0.1553 Y2.5149 
G01 X-0.1520 Y2.5116 
G01 X-0.1345 Y2.5116 
G01 X-0.1309 Y2.5080 
G01 X-0.1309 Y2.4400 
G01 X-0.1345 Y2.4364 
G01 X-0.1520 Y2.4364 
G01 X-0.1555 Y2.4329 
G01 X-0.1727 Y2.4329 
G01 X-0.2239 Y2.4335 
G01 X-0.2239 Y2.4022 
G01 X-0.2231 Y2.4022 
G01 X-0.2195 Y2.3986 
G01 X-0.2195 Y2.3345 
G01 X-0.2231 Y2.3309 
G01 X-0.2425 Y2.3309 
G01 X-0.2480 Y2.3255 
G01 X-0.2820 Y2.3255 
G01 X-0.2875 Y2.3309 
G01 X-0.3069 Y2.3309 
G01 X-0.3105 Y2.3345 
G00 Z0.0200 
G00 X-1.4595 Y2.8136 
G01 Z-0.0070 F5.00  
G01 X-1.4205 Y2.8136 
G01 X-1.3929 Y2.7860 
G01 X-1.3929 Y2.7372 
G01 X-1.3839 Y2.7282 
G01 X-1.3839 Y2.6311 
G01 X-0.7605 Y2.6311 
G01 X-0.7450 Y2.6466 
G01 X-0.6650 Y2.6466 
G01 X-0.6245 Y2.6061 
G01 X-0.5104 Y2.6061 
G01 X-0.5086 Y2.7677 
G01 X-0.5086 Y3.1144 
G01 X-0.5402 Y3.1144 
G01 X-0.5698 Y3.1440 
G01 X-0.5698 Y3.1860 
G01 X-0.5402 Y3.2156 
G01 X-0.4812 Y3.2156 
G01 X-0.4757 Y3.2211 
G01 X-0.4293 Y3.2211 
G01 X-0.4238 Y3.2156 
G01 X-0.3648 Y3.2156 
G01 X-0.3352 Y3.1860 
G01 X-0.3352 Y3.1440 
G01 X-0.3648 Y3.1144 
G01 X-0.3964 Y3.1144 
G01 X-0.3964 Y2.7907 
G01 X-0.3964 Y2.7672 
G01 X-0.3964 Y2.7672 
G01 X-0.3964 Y2.7443 
G01 X-0.3967 Y2.7440 
G01 X-0.3989 Y2.5497 
G01 X-0.3989 Y2.5268 
G01 X-0.3992 Y2.5265 
G01 X-0.4139 Y2.5118 
G01 X-0.4139 Y2.4147 
G01 X-0.4131 Y2.4147 
G01 X-0.4095 Y2.4111 
G01 X-0.4095 Y2.3470 
G01 X-0.4131 Y2.3434 
G01 X-0.4325 Y2.3434 
G01 X-0.4380 Y2.3380 
G01 X-0.4720 Y2.3380 
G01 X-0.4775 Y2.3434 
G01 X-0.4969 Y2.3434 
G01 X-0.5005 Y2.3470 
G01 X-0.5005 Y2.4111 
G01 X-0.4969 Y2.4147 
G01 X-0.4961 Y2.4147 
G01 X-0.4961 Y2.4939 
G01 X-0.6245 Y2.4939 
G01 X-0.6650 Y2.4534 
G01 X-0.7450 Y2.4534 
G01 X-0.7605 Y2.4689 
G01 X-1.4786 Y2.4689 
G01 X-1.5534 Y2.4689 
G01 X-1.5514 Y2.1352 
G01 X-1.5514 Y2.1014 
G01 X-1.5989 Y2.0539 
G01 X-1.6661 Y2.0539 
G01 X-1.7134 Y2.1012 
G01 X-1.7158 Y2.4939 
G01 X-1.8732 Y2.4939 
G01 X-1.9061 Y2.5268 
G01 X-1.9061 Y2.5575 
G01 X-1.9614 Y2.6341 
G01 X-1.9723 Y2.6341 
G01 X-1.9759 Y2.6377 
G01 X-1.9759 Y2.6541 
G01 X-1.9792 Y2.6586 
G01 X-1.9792 Y2.6889 
G01 X-1.9759 Y2.6922 
G01 X-1.9759 Y2.7023 
G01 X-1.9723 Y2.7059 
G01 X-1.9722 Y2.7059 
G01 X-1.9722 Y2.8735 
G01 X-1.9792 Y2.8805 
G01 X-1.9792 Y3.0195 
G01 X-1.9551 Y3.0436 
G01 X-1.9210 Y3.0436 
G01 X-1.8970 Y3.0195 
G01 X-1.8970 Y2.8805 
G01 X-1.9040 Y2.8735 
G01 X-1.9040 Y2.6949 
G01 X-1.8398 Y2.6061 
G01 X-1.6936 Y2.6061 
G01 X-1.6686 Y2.6311 
G01 X-1.6014 Y2.6311 
G01 X-1.4961 Y2.6311 
G01 X-1.4961 Y2.7282 
G01 X-1.4871 Y2.7372 
G01 X-1.4871 Y2.7860 
G01 X-1.4595 Y2.8136 
G00 Z0.0200 
G00 X-0.7991 Y0.7681 
G01 Z-0.0070 F5.00  
G01 X-0.7991 Y0.8519 
G01 X-0.7955 Y0.8555 
G01 X-0.7314 Y0.8555 
G01 X-0.7278 Y0.8519 
G01 X-0.7278 Y0.8487 
G01 X-0.7111 Y0.8541 
G01 X-0.7111 Y1.3577 
G01 X-0.7213 Y1.3577 
G01 X-0.7248 Y1.3612 
G01 X-0.7248 Y1.4338 
G01 X-0.7213 Y1.4373 
G01 X-0.6487 Y1.4373 
G01 X-0.6452 Y1.4338 
G01 X-0.6452 Y1.3612 
G01 X-0.6487 Y1.3577 
G01 X-0.6589 Y1.3577 
G01 X-0.6589 Y0.8242 
G01 X-0.6742 Y0.8089 
G01 X-0.6810 Y0.8089 
G01 X-0.7278 Y0.7940 
G01 X-0.7278 Y0.7681 
G01 X-0.7314 Y0.7645 
G01 X-0.7413 Y0.7645 
G01 X-0.7479 Y0.6898 
G01 X-0.7479 Y0.5981 
G01 X-0.7696 Y0.5764 
G01 X-0.8004 Y0.5764 
G01 X-0.8221 Y0.5981 
G01 X-0.8221 Y0.7219 
G01 X-0.8004 Y0.7436 
G01 X-0.7955 Y0.7436 
G01 X-0.7937 Y0.7645 
G01 X-0.7955 Y0.7645 
G01 X-0.7991 Y0.7681 
G00 Z0.0200 
G00 X-2.5336 Y0.7470 
G01 Z-0.0070 F5.00  
G01 X-2.5336 Y0.7498 
G01 X-2.5479 Y0.7466 
G01 X-2.5479 Y0.7031 
G01 X-2.5696 Y0.6814 
G01 X-2.6004 Y0.6814 
G01 X-2.6221 Y0.7031 
G01 X-2.6221 Y0.8269 
G01 X-2.6004 Y0.8486 
G01 X-2.5696 Y0.8486 
G01 X-2.5479 Y0.8269 
G01 X-2.5479 Y0.8001 
G01 X-2.5336 Y0.8033 
G01 X-2.5336 Y0.8230 
G01 X-2.5300 Y0.8266 
G01 X-2.4620 Y0.8266 
G01 X-2.4584 Y0.8230 
G01 X-2.4584 Y0.7470 
G01 X-2.4620 Y0.7434 
G01 X-2.5300 Y0.7434 
G01 X-2.5336 Y0.7470 
G00 Z0.0200 
G00 X-1.2416 Y0.3995 
G01 Z-0.0070 F5.00  
G01 X-1.2416 Y0.4076 
G01 X-1.2845 Y0.4078 
G01 X-1.2845 Y0.4020 
G01 X-1.2881 Y0.3984 
G01 X-1.3719 Y0.3984 
G01 X-1.3755 Y0.4020 
G01 X-1.3755 Y0.4661 
G01 X-1.3719 Y0.4697 
G01 X-1.3615 Y0.4697 
G01 X-1.3898 Y0.5764 
G01 X-1.4004 Y0.5764 
G01 X-1.4221 Y0.5981 
G01 X-1.4221 Y0.7219 
G01 X-1.4004 Y0.7436 
G01 X-1.3696 Y0.7436 
G01 X-1.3479 Y0.7219 
G01 X-1.3479 Y0.6220 
G01 X-1.3075 Y0.4697 
G01 X-1.2881 Y0.4697 
G01 X-1.2845 Y0.4661 
G01 X-1.2845 Y0.4600 
G01 X-1.2416 Y0.4598 
G01 X-1.2416 Y0.4675 
G01 X-1.2380 Y0.4711 
G01 X-1.1620 Y0.4711 
G01 X-1.1584 Y0.4675 
G01 X-1.1584 Y0.3995 
G01 X-1.1620 Y0.3959 
G01 X-1.2380 Y0.3959 
G01 X-1.2416 Y0.3995 
G00 Z0.0200 
G00 X-0.9016 Y0.3700 
G01 Z-0.0070 F5.00  
G01 X-0.9016 Y0.4380 
G01 X-0.8980 Y0.4416 
G01 X-0.8220 Y0.4416 
G01 X-0.8184 Y0.4380 
G01 X-0.8184 Y0.3700 
G01 X-0.8220 Y0.3664 
G01 X-0.8339 Y0.3664 
G01 X-0.8339 Y0.3542 
G01 X-0.8339 Y0.3420 
G01 X-0.8129 Y0.3210 
G01 X-0.8129 Y0.1590 
G01 X-0.8405 Y0.1314 
G01 X-0.8795 Y0.1314 
G01 X-0.9071 Y0.1590 
G01 X-0.9071 Y0.3210 
G01 X-0.8861 Y0.3420 
G01 X-0.8861 Y0.3542 
G01 X-0.8901 Y0.3582 
G01 X-0.8901 Y0.3664 
G01 X-0.8980 Y0.3664 
G01 X-0.9016 Y0.3700 
G00 Z0.0200 
G00 X-0.8166 Y1.1670 
G01 Z-0.0070 F5.00  
G01 X-0.8166 Y1.2430 
G01 X-0.8130 Y1.2466 
G01 X-0.7450 Y1.2466 
G01 X-0.7414 Y1.2430 
G01 X-0.7414 Y1.1670 
G01 X-0.7450 Y1.1634 
G01 X-0.7499 Y1.1634 
G01 X-0.7499 Y1.1430 
G01 X-0.7439 Y1.1430 
G01 X-0.7403 Y1.1394 
G01 X-0.7403 Y1.0556 
G01 X-0.7439 Y1.0520 
G01 X-0.7589 Y1.0520 
G01 X-0.7589 Y1.0329 
G01 X-0.7479 Y1.0219 
G01 X-0.7479 Y0.8981 
G01 X-0.7696 Y0.8764 
G01 X-0.8004 Y0.8764 
G01 X-0.8221 Y0.8981 
G01 X-0.8221 Y1.0219 
G01 X-0.8111 Y1.0329 
G01 X-0.8111 Y1.0551 
G01 X-0.8116 Y1.0556 
G01 X-0.8116 Y1.1394 
G01 X-0.8080 Y1.1430 
G01 X-0.8020 Y1.1430 
G01 X-0.8020 Y1.1634 
G01 X-0.8130 Y1.1634 
G01 X-0.8166 Y1.1670 
G00 Z0.0200 
G00 X-0.9286 Y1.1670 
G01 Z-0.0070 F5.00  
G01 X-0.9286 Y1.2430 
G01 X-0.9250 Y1.2466 
G01 X-0.9162 Y1.2466 
G01 X-0.9118 Y1.4591 
G01 X-0.9173 Y1.4591 
G01 X-0.9209 Y1.4627 
G01 X-0.9209 Y1.5273 
G01 X-0.9173 Y1.5309 
G01 X-0.8835 Y1.5309 
G01 X-0.8111 Y1.5938 
G01 X-0.8111 Y1.6070 
G01 X-0.8111 Y1.6445 
G01 X-0.8116 Y1.6450 
G01 X-0.8116 Y1.7130 
G01 X-0.8080 Y1.7166 
G01 X-0.7905 Y1.7166 
G01 X-0.7870 Y1.7201 
G01 X-0.7530 Y1.7201 
G01 X-0.7495 Y1.7166 
G01 X-0.7320 Y1.7166 
G01 X-0.7284 Y1.7130 
G01 X-0.7284 Y1.6450 
G01 X-0.7289 Y1.6445 
G01 X-0.7289 Y1.6311 
G01 X-0.6270 Y1.6311 
G01 X-0.5941 Y1.6311 
G01 X-0.5930 Y1.6311 
G01 X-0.5816 Y1.6198 
G01 X-0.4841 Y1.5311 
G01 X-0.4830 Y1.5311 
G01 X-0.4716 Y1.5197 
G01 X-0.4716 Y1.5197 
G01 X-0.4638 Y1.5119 
G01 X-0.4589 Y1.5070 
G01 X-0.4589 Y0.3370 
G01 X-0.4529 Y0.3310 
G01 X-0.4529 Y0.1690 
G01 X-0.4805 Y0.1414 
G01 X-0.5195 Y0.1414 
G01 X-0.5471 Y0.1690 
G01 X-0.5471 Y0.3310 
G01 X-0.5411 Y0.3370 
G01 X-0.5411 Y1.4718 
G01 X-0.6259 Y1.5489 
G01 X-0.7480 Y1.5489 
G01 X-0.7530 Y1.5439 
G01 X-0.7870 Y1.5439 
G01 X-0.7879 Y1.5448 
G01 X-0.8491 Y1.4916 
G01 X-0.8491 Y1.4627 
G01 X-0.8527 Y1.4591 
G01 X-0.8596 Y1.4591 
G01 X-0.8640 Y1.2466 
G01 X-0.8570 Y1.2466 
G01 X-0.8534 Y1.2430 
G01 X-0.8534 Y1.1670 
G01 X-0.8570 Y1.1634 
G01 X-0.9250 Y1.1634 
G01 X-0.9286 Y1.1670 
G00 Z0.0200 
G00 X-1.0855 Y0.1464 
G01 Z-0.0070 F5.00  
G01 X-1.1245 Y0.1464 
G01 X-1.1521 Y0.1740 
G01 X-1.1521 Y0.2585 
G01 X-1.1849 Y0.2839 
G01 X-1.2380 Y0.2839 
G01 X-1.2416 Y0.2875 
G01 X-1.2416 Y0.3555 
G01 X-1.2380 Y0.3591 
G01 X-1.1620 Y0.3591 
G01 X-1.1584 Y0.3555 
G01 X-1.1584 Y0.3294 
G01 X-1.1521 Y0.3245 
G01 X-1.1521 Y0.3360 
G01 X-1.1245 Y0.3636 
G01 X-1.0855 Y0.3636 
G01 X-1.0579 Y0.3360 
G01 X-1.0579 Y0.1740 
G01 X-1.0855 Y0.1464 
G00 Z0.0200 
G00 X-2.3520 Y1.7186 
G01 Z-0.0070 F5.00  
G01 X-2.3180 Y1.7186 
G01 X-2.2939 Y1.6945 
G01 X-2.2939 Y1.5555 
G01 X-2.3180 Y1.5314 
G01 X-2.3520 Y1.5314 
G01 X-2.3761 Y1.5555 
G01 X-2.3761 Y1.5989 
G01 X-2.4779 Y1.5989 
G01 X-2.5189 Y1.5504 
G01 X-2.5189 Y1.4373 
G01 X-2.5112 Y1.4373 
G01 X-2.5077 Y1.4338 
G01 X-2.5077 Y1.3612 
G01 X-2.5112 Y1.3577 
G01 X-2.5275 Y1.3577 
G01 X-2.5485 Y1.2275 
G01 X-2.5479 Y1.2269 
G01 X-2.5479 Y1.1031 
G01 X-2.5696 Y1.0814 
G01 X-2.6004 Y1.0814 
G01 X-2.6221 Y1.1031 
G01 X-2.6221 Y1.2269 
G01 X-2.6004 Y1.2486 
G01 X-2.5979 Y1.2486 
G01 X-2.5804 Y1.3577 
G01 X-2.5838 Y1.3577 
G01 X-2.5873 Y1.3612 
G01 X-2.5873 Y1.4338 
G01 X-2.5838 Y1.4373 
G01 X-2.5711 Y1.4373 
G01 X-2.5711 Y1.5708 
G01 X-2.5642 Y1.5777 
G01 X-2.5161 Y1.6346 
G01 X-2.5161 Y1.6358 
G01 X-2.5092 Y1.6427 
G01 X-2.5092 Y1.6427 
G01 X-2.5008 Y1.6511 
G01 X-2.4792 Y1.6511 
G01 X-2.3761 Y1.6511 
G01 X-2.3761 Y1.6945 
G01 X-2.3520 Y1.7186 
G00 Z0.0200 
G00 X-2.2520 Y1.7186 
G01 Z-0.0070 F5.00  
G01 X-2.2180 Y1.7186 
G01 X-2.1939 Y1.6945 
G01 X-2.1939 Y1.5555 
G01 X-2.2089 Y1.5405 
G01 X-2.2089 Y1.5117 
G01 X-2.2089 Y1.4155 
G01 X-2.1870 Y1.4155 
G01 X-2.1834 Y1.4119 
G01 X-2.1834 Y1.3281 
G01 X-2.1870 Y1.3245 
G01 X-2.2511 Y1.3245 
G01 X-2.2547 Y1.3281 
G01 X-2.2547 Y1.3339 
G01 X-2.2852 Y1.3339 
G01 X-2.3089 Y1.3132 
G01 X-2.3089 Y0.9920 
G01 X-2.2939 Y0.9770 
G01 X-2.2939 Y0.9430 
G01 X-2.3019 Y0.9350 
G01 X-2.3000 Y0.9331 
G01 X-2.2652 Y0.8461 
G01 X-1.9780 Y0.8461 
G01 X-1.9680 Y0.8461 
G01 X-1.6651 Y0.8461 
G01 X-1.6261 Y0.8791 
G01 X-1.6261 Y0.9770 
G01 X-1.6261 Y1.1520 
G01 X-1.6116 Y1.1665 
G01 X-1.6116 Y1.1769 
G01 X-1.6080 Y1.1805 
G01 X-1.5439 Y1.1805 
G01 X-1.5403 Y1.1769 
G01 X-1.5403 Y1.1761 
G01 X-1.5221 Y1.1761 
G01 X-1.5221 Y1.5220 
G01 X-1.4980 Y1.5461 
G01 X-1.4640 Y1.5461 
G01 X-1.4488 Y1.5309 
G01 X-1.4477 Y1.5309 
G01 X-1.4441 Y1.5273 
G01 X-1.4441 Y1.5262 
G01 X-1.4399 Y1.5220 
G01 X-1.4399 Y1.1180 
G01 X-1.4434 Y1.1145 
G01 X-1.4434 Y1.0970 
G01 X-1.4470 Y1.0934 
G01 X-1.5150 Y1.0934 
G01 X-1.5155 Y1.0939 
G01 X-1.5403 Y1.0939 
G01 X-1.5403 Y1.0931 
G01 X-1.5439 Y1.0895 
G01 X-1.5439 Y1.0895 
G01 X-1.5439 Y0.9770 
G01 X-1.5439 Y0.8770 
G01 X-1.5439 Y0.8430 
G01 X-1.5571 Y0.8297 
G01 X-1.5572 Y0.8297 
G01 X-1.5680 Y0.8189 
G01 X-1.5699 Y0.8189 
G01 X-1.6221 Y0.7747 
G01 X-1.6330 Y0.7639 
G01 X-1.9439 Y0.7639 
G01 X-1.9439 Y0.6430 
G01 X-1.9479 Y0.6390 
G01 X-1.9479 Y0.5981 
G01 X-1.9696 Y0.5764 
G01 X-2.0004 Y0.5764 
G01 X-2.0221 Y0.5981 
G01 X-2.0221 Y0.6390 
G01 X-2.0261 Y0.6430 
G01 X-2.0261 Y0.7639 
G01 X-2.2780 Y0.7639 
G01 X-2.2867 Y0.7552 
G01 X-2.2834 Y0.7519 
G01 X-2.2834 Y0.6681 
G01 X-2.2870 Y0.6645 
G01 X-2.3511 Y0.6645 
G01 X-2.3547 Y0.6681 
G01 X-2.3547 Y0.7434 
G01 X-2.4180 Y0.7434 
G01 X-2.4216 Y0.7470 
G01 X-2.4216 Y0.7645 
G01 X-2.4251 Y0.7680 
G01 X-2.4251 Y0.8020 
G01 X-2.4216 Y0.8055 
G01 X-2.4216 Y0.8230 
G01 X-2.4180 Y0.8266 
G01 X-2.3500 Y0.8266 
G01 X-2.3499 Y0.8265 
G01 X-2.3470 Y0.8294 
G01 X-2.3761 Y0.9021 
G01 X-2.3761 Y0.9189 
G01 X-2.7939 Y0.9189 
G01 X-2.7939 Y0.8520 
G01 X-2.7939 Y0.8180 
G01 X-2.8107 Y0.8012 
G01 X-2.8180 Y0.7939 
G01 X-2.8253 Y0.7939 
G01 X-2.8307 Y0.7912 
G01 X-2.8430 Y0.7789 
G01 X-2.8888 Y0.7789 
G01 X-2.8939 Y0.7764 
G01 X-2.8939 Y0.6430 
G01 X-2.8979 Y0.6390 
G01 X-2.8979 Y0.5981 
G01 X-2.9196 Y0.5764 
G01 X-2.9504 Y0.5764 
G01 X-2.9721 Y0.5981 
G01 X-2.9721 Y0.6390 
G01 X-2.9761 Y0.6430 
G01 X-2.9761 Y0.7789 
G01 X-3.6180 Y0.7789 
G01 X-3.6520 Y0.7789 
G01 X-3.6651 Y0.7920 
G01 X-3.6651 Y0.7920 
G01 X-3.6761 Y0.8030 
G01 X-3.6761 Y0.8047 
G01 X-4.0451 Y1.2320 
G01 X-4.0561 Y1.2430 
G01 X-4.0561 Y1.2447 
G01 X-4.0561 Y1.2770 
G01 X-4.0561 Y2.9980 
G01 X-4.0561 Y3.0276 
G01 X-4.0561 Y3.0320 
G01 X-4.0468 Y3.0413 
G01 X-3.9731 Y3.1497 
G01 X-3.9731 Y3.2133 
G01 X-3.9478 Y3.2386 
G01 X-3.9121 Y3.2386 
G01 X-3.8869 Y3.2133 
G01 X-3.8869 Y3.0666 
G01 X-3.9121 Y3.0414 
G01 X-3.9474 Y3.0414 
G01 X-3.9739 Y3.0024 
G01 X-3.9739 Y1.2753 
G01 X-3.6162 Y0.8611 
G01 X-2.8761 Y0.8611 
G01 X-2.8761 Y0.9430 
G01 X-2.8761 Y0.9770 
G01 X-2.8721 Y0.9810 
G01 X-2.8721 Y1.0219 
G01 X-2.8504 Y1.0436 
G01 X-2.8196 Y1.0436 
G01 X-2.7979 Y1.0219 
G01 X-2.7979 Y1.0011 
G01 X-2.3611 Y1.0011 
G01 X-2.3611 Y1.3142 
G01 X-2.3611 Y1.3358 
G01 X-2.3528 Y1.3441 
G01 X-2.3528 Y1.3441 
G01 X-2.3458 Y1.3511 
G01 X-2.3448 Y1.3511 
G01 X-2.3128 Y1.3791 
G01 X-2.3058 Y1.3861 
G01 X-2.3048 Y1.3861 
G01 X-2.2842 Y1.3861 
G01 X-2.2611 Y1.3861 
G01 X-2.2611 Y1.5117 
G01 X-2.2611 Y1.5405 
G01 X-2.2761 Y1.5555 
G01 X-2.2761 Y1.6945 
G01 X-2.2520 Y1.7186 
G00 Z0.0200 
G00 X-2.0520 Y1.7186 
G01 Z-0.0070 F5.00  
G01 X-2.0180 Y1.7186 
G01 X-1.9939 Y1.6945 
G01 X-1.9939 Y1.5555 
G01 X-2.0046 Y1.5447 
G01 X-2.0045 Y1.5422 
G01 X-1.8750 Y1.4261 
G01 X-1.8742 Y1.4261 
G01 X-1.8671 Y1.4189 
G01 X-1.8639 Y1.4158 
G01 X-1.8589 Y1.4108 
G01 X-1.8589 Y1.0329 
G01 X-1.8479 Y1.0219 
G01 X-1.8479 Y0.8981 
G01 X-1.8696 Y0.8764 
G01 X-1.9004 Y0.8764 
G01 X-1.9221 Y0.8981 
G01 X-1.9221 Y1.0219 
G01 X-1.9111 Y1.0329 
G01 X-1.9111 Y1.3884 
G01 X-2.0400 Y1.5039 
G01 X-2.0408 Y1.5039 
G01 X-2.0479 Y1.5110 
G01 X-2.0479 Y1.5110 
G01 X-2.0561 Y1.5192 
G01 X-2.0561 Y1.5293 
G01 X-2.0564 Y1.5358 
G01 X-2.0761 Y1.5555 
G01 X-2.0761 Y1.6945 
G01 X-2.0520 Y1.7186 
G00 Z0.0200 
G00 X-2.9345 Y1.5086 
G01 Z-0.0070 F5.00  
G01 X-2.8955 Y1.5086 
G01 X-2.8679 Y1.4810 
G01 X-2.8679 Y1.3190 
G01 X-2.8839 Y1.3030 
G01 X-2.8839 Y1.2786 
G01 X-2.8720 Y1.2786 
G01 X-2.8684 Y1.2750 
G01 X-2.8684 Y1.2070 
G01 X-2.8720 Y1.2034 
G01 X-2.9480 Y1.2034 
G01 X-2.9516 Y1.2070 
G01 X-2.9516 Y1.2750 
G01 X-2.9480 Y1.2786 
G01 X-2.9361 Y1.2786 
G01 X-2.9361 Y1.2930 
G01 X-2.9621 Y1.3190 
G01 X-2.9621 Y1.4810 
G01 X-2.9345 Y1.5086 
G00 Z0.0200 
G00 X-3.0979 Y1.0219 
G01 Z-0.0070 F5.00  
G01 X-3.0979 Y0.8981 
G01 X-3.1196 Y0.8764 
G01 X-3.1504 Y0.8764 
G01 X-3.1721 Y0.8981 
G01 X-3.1721 Y1.0219 
G01 X-3.1611 Y1.0329 
G01 X-3.1611 Y1.0803 
G01 X-3.2319 Y1.0803 
G01 X-3.2355 Y1.0839 
G01 X-3.2355 Y1.1480 
G01 X-3.2319 Y1.1516 
G01 X-3.1481 Y1.1516 
G01 X-3.1466 Y1.1501 
G01 X-3.0966 Y1.1501 
G01 X-3.0966 Y1.1580 
G01 X-3.0930 Y1.1616 
G01 X-3.0170 Y1.1616 
G01 X-3.0134 Y1.1580 
G01 X-3.0134 Y1.0900 
G01 X-3.0170 Y1.0864 
G01 X-3.0930 Y1.0864 
G01 X-3.0966 Y1.0900 
G01 X-3.0966 Y1.0979 
G01 X-3.1089 Y1.0979 
G01 X-3.1089 Y1.0329 
G01 X-3.0979 Y1.0219 
G00 Z0.0200 
G00 X-3.0504 Y1.0436 
G01 Z-0.0070 F5.00  
G01 X-3.0196 Y1.0436 
G01 X-2.9979 Y1.0219 
G01 X-2.9979 Y0.8981 
G01 X-3.0196 Y0.8764 
G01 X-3.0504 Y0.8764 
G01 X-3.0721 Y0.8981 
G01 X-3.0721 Y1.0219 
G01 X-3.0504 Y1.0436 
G00 Z0.0200 
G00 X-2.8504 Y0.7436 
G01 Z-0.0070 F5.00  
G01 X-2.8196 Y0.7436 
G01 X-2.7979 Y0.7219 
G01 X-2.7979 Y0.5981 
G01 X-2.8089 Y0.5871 
G01 X-2.8089 Y0.4515 
G01 X-2.7699 Y0.4161 
G01 X-2.0563 Y0.4161 
G01 X-1.9111 Y0.5703 
G01 X-1.9111 Y0.5871 
G01 X-1.9221 Y0.5981 
G01 X-1.9221 Y0.7219 
G01 X-1.9004 Y0.7436 
G01 X-1.8696 Y0.7436 
G01 X-1.8479 Y0.7219 
G01 X-1.8479 Y0.5981 
G01 X-1.8589 Y0.5871 
G01 X-1.8589 Y0.5708 
G01 X-1.8589 Y0.5496 
G01 X-1.8589 Y0.5492 
G01 X-1.8662 Y0.5419 
G01 X-2.0189 Y0.3797 
G01 X-2.0189 Y0.3792 
G01 X-2.0263 Y0.3718 
G01 X-2.0263 Y0.3718 
G01 X-2.0308 Y0.3674 
G01 X-2.0342 Y0.3639 
G01 X-2.7692 Y0.3639 
G01 X-2.7901 Y0.3639 
G01 X-2.7908 Y0.3639 
G01 X-2.7980 Y0.3711 
G01 X-2.8451 Y0.4139 
G01 X-2.8458 Y0.4139 
G01 X-2.8530 Y0.4211 
G01 X-2.8530 Y0.4211 
G01 X-2.8578 Y0.4259 
G01 X-2.8611 Y0.4292 
G01 X-2.8611 Y0.5871 
G01 X-2.8721 Y0.5981 
G01 X-2.8721 Y0.7219 
G01 X-2.8504 Y0.7436 
G00 Z0.0200 
G00 X-0.9479 Y1.0219 
G01 Z-0.0070 F5.00  
G01 X-0.9479 Y0.8981 
G01 X-0.9696 Y0.8764 
G01 X-1.0004 Y0.8764 
G01 X-1.0221 Y0.8981 
G01 X-1.0221 Y1.0219 
G01 X-1.0111 Y1.0329 
G01 X-1.0111 Y1.5926 
G01 X-1.0439 Y1.5934 
G01 X-1.0439 Y1.5745 
G01 X-1.0475 Y1.5709 
G01 X-1.1155 Y1.5709 
G01 X-1.1191 Y1.5745 
G01 X-1.1191 Y1.6505 
G01 X-1.1155 Y1.6541 
G01 X-1.0475 Y1.6541 
G01 X-1.0439 Y1.6505 
G01 X-1.0439 Y1.6296 
G01 X-0.9849 Y1.6281 
G01 X-0.9775 Y1.6281 
G01 X-0.9773 Y1.6279 
G01 X-0.9669 Y1.6175 
G01 X-0.9669 Y1.6138 
G01 X-0.9589 Y1.6058 
G01 X-0.9589 Y1.0329 
G01 X-0.9479 Y1.0219 
G00 Z0.0200 
G00 X-1.0479 Y1.0219 
G01 Z-0.0070 F5.00  
G01 X-1.0479 Y0.8981 
G01 X-1.0696 Y0.8764 
G01 X-1.1004 Y0.8764 
G01 X-1.1221 Y0.8981 
G01 X-1.1221 Y1.0219 
G01 X-1.1111 Y1.0329 
G01 X-1.1111 Y1.0331 
G01 X-1.1522 Y1.1504 
G01 X-1.1529 Y1.1504 
G01 X-1.1746 Y1.1721 
G01 X-1.1746 Y1.2029 
G01 X-1.1529 Y1.2246 
G01 X-1.1221 Y1.2246 
G01 X-1.1004 Y1.2029 
G01 X-1.1004 Y1.1721 
G01 X-1.1034 Y1.1691 
G01 X-1.0623 Y1.0517 
G01 X-1.0589 Y1.0483 
G01 X-1.0589 Y1.0419 
G01 X-1.0589 Y1.0329 
G01 X-1.0479 Y1.0219 
G00 Z0.0200 
G00 X-1.1479 Y1.0219 
G01 Z-0.0070 F5.00  
G01 X-1.1479 Y0.8981 
G01 X-1.1696 Y0.8764 
G01 X-1.2004 Y0.8764 
G01 X-1.2221 Y0.8981 
G01 X-1.2221 Y1.0219 
G01 X-1.2031 Y1.0409 
G01 X-1.2031 Y1.0507 
G01 X-1.2359 Y1.0741 
G01 X-1.2873 Y1.0741 
G01 X-1.2909 Y1.0777 
G01 X-1.2909 Y1.1423 
G01 X-1.2873 Y1.1459 
G01 X-1.2227 Y1.1459 
G01 X-1.2191 Y1.1423 
G01 X-1.2191 Y1.1066 
G01 X-1.1792 Y1.0781 
G01 X-1.1775 Y1.0781 
G01 X-1.1733 Y1.0739 
G01 X-1.1733 Y1.0739 
G01 X-1.1669 Y1.0675 
G01 X-1.1669 Y1.0525 
G01 X-1.1669 Y1.0409 
G01 X-1.1479 Y1.0219 
G00 Z0.0200 
G00 X-1.3004 Y1.0436 
G01 Z-0.0070 F5.00  
G01 X-1.2696 Y1.0436 
G01 X-1.2479 Y1.0219 
G01 X-1.2479 Y0.8981 
G01 X-1.2696 Y0.8764 
G01 X-1.3004 Y0.8764 
G01 X-1.3221 Y0.8981 
G01 X-1.3221 Y1.0219 
G01 X-1.3004 Y1.0436 
G00 Z0.0200 
G00 X-1.4004 Y1.0436 
G01 Z-0.0070 F5.00  
G01 X-1.3696 Y1.0436 
G01 X-1.3479 Y1.0219 
G01 X-1.3479 Y0.8981 
G01 X-1.3696 Y0.8764 
G01 X-1.4004 Y0.8764 
G01 X-1.4221 Y0.8981 
G01 X-1.4221 Y1.0219 
G01 X-1.4004 Y1.0436 
G00 Z0.0200 
G00 X-1.5004 Y1.0436 
G01 Z-0.0070 F5.00  
G01 X-1.4696 Y1.0436 
G01 X-1.4479 Y1.0219 
G01 X-1.4479 Y0.8981 
G01 X-1.4696 Y0.8764 
G01 X-1.5004 Y0.8764 
G01 X-1.5221 Y0.8981 
G01 X-1.5221 Y1.0219 
G01 X-1.5004 Y1.0436 
G00 Z0.0200 
G00 X-1.7479 Y1.0219 
G01 Z-0.0070 F5.00  
G01 X-1.7479 Y0.8981 
G01 X-1.7696 Y0.8764 
G01 X-1.8004 Y0.8764 
G01 X-1.8221 Y0.8981 
G01 X-1.8221 Y1.0219 
G01 X-1.8111 Y1.0329 
G01 X-1.8111 Y1.4092 
G01 X-1.9333 Y1.5314 
G01 X-1.9520 Y1.5314 
G01 X-1.9761 Y1.5555 
G01 X-1.9761 Y1.6945 
G01 X-1.9520 Y1.7186 
G01 X-1.9180 Y1.7186 
G01 X-1.8939 Y1.6945 
G01 X-1.8939 Y1.5658 
G01 X-1.7742 Y1.4461 
G01 X-1.7589 Y1.4308 
G01 X-1.7589 Y1.0329 
G01 X-1.7479 Y1.0219 
G00 Z0.0200 
G00 X-1.9479 Y1.0219 
G01 Z-0.0070 F5.00  
G01 X-1.9479 Y0.8981 
G01 X-1.9696 Y0.8764 
G01 X-2.0004 Y0.8764 
G01 X-2.0221 Y0.8981 
G01 X-2.0221 Y1.0219 
G01 X-2.0143 Y1.0297 
G01 X-2.0145 Y1.0341 
G01 X-2.0223 Y1.0341 
G01 X-2.0259 Y1.0377 
G01 X-2.0259 Y1.1023 
G01 X-2.0223 Y1.1059 
G01 X-1.9577 Y1.1059 
G01 X-1.9541 Y1.1023 
G01 X-1.9541 Y1.0377 
G01 X-1.9577 Y1.0341 
G01 X-1.9601 Y1.0341 
G01 X-1.9479 Y1.0219 
G00 Z0.0200 
G00 X-2.1004 Y1.0436 
G01 Z-0.0070 F5.00  
G01 X-2.0696 Y1.0436 
G01 X-2.0479 Y1.0219 
G01 X-2.0479 Y0.8981 
G01 X-2.0696 Y0.8764 
G01 X-2.1004 Y0.8764 
G01 X-2.1221 Y0.8981 
G01 X-2.1221 Y0.9339 
G01 X-2.1742 Y0.9339 
G01 X-2.1958 Y0.9339 
G01 X-2.2308 Y0.9689 
G01 X-2.2461 Y0.9842 
G01 X-2.2461 Y1.1059 
G01 X-2.2550 Y1.1059 
G01 X-2.2586 Y1.1095 
G01 X-2.2586 Y1.1855 
G01 X-2.2550 Y1.1891 
G01 X-2.2471 Y1.1891 
G01 X-2.2471 Y1.2095 
G01 X-2.2511 Y1.2095 
G01 X-2.2547 Y1.2131 
G01 X-2.2547 Y1.2969 
G01 X-2.2511 Y1.3005 
G01 X-2.1870 Y1.3005 
G01 X-2.1834 Y1.2969 
G01 X-2.1834 Y1.2131 
G01 X-2.1870 Y1.2095 
G01 X-2.1949 Y1.2095 
G01 X-2.1949 Y1.1891 
G01 X-2.1870 Y1.1891 
G01 X-2.1834 Y1.1855 
G01 X-2.1834 Y1.1095 
G01 X-2.1870 Y1.1059 
G01 X-2.1939 Y1.1059 
G01 X-2.1939 Y1.0058 
G01 X-2.1742 Y0.9861 
G01 X-2.1221 Y0.9861 
G01 X-2.1221 Y1.0219 
G01 X-2.1004 Y1.0436 
G00 Z0.0200 
G00 X-1.8004 Y0.7436 
G01 Z-0.0070 F5.00  
G01 X-1.7696 Y0.7436 
G01 X-1.7479 Y0.7219 
G01 X-1.7479 Y0.5981 
G01 X-1.7589 Y0.5871 
G01 X-1.7589 Y0.5208 
G01 X-1.7589 Y0.4997 
G01 X-1.7589 Y0.4992 
G01 X-1.7662 Y0.4919 
G01 X-1.9689 Y0.2747 
G01 X-1.9689 Y0.2742 
G01 X-1.9762 Y0.2669 
G01 X-1.9762 Y0.2669 
G01 X-1.9800 Y0.2631 
G01 X-1.9842 Y0.2589 
G01 X-2.8192 Y0.2589 
G01 X-2.8400 Y0.2589 
G01 X-2.8408 Y0.2589 
G01 X-2.8479 Y0.2660 
G01 X-3.0450 Y0.4439 
G01 X-3.0458 Y0.4439 
G01 X-3.0530 Y0.4511 
G01 X-3.0571 Y0.4552 
G01 X-3.0611 Y0.4592 
G01 X-3.0611 Y0.5871 
G01 X-3.0721 Y0.5981 
G01 X-3.0721 Y0.7219 
G01 X-3.0504 Y0.7436 
G01 X-3.0196 Y0.7436 
G01 X-2.9979 Y0.7219 
G01 X-2.9979 Y0.5981 
G01 X-3.0089 Y0.5871 
G01 X-3.0089 Y0.4816 
G01 X-2.8200 Y0.3111 
G01 X-2.0063 Y0.3111 
G01 X-1.8111 Y0.5203 
G01 X-1.8111 Y0.5871 
G01 X-1.8221 Y0.5981 
G01 X-1.8221 Y0.7219 
G01 X-1.8004 Y0.7436 
G00 Z0.0200 
G00 X-1.6004 Y0.7436 
G01 Z-0.0070 F5.00  
G01 X-1.5696 Y0.7436 
G01 X-1.5479 Y0.7219 
G01 X-1.5479 Y0.5981 
G01 X-1.5589 Y0.5871 
G01 X-1.5589 Y0.4486 
G01 X-1.5363 Y0.4486 
G01 X-1.5169 Y0.4292 
G01 X-1.5169 Y0.3208 
G01 X-1.5363 Y0.3014 
G01 X-1.5369 Y0.3014 
G01 X-1.5369 Y0.2797 
G01 X-1.5131 Y0.2797 
G01 X-1.5095 Y0.2761 
G01 X-1.5095 Y0.2120 
G01 X-1.5131 Y0.2084 
G01 X-1.5969 Y0.2084 
G01 X-1.6005 Y0.2120 
G01 X-1.6005 Y0.2761 
G01 X-1.5969 Y0.2797 
G01 X-1.5731 Y0.2797 
G01 X-1.5731 Y0.3108 
G01 X-1.5831 Y0.3208 
G01 X-1.5831 Y0.3762 
G01 X-1.6111 Y0.4042 
G01 X-1.6111 Y0.4258 
G01 X-1.6111 Y0.5871 
G01 X-1.6221 Y0.5981 
G01 X-1.6221 Y0.7219 
G01 X-1.6004 Y0.7436 
G00 Z0.0200 
G00 X-1.2004 Y0.7436 
G01 Z-0.0070 F5.00  
G01 X-1.1696 Y0.7436 
G01 X-1.1479 Y0.7219 
G01 X-1.1479 Y0.5981 
G01 X-1.1696 Y0.5764 
G01 X-1.2004 Y0.5764 
G01 X-1.2221 Y0.5981 
G01 X-1.2221 Y0.7219 
G01 X-1.2004 Y0.7436 
G00 Z0.0200 
G00 X-1.1004 Y0.7436 
G01 Z-0.0070 F5.00  
G01 X-1.0696 Y0.7436 
G01 X-1.0479 Y0.7219 
G01 X-1.0479 Y0.5981 
G01 X-1.0696 Y0.5764 
G01 X-1.1004 Y0.5764 
G01 X-1.1221 Y0.5981 
G01 X-1.1221 Y0.7219 
G01 X-1.1004 Y0.7436 
G00 Z0.0200 
G00 X-1.0004 Y0.7436 
G01 Z-0.0070 F5.00  
G01 X-0.9696 Y0.7436 
G01 X-0.9479 Y0.7219 
G01 X-0.9479 Y0.5981 
G01 X-0.9696 Y0.5764 
G01 X-1.0004 Y0.5764 
G01 X-1.0221 Y0.5981 
G01 X-1.0221 Y0.7219 
G01 X-1.0004 Y0.7436 
G00 Z0.0200 
G00 X-0.9004 Y0.7436 
G01 Z-0.0070 F5.00  
G01 X-0.8696 Y0.7436 
G01 X-0.8479 Y0.7219 
G01 X-0.8479 Y0.5981 
G01 X-0.8696 Y0.5764 
G01 X-0.9004 Y0.5764 
G01 X-0.9221 Y0.5981 
G01 X-0.9221 Y0.7219 
G01 X-0.9004 Y0.7436 
G00 Z0.0200 
G00 X-2.1559 Y3.2436 
G01 Z-0.0070 F5.00  
G01 X-2.1218 Y3.2436 
G01 X-2.0978 Y3.2195 
G01 X-2.0978 Y3.0805 
G01 X-2.1169 Y3.0613 
G01 X-2.1178 Y2.5559 
G01 X-2.1077 Y2.5559 
G01 X-2.1041 Y2.5523 
G01 X-2.1041 Y2.4877 
G01 X-2.1077 Y2.4841 
G01 X-2.1723 Y2.4841 
G01 X-2.1759 Y2.4877 
G01 X-2.1759 Y2.5523 
G01 X-2.1723 Y2.5559 
G01 X-2.1620 Y2.5559 
G01 X-2.1611 Y3.0616 
G01 X-2.1799 Y3.0805 
G01 X-2.1799 Y3.2195 
G01 X-2.1559 Y3.2436 
G00 Z0.0200 
G00 X-2.0220 Y3.2436 
G01 Z-0.0070 F5.00  
G01 X-1.9880 Y3.2436 
G01 X-1.9639 Y3.2195 
G01 X-1.9639 Y3.0805 
G01 X-1.9829 Y3.0615 
G01 X-1.9829 Y2.5698 
G01 X-1.9791 Y2.5660 
G01 X-1.9751 Y2.2861 
G01 X-1.9664 Y2.2861 
G01 X-1.9324 Y2.2521 
G01 X-1.9190 Y2.2521 
G01 X-1.8914 Y2.2245 
G01 X-1.8914 Y2.1855 
G01 X-1.9189 Y2.1580 
G01 X-1.9189 Y2.1495 
G01 X-1.8914 Y2.1220 
G01 X-1.8914 Y2.0830 
G01 X-1.9189 Y2.0555 
G01 X-1.9189 Y2.0420 
G01 X-1.8914 Y2.0145 
G01 X-1.8914 Y1.9755 
G01 X-1.9190 Y1.9479 
G01 X-1.9202 Y1.9479 
G01 X-1.9212 Y1.9161 
G01 X-1.6874 Y1.9161 
G01 X-1.6886 Y1.9946 
G01 X-1.6886 Y2.0182 
G01 X-1.6557 Y2.0511 
G01 X-1.6093 Y2.0511 
G01 X-1.5768 Y2.0186 
G01 X-1.5751 Y1.9129 
G01 X-1.4417 Y1.9113 
G01 X-0.7881 Y2.2018 
G01 X-0.7869 Y2.2047 
G01 X-0.7597 Y2.2319 
G01 X-0.7242 Y2.2466 
G01 X-0.6858 Y2.2466 
G01 X-0.6512 Y2.2323 
G01 X-0.5005 Y2.2356 
G01 X-0.5005 Y2.2930 
G01 X-0.4969 Y2.2966 
G01 X-0.4775 Y2.2966 
G01 X-0.4720 Y2.3020 
G01 X-0.4380 Y2.3020 
G01 X-0.4325 Y2.2966 
G01 X-0.4131 Y2.2966 
G01 X-0.4095 Y2.2930 
G01 X-0.4095 Y2.2348 
G01 X-0.3105 Y2.2329 
G01 X-0.3105 Y2.2805 
G01 X-0.3069 Y2.2841 
G01 X-0.2875 Y2.2841 
G01 X-0.2820 Y2.2895 
G01 X-0.2480 Y2.2895 
G01 X-0.2425 Y2.2841 
G01 X-0.2231 Y2.2841 
G01 X-0.2195 Y2.2805 
G01 X-0.2195 Y2.2164 
G01 X-0.2202 Y2.2158 
G01 X-0.1889 Y2.1845 
G01 X-0.1889 Y2.1174 
G01 X-0.1889 Y0.1414 
G01 X-0.2114 Y0.1190 
G01 X-0.3164 Y0.0040 
G01 X-0.3414 Y-0.0211 
G01 X-0.4086 Y-0.0211 
G01 X-0.4336 Y0.0039 
G01 X-0.6418 Y0.0039 
G01 X-0.6468 Y-0.0011 
G01 X-0.9618 Y-0.0011 
G01 X-0.9643 Y-0.0036 
G01 X-1.3068 Y-0.0036 
G01 X-1.4268 Y-0.0036 
G01 X-1.5318 Y-0.0036 
G01 X-1.6932 Y-0.0036 
G01 X-1.6935 Y-0.0033 
G01 X-1.7503 Y-0.0027 
G01 X-2.6094 Y-0.0026 
G01 X-2.9317 Y-0.0035 
G01 X-2.9318 Y-0.0036 
G01 X-2.9761 Y-0.0036 
G01 X-2.9782 Y-0.0036 
G01 X-2.9933 Y0.0115 
G01 X-3.1733 Y0.1690 
G01 X-3.1911 Y0.1868 
G01 X-3.1911 Y0.2332 
G01 X-3.1761 Y0.2482 
G01 X-3.1761 Y0.6770 
G01 X-3.1721 Y0.6810 
G01 X-3.1721 Y0.7219 
G01 X-3.1504 Y0.7436 
G01 X-3.1196 Y0.7436 
G01 X-3.0979 Y0.7219 
G01 X-3.0979 Y0.6810 
G01 X-3.0939 Y0.6770 
G01 X-3.0939 Y0.2486 
G01 X-2.9340 Y0.1086 
G01 X-2.6874 Y0.1093 
G01 X-2.6986 Y0.1205 
G01 X-2.6986 Y0.1595 
G01 X-2.6710 Y0.1871 
G01 X-2.5090 Y0.1871 
G01 X-2.4814 Y0.1595 
G01 X-2.4814 Y0.1205 
G01 X-2.4923 Y0.1096 
G01 X-1.8005 Y0.1095 
G01 X-1.8005 Y0.1530 
G01 X-1.7969 Y0.1566 
G01 X-1.7775 Y0.1566 
G01 X-1.7720 Y0.1620 
G01 X-1.7380 Y0.1620 
G01 X-1.7325 Y0.1566 
G01 X-1.7131 Y0.1566 
G01 X-1.7095 Y0.1530 
G01 X-1.7095 Y0.1091 
G01 X-1.6698 Y0.1086 
G01 X-1.6005 Y0.1086 
G01 X-1.6005 Y0.1580 
G01 X-1.5969 Y0.1616 
G01 X-1.5775 Y0.1616 
G01 X-1.5720 Y0.1670 
G01 X-1.5380 Y0.1670 
G01 X-1.5325 Y0.1616 
G01 X-1.5131 Y0.1616 
G01 X-1.5095 Y0.1580 
G01 X-1.5095 Y0.1086 
G01 X-1.4904 Y0.1086 
G01 X-1.4863 Y0.4482 
G01 X-1.5020 Y0.4639 
G01 X-1.5020 Y0.4639 
G01 X-1.5261 Y0.4880 
G01 X-1.5261 Y0.6430 
G01 X-1.5261 Y0.6614 
G01 X-1.5261 Y0.6614 
G01 X-1.5261 Y0.6770 
G01 X-1.5250 Y0.6781 
G01 X-1.5221 Y0.7214 
G01 X-1.5221 Y0.7219 
G01 X-1.5221 Y0.7219 
G01 X-1.5211 Y0.7364 
G01 X-1.5211 Y0.7512 
G01 X-1.5200 Y0.7523 
G01 X-1.5200 Y0.7531 
G01 X-1.5095 Y0.7636 
G01 X-1.4511 Y0.8262 
G01 X-1.4511 Y0.8270 
G01 X-1.4396 Y0.8386 
G01 X-1.4396 Y0.8386 
G01 X-1.4270 Y0.8511 
G01 X-1.3930 Y0.8511 
G01 X-0.9236 Y0.8511 
G01 X-0.9261 Y0.9595 
G01 X-0.9261 Y0.9770 
G01 X-0.9221 Y0.9810 
G01 X-0.9221 Y1.0219 
G01 X-0.9111 Y1.0329 
G01 X-0.9111 Y1.0520 
G01 X-0.9261 Y1.0520 
G01 X-0.9297 Y1.0556 
G01 X-0.9297 Y1.1394 
G01 X-0.9261 Y1.1430 
G01 X-0.8620 Y1.1430 
G01 X-0.8584 Y1.1394 
G01 X-0.8584 Y1.0556 
G01 X-0.8589 Y1.0551 
G01 X-0.8589 Y1.0329 
G01 X-0.8479 Y1.0219 
G01 X-0.8479 Y0.9810 
G01 X-0.8443 Y0.9774 
G01 X-0.8409 Y0.8274 
G01 X-0.8405 Y0.8270 
G01 X-0.8405 Y0.8105 
G01 X-0.8405 Y0.8009 
G01 X-0.8405 Y0.7930 
G01 X-0.8459 Y0.7875 
G01 X-0.8459 Y0.7681 
G01 X-0.8495 Y0.7645 
G01 X-0.9136 Y0.7645 
G01 X-0.9172 Y0.7681 
G01 X-0.9172 Y0.7689 
G01 X-1.3921 Y0.7689 
G01 X-1.4400 Y0.7177 
G01 X-1.4439 Y0.6586 
G01 X-1.4439 Y0.5220 
G01 X-1.4280 Y0.5061 
G01 X-1.4039 Y0.4820 
G01 X-1.4039 Y0.4647 
G01 X-1.4039 Y0.4647 
G01 X-1.4039 Y0.4480 
G01 X-1.4041 Y0.4478 
G01 X-1.4082 Y0.1086 
G01 X-1.3711 Y0.1086 
G01 X-1.3711 Y0.2803 
G01 X-1.3719 Y0.2803 
G01 X-1.3755 Y0.2839 
G01 X-1.3755 Y0.3480 
G01 X-1.3719 Y0.3516 
G01 X-1.3525 Y0.3516 
G01 X-1.3470 Y0.3570 
G01 X-1.3130 Y0.3570 
G01 X-1.3075 Y0.3516 
G01 X-1.2881 Y0.3516 
G01 X-1.2845 Y0.3480 
G01 X-1.2845 Y0.2839 
G01 X-1.2881 Y0.2803 
G01 X-1.2889 Y0.2803 
G01 X-1.2889 Y0.1086 
G01 X-1.0281 Y0.1086 
G01 X-1.0261 Y0.3653 
G01 X-1.0269 Y0.3653 
G01 X-1.0305 Y0.3689 
G01 X-1.0305 Y0.4330 
G01 X-1.0269 Y0.4366 
G01 X-0.9431 Y0.4366 
G01 X-0.9395 Y0.4330 
G01 X-0.9395 Y0.3689 
G01 X-0.9431 Y0.3653 
G01 X-0.9440 Y0.3653 
G01 X-0.9459 Y0.1111 
G01 X-0.7127 Y0.1111 
G01 X-0.7136 Y0.1455 
G01 X-0.7221 Y0.1540 
G01 X-0.7221 Y0.3160 
G01 X-0.6945 Y0.3436 
G01 X-0.6555 Y0.3436 
G01 X-0.6279 Y0.3160 
G01 X-0.6279 Y0.1540 
G01 X-0.6315 Y0.1504 
G01 X-0.6306 Y0.1161 
G01 X-0.4336 Y0.1161 
G01 X-0.3511 Y0.2064 
G01 X-0.3511 Y2.0714 
G01 X-0.4239 Y2.0729 
G01 X-0.4239 Y2.0547 
G01 X-0.4231 Y2.0547 
G01 X-0.4195 Y2.0511 
G01 X-0.4195 Y1.9870 
G01 X-0.4231 Y1.9834 
G01 X-0.4425 Y1.9834 
G01 X-0.4480 Y1.9780 
G01 X-0.4820 Y1.9780 
G01 X-0.4875 Y1.9834 
G01 X-0.5069 Y1.9834 
G01 X-0.5105 Y1.9870 
G01 X-0.5105 Y2.0511 
G01 X-0.5069 Y2.0547 
G01 X-0.5061 Y2.0547 
G01 X-0.5061 Y2.0732 
G01 X-0.6483 Y2.0701 
G01 X-0.6503 Y2.0681 
G01 X-0.6858 Y2.0534 
G01 X-0.7227 Y2.0534 
G01 X-0.7388 Y2.0462 
G01 X-0.7381 Y2.0436 
G01 X-0.7320 Y2.0436 
G01 X-0.7284 Y2.0400 
G01 X-0.7284 Y1.9720 
G01 X-0.7320 Y1.9684 
G01 X-0.7495 Y1.9684 
G01 X-0.7530 Y1.9649 
G01 X-0.7870 Y1.9649 
G01 X-0.7905 Y1.9684 
G01 X-0.8080 Y1.9684 
G01 X-0.8116 Y1.9720 
G01 X-0.8116 Y2.0019 
G01 X-0.8146 Y2.0125 
G01 X-1.3783 Y1.7620 
G01 X-1.3823 Y1.7581 
G01 X-1.3789 Y1.6105 
G01 X-1.3789 Y1.5930 
G01 X-1.3834 Y1.5884 
G01 X-1.3834 Y1.5731 
G01 X-1.3870 Y1.5695 
G01 X-1.4023 Y1.5695 
G01 X-1.4030 Y1.5689 
G01 X-1.4370 Y1.5689 
G01 X-1.4376 Y1.5695 
G01 X-1.4511 Y1.5695 
G01 X-1.4547 Y1.5731 
G01 X-1.4547 Y1.5866 
G01 X-1.4607 Y1.5926 
G01 X-1.4643 Y1.7494 
G01 X-1.6538 Y1.7517 
G01 X-1.6530 Y1.1561 
G01 X-1.6494 Y1.1525 
G01 X-1.6489 Y1.1520 
G01 X-1.6489 Y1.1356 
G01 X-1.6439 Y0.9606 
G01 X-1.6439 Y0.9430 
G01 X-1.6479 Y0.9390 
G01 X-1.6479 Y0.8981 
G01 X-1.6696 Y0.8764 
G01 X-1.7004 Y0.8764 
G01 X-1.7221 Y0.8981 
G01 X-1.7221 Y0.9390 
G01 X-1.7256 Y0.9425 
G01 X-1.7305 Y1.1133 
G01 X-1.7351 Y1.1180 
G01 X-1.7351 Y1.1180 
G01 X-1.7351 Y1.1355 
G01 X-1.7360 Y1.7539 
G01 X-1.9689 Y1.7539 
G01 X-1.9714 Y1.7514 
G01 X-2.0052 Y1.7514 
G01 X-2.0939 Y1.7519 
G01 X-2.0939 Y1.7470 
G01 X-2.0939 Y1.7470 
G01 X-2.0939 Y1.6945 
G01 X-2.0939 Y1.5555 
G01 X-2.1089 Y1.5405 
G01 X-2.1089 Y1.4458 
G01 X-2.0786 Y1.4155 
G01 X-2.0689 Y1.4155 
G01 X-2.0653 Y1.4119 
G01 X-2.0653 Y1.3281 
G01 X-2.0689 Y1.3245 
G01 X-2.0729 Y1.3245 
G01 X-2.0719 Y1.3005 
G01 X-2.0689 Y1.3005 
G01 X-2.0653 Y1.2969 
G01 X-2.0653 Y1.2131 
G01 X-2.0689 Y1.2095 
G01 X-2.1330 Y1.2095 
G01 X-2.1366 Y1.2131 
G01 X-2.1366 Y1.2969 
G01 X-2.1330 Y1.3005 
G01 X-2.1241 Y1.3005 
G01 X-2.1251 Y1.3245 
G01 X-2.1330 Y1.3245 
G01 X-2.1366 Y1.3281 
G01 X-2.1366 Y1.3997 
G01 X-2.1611 Y1.4242 
G01 X-2.1611 Y1.4458 
G01 X-2.1611 Y1.5405 
G01 X-2.1761 Y1.5555 
G01 X-2.1761 Y1.6945 
G01 X-2.1761 Y1.7434 
G01 X-2.1761 Y1.7516 
G01 X-2.3859 Y1.7489 
G01 X-2.3864 Y1.7484 
G01 X-2.4202 Y1.7484 
G01 X-2.4202 Y1.7484 
G01 X-2.4536 Y1.7484 
G01 X-2.4537 Y1.7486 
G01 X-2.5537 Y1.7490 
G01 X-2.5582 Y1.7535 
G01 X-2.7189 Y1.7518 
G01 X-2.7189 Y1.4870 
G01 X-2.7129 Y1.4810 
G01 X-2.7129 Y1.3190 
G01 X-2.7339 Y1.2980 
G01 X-2.7339 Y1.2797 
G01 X-2.7181 Y1.2797 
G01 X-2.7145 Y1.2761 
G01 X-2.7145 Y1.2120 
G01 X-2.7181 Y1.2084 
G01 X-2.8019 Y1.2084 
G01 X-2.8055 Y1.2120 
G01 X-2.8055 Y1.2761 
G01 X-2.8019 Y1.2797 
G01 X-2.7861 Y1.2797 
G01 X-2.7861 Y1.2980 
G01 X-2.8071 Y1.3190 
G01 X-2.8071 Y1.4810 
G01 X-2.8011 Y1.4870 
G01 X-2.8011 Y1.7514 
G01 X-3.1389 Y1.7514 
G01 X-3.1419 Y1.7484 
G01 X-3.1439 Y1.7184 
G01 X-3.1440 Y1.7149 
G01 X-3.1440 Y1.7148 
G01 X-3.1440 Y1.7097 
G01 X-3.1440 Y1.7096 
G01 X-3.1440 Y1.7088 
G01 X-3.1442 Y1.6927 
G01 X-3.1442 Y1.6926 
G01 X-3.1485 Y1.2697 
G01 X-3.1481 Y1.2697 
G01 X-3.1445 Y1.2661 
G01 X-3.1445 Y1.2020 
G01 X-3.1481 Y1.1984 
G01 X-3.1675 Y1.1984 
G01 X-3.1730 Y1.1930 
G01 X-3.2070 Y1.1930 
G01 X-3.2125 Y1.1984 
G01 X-3.2319 Y1.1984 
G01 X-3.2355 Y1.2020 
G01 X-3.2355 Y1.2661 
G01 X-3.2319 Y1.2697 
G01 X-3.2307 Y1.2697 
G01 X-3.2262 Y1.7098 
G01 X-3.2262 Y1.7100 
G01 X-3.2261 Y1.7152 
G01 X-3.2261 Y1.7152 
G01 X-3.2261 Y1.7159 
G01 X-3.2261 Y1.7204 
G01 X-3.2261 Y1.7214 
G01 X-3.2261 Y1.7215 
G01 X-3.2260 Y1.7322 
G01 X-3.2260 Y1.7322 
G01 X-3.2259 Y1.7372 
G01 X-3.2250 Y1.7381 
G01 X-3.2245 Y1.7455 
G01 X-3.3165 Y1.7489 
G01 X-3.3486 Y1.7489 
G01 X-3.6486 Y1.7489 
G01 X-3.6961 Y1.7964 
G01 X-3.6961 Y1.8344 
G01 X-3.8861 Y2.0968 
G01 X-3.8861 Y2.1382 
G01 X-3.8791 Y2.1452 
G01 X-3.8791 Y3.1603 
G01 X-3.8731 Y3.1663 
G01 X-3.8731 Y3.2133 
G01 X-3.8478 Y3.2386 
G01 X-3.8121 Y3.2386 
G01 X-3.7869 Y3.2133 
G01 X-3.7869 Y3.1663 
G01 X-3.7809 Y3.1603 
G01 X-3.7809 Y2.1428 
G01 X-3.6131 Y1.9111 
G01 X-3.3977 Y1.9111 
G01 X-3.4015 Y2.0974 
G01 X-3.6182 Y2.0974 
G01 X-3.6511 Y2.1302 
G01 X-3.6511 Y2.1767 
G01 X-3.6182 Y2.2095 
G01 X-3.4021 Y2.2095 
G01 X-3.3600 Y2.2516 
G01 X-3.2800 Y2.2516 
G01 X-3.2234 Y2.1950 
G01 X-3.2234 Y2.1150 
G01 X-3.2393 Y2.0991 
G01 X-3.2355 Y1.9082 
G01 X-3.2172 Y1.9075 
G01 X-3.2111 Y1.9136 
G01 X-2.7604 Y1.9136 
G01 X-2.5154 Y1.9161 
G01 X-2.4814 Y1.9161 
G01 X-2.4777 Y1.9123 
G01 X-2.4786 Y1.9645 
G01 X-2.4786 Y1.9882 
G01 X-2.4457 Y2.0211 
G01 X-2.3993 Y2.0211 
G01 X-2.3668 Y1.9886 
G01 X-2.3654 Y1.9113 
G01 X-2.1690 Y1.9139 
G01 X-2.1686 Y1.9144 
G01 X-2.1356 Y1.9144 
G01 X-2.1014 Y1.9144 
G01 X-2.1012 Y1.9142 
G01 X-2.0835 Y1.9141 
G01 X-2.0824 Y1.9494 
G01 X-2.1086 Y1.9755 
G01 X-2.1086 Y2.0145 
G01 X-2.0811 Y2.0420 
G01 X-2.0811 Y2.0555 
G01 X-2.1086 Y2.0830 
G01 X-2.1086 Y2.1220 
G01 X-2.0811 Y2.1495 
G01 X-2.0811 Y2.1580 
G01 X-2.1086 Y2.1855 
G01 X-2.1086 Y2.2245 
G01 X-2.0810 Y2.2521 
G01 X-2.0676 Y2.2521 
G01 X-2.0336 Y2.2861 
G01 X-2.0272 Y2.2861 
G01 X-2.0311 Y2.5548 
G01 X-2.0311 Y2.5658 
G01 X-2.0271 Y2.5698 
G01 X-2.0271 Y3.0615 
G01 X-2.0461 Y3.0805 
G01 X-2.0461 Y3.2195 
G01 X-2.0220 Y3.2436 
G00 Z0.0200 
G00 X-1.8882 Y3.2436 
G01 Z-0.0070 F5.00  
G01 X-1.8541 Y3.2436 
G01 X-1.8300 Y3.2195 
G01 X-1.8300 Y3.0805 
G01 X-1.8487 Y3.0618 
G01 X-1.8480 Y2.8290 
G01 X-1.7711 Y2.7159 
G01 X-1.7677 Y2.7159 
G01 X-1.7641 Y2.7123 
G01 X-1.7641 Y2.7057 
G01 X-1.7589 Y2.6980 
G01 X-1.7589 Y2.6792 
G01 X-1.7641 Y2.6740 
G01 X-1.7641 Y2.6477 
G01 X-1.7677 Y2.6441 
G01 X-1.8323 Y2.6441 
G01 X-1.8359 Y2.6477 
G01 X-1.8359 Y2.7123 
G01 X-1.8334 Y2.7148 
G01 X-1.8961 Y2.8070 
G01 X-1.8961 Y2.8258 
G01 X-1.8921 Y2.8298 
G01 X-1.8929 Y3.0612 
G01 X-1.9122 Y3.0805 
G01 X-1.9122 Y3.2195 
G01 X-1.8882 Y3.2436 
G00 Z0.0200 
G00 X-3.0966 Y1.2020 
G01 Z-0.0070 F5.00  
G01 X-3.0966 Y1.2700 
G01 X-3.0930 Y1.2736 
G01 X-3.0861 Y1.2736 
G01 X-3.0861 Y1.2880 
G01 X-3.1121 Y1.3140 
G01 X-3.1121 Y1.4760 
G01 X-3.0845 Y1.5036 
G01 X-3.0455 Y1.5036 
G01 X-3.0179 Y1.4760 
G01 X-3.0179 Y1.3140 
G01 X-3.0339 Y1.2980 
G01 X-3.0339 Y1.2736 
G01 X-3.0170 Y1.2736 
G01 X-3.0134 Y1.2700 
G01 X-3.0134 Y1.2020 
G01 X-3.0170 Y1.1984 
G01 X-3.0930 Y1.1984 
G01 X-3.0966 Y1.2020 
G00 Z0.0200 
G00 X-2.8055 Y1.0939 
G01 Z-0.0070 F5.00  
G01 X-2.8055 Y1.1029 
G01 X-2.8684 Y1.1029 
G01 X-2.8684 Y1.0950 
G01 X-2.8720 Y1.0914 
G01 X-2.9067 Y1.0914 
G01 X-2.9089 Y1.0892 
G01 X-2.9089 Y1.0329 
G01 X-2.8979 Y1.0219 
G01 X-2.8979 Y0.8981 
G01 X-2.9196 Y0.8764 
G01 X-2.9504 Y0.8764 
G01 X-2.9721 Y0.8981 
G01 X-2.9721 Y1.0219 
G01 X-2.9611 Y1.0329 
G01 X-2.9611 Y1.0892 
G01 X-2.9611 Y1.1108 
G01 X-2.9516 Y1.1203 
G01 X-2.9516 Y1.1630 
G01 X-2.9480 Y1.1666 
G01 X-2.8720 Y1.1666 
G01 X-2.8684 Y1.1630 
G01 X-2.8684 Y1.1551 
G01 X-2.8055 Y1.1551 
G01 X-2.8055 Y1.1580 
G01 X-2.8019 Y1.1616 
G01 X-2.7181 Y1.1616 
G01 X-2.7145 Y1.1580 
G01 X-2.7145 Y1.0939 
G01 X-2.7181 Y1.0903 
G01 X-2.8019 Y1.0903 
G01 X-2.8055 Y1.0939 
G00 Z0.0200 
G00 X-3.7478 Y3.2386 
G01 Z-0.0070 F5.00  
G01 X-3.7121 Y3.2386 
G01 X-3.6869 Y3.2133 
G01 X-3.6869 Y3.1811 
G01 X-3.6452 Y3.1811 
G01 X-3.6436 Y3.1885 
G01 X-3.6436 Y3.2057 
G01 X-3.6388 Y3.2105 
G01 X-3.6107 Y3.2386 
G01 X-3.5643 Y3.2386 
G01 X-3.3793 Y3.2386 
G01 X-3.3738 Y3.2331 
G01 X-3.3148 Y3.2331 
G01 X-3.2852 Y3.2035 
G01 X-3.2852 Y3.1615 
G01 X-3.3148 Y3.1319 
G01 X-3.3738 Y3.1319 
G01 X-3.3793 Y3.1264 
G01 X-3.5423 Y3.1264 
G01 X-3.5439 Y3.1190 
G01 X-3.5439 Y3.1018 
G01 X-3.5589 Y3.0868 
G01 X-3.5589 Y2.6111 
G01 X-3.4005 Y2.6111 
G01 X-3.3747 Y2.6369 
G01 X-3.3392 Y2.6516 
G01 X-3.3008 Y2.6516 
G01 X-3.2653 Y2.6369 
G01 X-3.2645 Y2.6361 
G01 X-3.1386 Y2.6361 
G01 X-3.0411 Y2.7336 
G01 X-2.9936 Y2.7811 
G01 X-2.6811 Y2.7811 
G01 X-2.6811 Y2.8836 
G01 X-2.6336 Y2.9311 
G01 X-2.5811 Y2.9836 
G01 X-2.5543 Y3.0104 
G01 X-2.5543 Y3.0104 
G01 X-2.5336 Y3.0311 
G01 X-2.5286 Y3.0311 
G01 X-2.3736 Y3.1561 
G01 X-2.3482 Y3.1561 
G01 X-2.3138 Y3.1905 
G01 X-2.3138 Y3.2195 
G01 X-2.2897 Y3.2436 
G01 X-2.2557 Y3.2436 
G01 X-2.2316 Y3.2195 
G01 X-2.2316 Y3.1859 
G01 X-2.2189 Y3.1732 
G01 X-2.2189 Y3.1268 
G01 X-2.2316 Y3.1140 
G01 X-2.2316 Y3.0805 
G01 X-2.2557 Y3.0564 
G01 X-2.2639 Y3.0564 
G01 X-2.2639 Y3.0414 
G01 X-2.2836 Y3.0218 
G01 X-2.2836 Y2.9268 
G01 X-2.2986 Y2.9118 
G01 X-2.2986 Y2.8805 
G01 X-2.3226 Y2.8564 
G01 X-2.3567 Y2.8564 
G01 X-2.3807 Y2.8805 
G01 X-2.3807 Y2.9118 
G01 X-2.3957 Y2.9268 
G01 X-2.3957 Y2.9299 
G01 X-2.4457 Y2.8896 
G01 X-2.5189 Y2.8164 
G01 X-2.5189 Y2.7436 
G01 X-2.5089 Y2.7336 
G01 X-2.5089 Y2.3336 
G01 X-2.3414 Y2.1661 
G01 X-2.3414 Y2.0989 
G01 X-2.3889 Y2.0514 
G01 X-2.4561 Y2.0514 
G01 X-2.6236 Y2.2189 
G01 X-2.6711 Y2.2664 
G01 X-2.6711 Y2.6189 
G01 X-2.9264 Y2.6189 
G01 X-3.0714 Y2.4739 
G01 X-3.1386 Y2.4739 
G01 X-3.2645 Y2.4739 
G01 X-3.2653 Y2.4731 
G01 X-3.3008 Y2.4584 
G01 X-3.3392 Y2.4584 
G01 X-3.3747 Y2.4731 
G01 X-3.4005 Y2.4989 
G01 X-3.5539 Y2.4989 
G01 X-3.5539 Y2.3072 
G01 X-3.5531 Y2.3072 
G01 X-3.5495 Y2.3036 
G01 X-3.5495 Y2.2395 
G01 X-3.5531 Y2.2359 
G01 X-3.5725 Y2.2359 
G01 X-3.5780 Y2.2305 
G01 X-3.6120 Y2.2305 
G01 X-3.6175 Y2.2359 
G01 X-3.6369 Y2.2359 
G01 X-3.6405 Y2.2395 
G01 X-3.6405 Y2.3036 
G01 X-3.6369 Y2.3072 
G01 X-3.6361 Y2.3072 
G01 X-3.6361 Y2.5118 
G01 X-3.6561 Y2.5318 
G01 X-3.6561 Y2.5782 
G01 X-3.6411 Y2.5932 
G01 X-3.6411 Y3.0689 
G01 X-3.6869 Y3.0689 
G01 X-3.6869 Y3.0666 
G01 X-3.7121 Y3.0414 
G01 X-3.7478 Y3.0414 
G01 X-3.7731 Y3.0666 
G01 X-3.7731 Y3.0988 
G01 X-3.7761 Y3.1018 
G01 X-3.7761 Y3.1482 
G01 X-3.7731 Y3.1512 
G01 X-3.7731 Y3.2133 
G01 X-3.7478 Y3.2386 
G00 Z0.0200 
G00 X-1.8005 Y0.2070 
G01 Z-0.0070 F5.00  
G01 X-1.8005 Y0.2711 
G01 X-1.7969 Y0.2747 
G01 X-1.7731 Y0.2747 
G01 X-1.7731 Y0.3108 
G01 X-1.7831 Y0.3208 
G01 X-1.7831 Y0.4292 
G01 X-1.7637 Y0.4486 
G01 X-1.7363 Y0.4486 
G01 X-1.7248 Y0.4371 
G01 X-1.7211 Y0.4408 
G01 X-1.7211 Y0.4408 
G01 X-1.7111 Y0.4508 
G01 X-1.7111 Y0.5871 
G01 X-1.7221 Y0.5981 
G01 X-1.7221 Y0.7219 
G01 X-1.7004 Y0.7436 
G01 X-1.6696 Y0.7436 
G01 X-1.6479 Y0.7219 
G01 X-1.6479 Y0.5981 
G01 X-1.6589 Y0.5871 
G01 X-1.6589 Y0.4408 
G01 X-1.6589 Y0.4192 
G01 X-1.6742 Y0.4039 
G01 X-1.6842 Y0.4039 
G01 X-1.7169 Y0.3712 
G01 X-1.7169 Y0.3208 
G01 X-1.7363 Y0.3014 
G01 X-1.7369 Y0.3014 
G01 X-1.7369 Y0.2747 
G01 X-1.7131 Y0.2747 
G01 X-1.7095 Y0.2711 
G01 X-1.7095 Y0.2070 
G01 X-1.7131 Y0.2034 
G01 X-1.7969 Y0.2034 
G01 X-1.8005 Y0.2070 
G00 Z0.0200 
G00 X-1.2110 Y3.3761 
G01 Z-0.0070 F5.00  
G01 X-1.1868 Y3.3761 
G01 X-1.1697 Y3.3590 
G01 X-1.1697 Y3.3590 
G01 X-1.1539 Y3.3432 
G01 X-1.1539 Y3.3422 
G01 X-1.0553 Y3.2370 
G01 X-0.9861 Y3.3378 
G01 X-0.9861 Y3.3420 
G01 X-0.9767 Y3.3514 
G01 X-0.9767 Y3.3514 
G01 X-0.9620 Y3.3661 
G01 X-0.9280 Y3.3661 
G01 X-0.2680 Y3.3661 
G01 X-0.2439 Y3.3420 
G01 X-0.2439 Y3.3401 
G01 X-0.1447 Y3.2228 
G01 X-0.1339 Y3.2120 
G01 X-0.1339 Y2.6230 
G01 X-0.1309 Y2.6200 
G01 X-0.1309 Y2.5520 
G01 X-0.1345 Y2.5484 
G01 X-0.1520 Y2.5484 
G01 X-0.1555 Y2.5449 
G01 X-0.1895 Y2.5449 
G01 X-0.1930 Y2.5484 
G01 X-0.2105 Y2.5484 
G01 X-0.2141 Y2.5520 
G01 X-0.2141 Y2.5710 
G01 X-0.2161 Y2.5730 
G01 X-0.2161 Y3.1799 
G01 X-0.3041 Y3.2839 
G01 X-0.9234 Y3.2839 
G01 X-0.9704 Y3.2156 
G01 X-0.9648 Y3.2156 
G01 X-0.9352 Y3.1860 
G01 X-0.9352 Y3.1440 
G01 X-0.9648 Y3.1144 
G01 X-1.0238 Y3.1144 
G01 X-1.0293 Y3.1089 
G01 X-1.0318 Y3.1089 
G01 X-1.0368 Y3.1039 
G01 X-1.0832 Y3.1039 
G01 X-1.0937 Y3.1144 
G01 X-1.1402 Y3.1144 
G01 X-1.1698 Y3.1440 
G01 X-1.1698 Y3.1860 
G01 X-1.1654 Y3.1904 
G01 X-1.2344 Y3.2640 
G01 X-1.5848 Y3.2652 
G01 X-1.5863 Y3.1544 
G01 X-1.5863 Y3.1534 
G01 X-1.5864 Y3.1527 
G01 X-1.5865 Y3.1433 
G01 X-1.4865 Y3.1110 
G01 X-1.4601 Y3.1373 
G01 X-1.4149 Y3.1373 
G01 X-1.3829 Y3.1054 
G01 X-1.3829 Y3.0701 
G01 X-1.3564 Y3.0436 
G01 X-1.3564 Y2.9764 
G01 X-1.3829 Y2.9499 
G01 X-1.3829 Y2.9146 
G01 X-1.4149 Y2.8827 
G01 X-1.4601 Y2.8827 
G01 X-1.4921 Y2.9146 
G01 X-1.4921 Y2.9424 
G01 X-1.6138 Y2.9817 
G01 X-1.6143 Y2.9496 
G01 X-1.6143 Y2.9268 
G01 X-1.6293 Y2.9118 
G01 X-1.6293 Y2.8805 
G01 X-1.6533 Y2.8564 
G01 X-1.6874 Y2.8564 
G01 X-1.7114 Y2.8805 
G01 X-1.7114 Y2.9118 
G01 X-1.7264 Y2.9268 
G01 X-1.7264 Y2.9821 
G01 X-1.7311 Y2.9868 
G01 X-1.7311 Y3.0314 
G01 X-1.7511 Y3.0514 
G01 X-1.7511 Y3.0564 
G01 X-1.7543 Y3.0564 
G01 X-1.7784 Y3.0805 
G01 X-1.7784 Y3.1090 
G01 X-1.7961 Y3.1268 
G01 X-1.7961 Y3.1732 
G01 X-1.7784 Y3.1909 
G01 X-1.7784 Y3.2195 
G01 X-1.7543 Y3.2436 
G01 X-1.7473 Y3.2436 
G01 X-1.7469 Y3.2657 
G01 X-2.6543 Y3.2688 
G01 X-2.6988 Y3.2171 
G01 X-2.6852 Y3.2035 
G01 X-2.6852 Y3.1615 
G01 X-2.7148 Y3.1319 
G01 X-2.7738 Y3.1319 
G01 X-2.7793 Y3.1264 
G01 X-2.8257 Y3.1264 
G01 X-2.8312 Y3.1319 
G01 X-2.8902 Y3.1319 
G01 X-2.9198 Y3.1615 
G01 X-2.9198 Y3.2035 
G01 X-2.8902 Y3.2331 
G01 X-2.8330 Y3.2331 
G01 X-2.7361 Y3.3458 
G01 X-2.7361 Y3.3482 
G01 X-2.7032 Y3.3811 
G01 X-2.6799 Y3.3811 
G01 X-2.6798 Y3.3811 
G01 X-2.6568 Y3.3811 
G01 X-2.6567 Y3.3810 
G01 X-1.7268 Y3.3778 
G01 X-1.6986 Y3.4061 
G01 X-1.6314 Y3.4061 
G01 X-1.6027 Y3.3774 
G01 X-1.2110 Y3.3761 
G00 Z0.0200 
G00 X-1.7509 Y2.7477 
G01 Z-0.0070 F5.00  
G01 X-1.7509 Y2.7826 
G01 X-1.8043 Y2.8474 
G01 X-1.8094 Y2.8525 
G01 X-1.8096 Y2.8538 
G01 X-1.8111 Y2.8556 
G01 X-1.8111 Y2.8564 
G01 X-1.8212 Y2.8564 
G01 X-1.8453 Y2.8805 
G01 X-1.8453 Y3.0195 
G01 X-1.8212 Y3.0436 
G01 X-1.7872 Y3.0436 
G01 X-1.7631 Y3.0195 
G01 X-1.7631 Y2.8924 
G01 X-1.7604 Y2.8762 
G01 X-1.7108 Y2.8159 
G01 X-1.6827 Y2.8159 
G01 X-1.6791 Y2.8123 
G01 X-1.6791 Y2.7477 
G01 X-1.6827 Y2.7441 
G01 X-1.7473 Y2.7441 
G01 X-1.7509 Y2.7477 
G00 Z0.0200 
G00 X-0.0359 Y-0.0323 
G01 Z-0.0070 F5.00  
G01 X-0.0359 Y0.0323 
G01 X-0.0323 Y0.0359 
G01 X0.0323 Y0.0359 
G01 X0.0359 Y0.0323 
G01 X0.0359 Y-0.0323 
G01 X0.0323 Y-0.0359 
G01 X-0.0323 Y-0.0359 
G01 X-0.0359 Y-0.0323 
G00 Z0.0200 
G00 X-3.2445 Y1.0802 
G01 Z-0.0070 F5.00  
G01 X-3.2445 Y1.1517 
G01 X-3.2356 Y1.1606 
G01 X-3.1444 Y1.1606 
G01 X-3.1429 Y1.1591 
G01 X-3.1056 Y1.1591 
G01 X-3.1056 Y1.1618 
G01 X-3.0967 Y1.1706 
G01 X-3.0133 Y1.1706 
G01 X-3.0044 Y1.1618 
G01 X-3.0044 Y1.0863 
G01 X-3.0133 Y1.0774 
G01 X-3.0967 Y1.0774 
G01 X-3.0999 Y1.0806 
G01 X-3.0999 Y1.0366 
G01 X-3.0889 Y1.0256 
G01 X-3.0889 Y0.8944 
G01 X-3.1132 Y0.8701 
G01 X-3.0568 Y0.8701 
G01 X-3.0811 Y0.8944 
G01 X-3.0811 Y1.0256 
G01 X-3.0541 Y1.0526 
G01 X-3.0159 Y1.0526 
G01 X-2.9889 Y1.0256 
G01 X-2.9889 Y0.8944 
G01 X-3.0132 Y0.8701 
G01 X-2.9568 Y0.8701 
G01 X-2.9811 Y0.8944 
G01 X-2.9811 Y1.0256 
G01 X-2.9701 Y1.0366 
G01 X-2.9701 Y1.0855 
G01 X-2.9701 Y1.1145 
G01 X-2.9606 Y1.1240 
G01 X-2.9606 Y1.1668 
G01 X-2.9517 Y1.1756 
G01 X-2.8683 Y1.1756 
G01 X-2.8594 Y1.1668 
G01 X-2.8594 Y1.1641 
G01 X-2.8121 Y1.1641 
G01 X-2.8056 Y1.1706 
G01 X-2.7144 Y1.1706 
G01 X-2.7055 Y1.1617 
G01 X-2.7055 Y1.0902 
G01 X-2.7144 Y1.0813 
G01 X-2.8056 Y1.0813 
G01 X-2.8145 Y1.0902 
G01 X-2.8145 Y1.0939 
G01 X-2.8594 Y1.0939 
G01 X-2.8594 Y1.0913 
G01 X-2.8683 Y1.0824 
G01 X-2.8999 Y1.0824 
G01 X-2.8999 Y1.0366 
G01 X-2.8889 Y1.0256 
G01 X-2.8889 Y0.8944 
G01 X-2.9132 Y0.8701 
G01 X-2.8851 Y0.8701 
G01 X-2.8851 Y0.9392 
G01 X-2.8851 Y0.9807 
G01 X-2.8811 Y0.9847 
G01 X-2.8811 Y1.0256 
G01 X-2.8541 Y1.0526 
G01 X-2.8159 Y1.0526 
G01 X-2.7889 Y1.0256 
G01 X-2.7889 Y1.0101 
G01 X-2.3701 Y1.0101 
G01 X-2.3701 Y1.3105 
G01 X-2.3701 Y1.3395 
G01 X-2.3590 Y1.3506 
G01 X-2.3590 Y1.3506 
G01 X-2.3495 Y1.3601 
G01 X-2.3482 Y1.3601 
G01 X-2.3190 Y1.3856 
G01 X-2.3095 Y1.3951 
G01 X-2.3082 Y1.3951 
G01 X-2.2805 Y1.3951 
G01 X-2.2701 Y1.3951 
G01 X-2.2701 Y1.5080 
G01 X-2.2701 Y1.5367 
G01 X-2.2850 Y1.5517 
G01 X-2.3142 Y1.5224 
G01 X-2.3557 Y1.5224 
G01 X-2.3851 Y1.5517 
G01 X-2.3851 Y1.5899 
G01 X-2.4737 Y1.5899 
G01 X-2.5099 Y1.5471 
G01 X-2.5099 Y1.4463 
G01 X-2.5075 Y1.4463 
G01 X-2.4987 Y1.4375 
G01 X-2.4987 Y1.3575 
G01 X-2.5075 Y1.3487 
G01 X-2.5198 Y1.3487 
G01 X-2.5389 Y1.2304 
G01 X-2.5389 Y1.0994 
G01 X-2.5659 Y1.0724 
G01 X-2.6041 Y1.0724 
G01 X-2.6311 Y1.0994 
G01 X-2.6311 Y1.2306 
G01 X-2.6059 Y1.2558 
G01 X-2.5904 Y1.3516 
G01 X-2.5963 Y1.3575 
G01 X-2.5963 Y1.4375 
G01 X-2.5875 Y1.4463 
G01 X-2.5801 Y1.4463 
G01 X-2.5801 Y1.5745 
G01 X-2.5708 Y1.5838 
G01 X-2.5251 Y1.6378 
G01 X-2.5251 Y1.6395 
G01 X-2.5158 Y1.6488 
G01 X-2.5158 Y1.6488 
G01 X-2.5045 Y1.6601 
G01 X-2.4755 Y1.6601 
G01 X-2.3851 Y1.6601 
G01 X-2.3851 Y1.6982 
G01 X-2.3557 Y1.7276 
G01 X-2.3142 Y1.7276 
G01 X-2.2850 Y1.6983 
G01 X-2.2557 Y1.7276 
G01 X-2.2142 Y1.7276 
G01 X-2.1851 Y1.6984 
G01 X-2.1851 Y1.7406 
G01 X-2.1851 Y1.7425 
G01 X-2.3822 Y1.7399 
G01 X-2.3827 Y1.7394 
G01 X-2.4202 Y1.7394 
G01 X-2.4202 Y1.7394 
G01 X-2.4573 Y1.7394 
G01 X-2.4575 Y1.7396 
G01 X-2.5575 Y1.7400 
G01 X-2.5619 Y1.7444 
G01 X-2.7099 Y1.7429 
G01 X-2.7099 Y1.4907 
G01 X-2.7039 Y1.4847 
G01 X-2.7039 Y1.3153 
G01 X-2.7249 Y1.2943 
G01 X-2.7249 Y1.2887 
G01 X-2.7144 Y1.2887 
G01 X-2.7055 Y1.2798 
G01 X-2.7055 Y1.2083 
G01 X-2.7144 Y1.1994 
G01 X-2.8056 Y1.1994 
G01 X-2.8145 Y1.2083 
G01 X-2.8145 Y1.2798 
G01 X-2.8056 Y1.2887 
G01 X-2.7951 Y1.2887 
G01 X-2.7951 Y1.2943 
G01 X-2.8161 Y1.3153 
G01 X-2.8161 Y1.4847 
G01 X-2.8101 Y1.4907 
G01 X-2.8101 Y1.7424 
G01 X-3.1333 Y1.7424 
G01 X-3.1349 Y1.7181 
G01 X-3.1350 Y1.7146 
G01 X-3.1350 Y1.7097 
G01 X-3.1350 Y1.7096 
G01 X-3.1350 Y1.7067 
G01 X-3.1352 Y1.6889 
G01 X-3.1352 Y1.6889 
G01 X-3.1395 Y1.2738 
G01 X-3.1355 Y1.2698 
G01 X-3.1355 Y1.1983 
G01 X-3.1444 Y1.1894 
G01 X-3.1638 Y1.1894 
G01 X-3.1692 Y1.1840 
G01 X-3.2107 Y1.1840 
G01 X-3.2162 Y1.1894 
G01 X-3.2356 Y1.1894 
G01 X-3.2445 Y1.1983 
G01 X-3.2445 Y1.2698 
G01 X-3.2397 Y1.2746 
G01 X-3.2352 Y1.7098 
G01 X-3.2352 Y1.7101 
G01 X-3.2351 Y1.7152 
G01 X-3.2351 Y1.7153 
G01 X-3.2351 Y1.7189 
G01 X-3.2351 Y1.7204 
G01 X-3.2351 Y1.7217 
G01 X-3.2351 Y1.7219 
G01 X-3.2349 Y1.7360 
G01 X-3.2349 Y1.7360 
G01 X-3.2349 Y1.7369 
G01 X-3.3166 Y1.7399 
G01 X-3.3523 Y1.7399 
G01 X-3.6523 Y1.7399 
G01 X-3.7051 Y1.7927 
G01 X-3.7051 Y1.8315 
G01 X-3.8951 Y2.0939 
G01 X-3.8951 Y2.1420 
G01 X-3.8881 Y2.1490 
G01 X-3.8881 Y3.0527 
G01 X-3.9084 Y3.0324 
G01 X-3.9426 Y3.0324 
G01 X-3.9649 Y2.9996 
G01 X-3.9649 Y1.2786 
G01 X-3.6121 Y0.8701 
G01 X-3.1568 Y0.8701 
G01 X-3.1811 Y0.8944 
G01 X-3.1811 Y1.0256 
G01 X-3.1701 Y1.0366 
G01 X-3.1701 Y1.0713 
G01 X-3.2356 Y1.0713 
G01 X-3.2445 Y1.0802 
G00 Z0.0200 
G00 X-2.9382 Y1.5176 
G01 Z-0.0070 F5.00  
G01 X-2.8918 Y1.5176 
G01 X-2.8589 Y1.4847 
G01 X-2.8589 Y1.3153 
G01 X-2.8749 Y1.2993 
G01 X-2.8749 Y1.2876 
G01 X-2.8683 Y1.2876 
G01 X-2.8594 Y1.2787 
G01 X-2.8594 Y1.2032 
G01 X-2.8683 Y1.1944 
G01 X-2.9517 Y1.1944 
G01 X-2.9606 Y1.2032 
G01 X-2.9606 Y1.2787 
G01 X-2.9517 Y1.2876 
G01 X-2.9451 Y1.2876 
G01 X-2.9451 Y1.2893 
G01 X-2.9711 Y1.3153 
G01 X-2.9711 Y1.4847 
G01 X-2.9382 Y1.5176 
G00 Z0.0200 
G00 X-3.0882 Y1.5126 
G01 Z-0.0070 F5.00  
G01 X-3.0418 Y1.5126 
G01 X-3.0089 Y1.4797 
G01 X-3.0089 Y1.3103 
G01 X-3.0249 Y1.2943 
G01 X-3.0249 Y1.2826 
G01 X-3.0133 Y1.2826 
G01 X-3.0044 Y1.2737 
G01 X-3.0044 Y1.1982 
G01 X-3.0133 Y1.1894 
G01 X-3.0967 Y1.1894 
G01 X-3.1056 Y1.1982 
G01 X-3.1056 Y1.2737 
G01 X-3.0967 Y1.2826 
G01 X-3.0951 Y1.2826 
G01 X-3.0951 Y1.2843 
G01 X-3.1211 Y1.3103 
G01 X-3.1211 Y1.4797 
G01 X-3.0882 Y1.5126 
G00 Z0.0200 
G00 X-1.8770 Y2.4849 
G01 Z-0.0070 F5.00  
G01 X-1.9151 Y2.5230 
G01 X-1.9151 Y2.5546 
G01 X-1.9660 Y2.6251 
G01 X-1.9739 Y2.6251 
G01 X-1.9739 Y2.5735 
G01 X-1.9701 Y2.5697 
G01 X-1.9662 Y2.2951 
G01 X-1.9627 Y2.2951 
G01 X-1.9287 Y2.2611 
G01 X-1.9153 Y2.2611 
G01 X-1.8824 Y2.2282 
G01 X-1.8824 Y2.1818 
G01 X-1.9099 Y2.1543 
G01 X-1.9099 Y2.1532 
G01 X-1.8824 Y2.1257 
G01 X-1.8824 Y2.0793 
G01 X-1.9099 Y2.0518 
G01 X-1.9099 Y2.0457 
G01 X-1.8824 Y2.0182 
G01 X-1.8824 Y1.9718 
G01 X-1.9114 Y1.9428 
G01 X-1.9119 Y1.9251 
G01 X-1.6965 Y1.9251 
G01 X-1.6976 Y1.9945 
G01 X-1.6976 Y2.0220 
G01 X-1.6722 Y2.0473 
G01 X-1.7224 Y2.0975 
G01 X-1.7247 Y2.4849 
G01 X-1.8770 Y2.4849 
G00 Z0.0200 
G00 X-1.8389 Y1.0256 
G01 Z-0.0070 F5.00  
G01 X-1.8389 Y0.8944 
G01 X-1.8659 Y0.8674 
G01 X-1.9041 Y0.8674 
G01 X-1.9311 Y0.8944 
G01 X-1.9311 Y1.0256 
G01 X-1.9201 Y1.0366 
G01 X-1.9201 Y1.3843 
G01 X-2.0434 Y1.4949 
G01 X-2.0445 Y1.4949 
G01 X-2.0541 Y1.5045 
G01 X-2.0541 Y1.5045 
G01 X-2.0651 Y1.5155 
G01 X-2.0651 Y1.5291 
G01 X-2.0652 Y1.5319 
G01 X-2.0850 Y1.5517 
G01 X-2.0999 Y1.5368 
G01 X-2.0999 Y1.4495 
G01 X-2.0748 Y1.4245 
G01 X-2.0652 Y1.4245 
G01 X-2.0563 Y1.4156 
G01 X-2.0563 Y1.3244 
G01 X-2.0636 Y1.3171 
G01 X-2.0632 Y1.3075 
G01 X-2.0563 Y1.3006 
G01 X-2.0563 Y1.2094 
G01 X-2.0652 Y1.2005 
G01 X-2.1367 Y1.2005 
G01 X-2.1456 Y1.2094 
G01 X-2.1456 Y1.3006 
G01 X-2.1367 Y1.3095 
G01 X-2.1335 Y1.3095 
G01 X-2.1338 Y1.3155 
G01 X-2.1367 Y1.3155 
G01 X-2.1456 Y1.3244 
G01 X-2.1456 Y1.3959 
G01 X-2.1701 Y1.4205 
G01 X-2.1701 Y1.4495 
G01 X-2.1701 Y1.5368 
G01 X-2.1850 Y1.5517 
G01 X-2.1999 Y1.5367 
G01 X-2.1999 Y1.5080 
G01 X-2.1999 Y1.4245 
G01 X-2.1833 Y1.4245 
G01 X-2.1744 Y1.4156 
G01 X-2.1744 Y1.3244 
G01 X-2.1833 Y1.3155 
G01 X-2.2548 Y1.3155 
G01 X-2.2637 Y1.3244 
G01 X-2.2637 Y1.3249 
G01 X-2.2818 Y1.3249 
G01 X-2.2999 Y1.3091 
G01 X-2.2999 Y0.9957 
G01 X-2.2849 Y0.9807 
G01 X-2.2849 Y0.9392 
G01 X-2.2905 Y0.9336 
G01 X-2.2591 Y0.8551 
G01 X-1.9742 Y0.8551 
G01 X-1.9642 Y0.8551 
G01 X-1.6683 Y0.8551 
G01 X-1.6351 Y0.8832 
G01 X-1.6351 Y0.9391 
G01 X-1.6389 Y0.9352 
G01 X-1.6389 Y0.8944 
G01 X-1.6659 Y0.8674 
G01 X-1.7041 Y0.8674 
G01 X-1.7311 Y0.8944 
G01 X-1.7311 Y0.9352 
G01 X-1.7345 Y0.9387 
G01 X-1.7394 Y1.1095 
G01 X-1.7441 Y1.1142 
G01 X-1.7441 Y1.1142 
G01 X-1.7441 Y1.1375 
G01 X-1.7450 Y1.7449 
G01 X-1.9652 Y1.7449 
G01 X-1.9677 Y1.7424 
G01 X-2.0053 Y1.7424 
G01 X-2.0849 Y1.7429 
G01 X-2.0849 Y1.6984 
G01 X-2.0557 Y1.7276 
G01 X-2.0142 Y1.7276 
G01 X-1.9850 Y1.6983 
G01 X-1.9557 Y1.7276 
G01 X-1.9142 Y1.7276 
G01 X-1.8849 Y1.6982 
G01 X-1.8849 Y1.5695 
G01 X-1.7705 Y1.4551 
G01 X-1.7499 Y1.4345 
G01 X-1.7499 Y1.0366 
G01 X-1.7389 Y1.0256 
G01 X-1.7389 Y0.8944 
G01 X-1.7659 Y0.8674 
G01 X-1.8041 Y0.8674 
G01 X-1.8311 Y0.8944 
G01 X-1.8311 Y1.0256 
G01 X-1.8201 Y1.0366 
G01 X-1.8201 Y1.4055 
G01 X-1.9370 Y1.5224 
G01 X-1.9557 Y1.5224 
G01 X-1.9850 Y1.5517 
G01 X-1.9928 Y1.5438 
G01 X-1.8716 Y1.4351 
G01 X-1.8705 Y1.4351 
G01 X-1.8609 Y1.4255 
G01 X-1.8566 Y1.4212 
G01 X-1.8499 Y1.4145 
G01 X-1.8499 Y1.0366 
G01 X-1.8389 Y1.0256 
G00 Z0.0200 
G00 X-2.1556 Y1.1058 
G01 Z-0.0070 F5.00  
G01 X-2.1556 Y1.1892 
G01 X-2.1468 Y1.1981 
G01 X-2.0713 Y1.1981 
G01 X-2.0639 Y1.1907 
G01 X-2.0411 Y1.2135 
G01 X-2.0411 Y1.3497 
G01 X-2.0082 Y1.3826 
G01 X-1.9618 Y1.3826 
G01 X-1.9289 Y1.3497 
G01 X-1.9289 Y1.1803 
G01 X-1.9618 Y1.1474 
G01 X-2.0080 Y1.1474 
G01 X-2.0430 Y1.1124 
G01 X-2.0624 Y1.1124 
G01 X-2.0624 Y1.1058 
G01 X-2.0713 Y1.0969 
G01 X-2.1468 Y1.0969 
G01 X-2.1556 Y1.1058 
G00 Z0.0200 
G00 X-1.9389 Y1.0256 
G01 Z-0.0070 F5.00  
G01 X-1.9389 Y0.8944 
G01 X-1.9659 Y0.8674 
G01 X-2.0041 Y0.8674 
G01 X-2.0311 Y0.8944 
G01 X-2.0311 Y1.0256 
G01 X-2.0288 Y1.0279 
G01 X-2.0349 Y1.0339 
G01 X-2.0349 Y1.1061 
G01 X-2.0261 Y1.1149 
G01 X-1.9539 Y1.1149 
G01 X-1.9451 Y1.1061 
G01 X-1.9451 Y1.0339 
G01 X-1.9462 Y1.0329 
G01 X-1.9389 Y1.0256 
G00 Z0.0200 
G00 X-2.2637 Y1.2094 
G01 Z-0.0070 F5.00  
G01 X-2.2637 Y1.3006 
G01 X-2.2548 Y1.3095 
G01 X-2.1833 Y1.3095 
G01 X-2.1744 Y1.3006 
G01 X-2.1744 Y1.2094 
G01 X-2.1833 Y1.2005 
G01 X-2.1859 Y1.2005 
G01 X-2.1859 Y1.1981 
G01 X-2.1832 Y1.1981 
G01 X-2.1744 Y1.1892 
G01 X-2.1744 Y1.1058 
G01 X-2.1832 Y1.0969 
G01 X-2.1849 Y1.0969 
G01 X-2.1849 Y1.0095 
G01 X-2.1705 Y0.9951 
G01 X-2.1311 Y0.9951 
G01 X-2.1311 Y1.0256 
G01 X-2.1041 Y1.0526 
G01 X-2.0659 Y1.0526 
G01 X-2.0389 Y1.0256 
G01 X-2.0389 Y0.8944 
G01 X-2.0659 Y0.8674 
G01 X-2.1041 Y0.8674 
G01 X-2.1311 Y0.8944 
G01 X-2.1311 Y0.9249 
G01 X-2.1705 Y0.9249 
G01 X-2.1995 Y0.9249 
G01 X-2.2345 Y0.9599 
G01 X-2.2551 Y0.9805 
G01 X-2.2551 Y1.0969 
G01 X-2.2587 Y1.0969 
G01 X-2.2676 Y1.1058 
G01 X-2.2676 Y1.1892 
G01 X-2.2587 Y1.1981 
G01 X-2.2561 Y1.1981 
G01 X-2.2561 Y1.2018 
G01 X-2.2637 Y1.2094 
G00 Z0.0200 
G00 X-1.2107 Y3.3851 
G01 Z-0.0070 F5.00  
G01 X-1.1830 Y3.3851 
G01 X-1.1632 Y3.3653 
G01 X-1.1632 Y3.3653 
G01 X-1.1449 Y3.3470 
G01 X-1.1449 Y3.3457 
G01 X-1.0564 Y3.2513 
G01 X-0.9951 Y3.3406 
G01 X-0.9951 Y3.3457 
G01 X-0.9837 Y3.3572 
G01 X-0.9837 Y3.3572 
G01 X-0.9657 Y3.3751 
G01 X-0.9242 Y3.3751 
G01 X-0.2642 Y3.3751 
G01 X-0.2349 Y3.3457 
G01 X-0.2349 Y3.3433 
G01 X-0.1381 Y3.2290 
G01 X-0.1249 Y3.2157 
G01 X-0.1249 Y2.6267 
G01 X-0.1219 Y2.6237 
G01 X-0.1219 Y2.5482 
G01 X-0.1308 Y2.5394 
G01 X-0.1482 Y2.5394 
G01 X-0.1517 Y2.5359 
G01 X-0.1932 Y2.5359 
G01 X-0.1967 Y2.5394 
G01 X-0.2142 Y2.5394 
G01 X-0.2231 Y2.5482 
G01 X-0.2231 Y2.5672 
G01 X-0.2251 Y2.5692 
G01 X-0.2251 Y3.1766 
G01 X-0.3082 Y3.2749 
G01 X-0.9186 Y3.2749 
G01 X-0.9564 Y3.2200 
G01 X-0.9262 Y3.1897 
G01 X-0.9262 Y3.1403 
G01 X-0.9611 Y3.1054 
G01 X-1.0200 Y3.1054 
G01 X-1.0255 Y3.0999 
G01 X-1.0280 Y3.0999 
G01 X-1.0330 Y3.0949 
G01 X-1.0870 Y3.0949 
G01 X-1.0975 Y3.1054 
G01 X-1.1439 Y3.1054 
G01 X-1.1788 Y3.1403 
G01 X-1.1788 Y3.1897 
G01 X-1.1779 Y3.1906 
G01 X-1.2383 Y3.2550 
G01 X-1.5759 Y3.2562 
G01 X-1.5773 Y3.1543 
G01 X-1.5773 Y3.1532 
G01 X-1.5774 Y3.1526 
G01 X-1.5774 Y3.1498 
G01 X-1.4889 Y3.1212 
G01 X-1.4638 Y3.1463 
G01 X-1.4112 Y3.1463 
G01 X-1.3739 Y3.1091 
G01 X-1.3739 Y3.0738 
G01 X-1.3474 Y3.0473 
G01 X-1.3474 Y2.9727 
G01 X-1.3739 Y2.9462 
G01 X-1.3739 Y2.9109 
G01 X-1.4112 Y2.8737 
G01 X-1.4638 Y2.8737 
G01 X-1.5011 Y2.9109 
G01 X-1.5011 Y2.9359 
G01 X-1.6050 Y2.9694 
G01 X-1.6053 Y2.9497 
G01 X-1.6053 Y2.9230 
G01 X-1.6203 Y2.9080 
G01 X-1.6203 Y2.8767 
G01 X-1.6496 Y2.8474 
G01 X-1.6911 Y2.8474 
G01 X-1.7204 Y2.8767 
G01 X-1.7204 Y2.9080 
G01 X-1.7354 Y2.9230 
G01 X-1.7354 Y2.9784 
G01 X-1.7401 Y2.9830 
G01 X-1.7401 Y3.0277 
G01 X-1.7601 Y3.0477 
G01 X-1.7601 Y3.0495 
G01 X-1.7874 Y3.0767 
G01 X-1.7874 Y3.1053 
G01 X-1.8051 Y3.1230 
G01 X-1.8051 Y3.1770 
G01 X-1.7874 Y3.1947 
G01 X-1.7874 Y3.2232 
G01 X-1.7580 Y3.2526 
G01 X-1.7561 Y3.2526 
G01 X-1.7561 Y3.2568 
G01 X-2.6502 Y3.2598 
G01 X-2.6865 Y3.2176 
G01 X-2.6762 Y3.2072 
G01 X-2.6762 Y3.1578 
G01 X-2.7111 Y3.1229 
G01 X-2.7700 Y3.1229 
G01 X-2.7755 Y3.1174 
G01 X-2.8295 Y3.1174 
G01 X-2.8350 Y3.1229 
G01 X-2.8939 Y3.1229 
G01 X-2.9288 Y3.1578 
G01 X-2.9288 Y3.2072 
G01 X-2.8939 Y3.2421 
G01 X-2.8371 Y3.2421 
G01 X-2.7451 Y3.3491 
G01 X-2.7451 Y3.3520 
G01 X-2.7070 Y3.3901 
G01 X-2.6799 Y3.3901 
G01 X-2.6798 Y3.3901 
G01 X-2.6530 Y3.3901 
G01 X-2.6529 Y3.3900 
G01 X-1.7305 Y3.3869 
G01 X-1.7023 Y3.4151 
G01 X-1.6277 Y3.4151 
G01 X-1.5990 Y3.3864 
G01 X-1.2107 Y3.3851 
G00 Z0.0200 
G00 X-0.4194 Y1.9456 
G01 Z-0.0070 F5.00  
G01 X-0.4105 Y1.9367 
G01 X-0.4105 Y1.8652 
G01 X-0.4194 Y1.8563 
G01 X-0.4388 Y1.8563 
G01 X-0.4442 Y1.8509 
G01 X-0.7199 Y1.8501 
G01 X-0.7199 Y1.8292 
G01 X-0.7194 Y1.8287 
G01 X-0.7194 Y1.7532 
G01 X-0.7283 Y1.7444 
G01 X-0.7457 Y1.7444 
G01 X-0.7492 Y1.7409 
G01 X-0.7907 Y1.7409 
G01 X-0.7917 Y1.7419 
G01 X-1.1319 Y1.6999 
G01 X-1.1557 Y1.6999 
G01 X-1.1609 Y1.7051 
G01 X-1.1711 Y1.7051 
G01 X-1.1799 Y1.7139 
G01 X-1.1799 Y1.7241 
G01 X-1.1851 Y1.7292 
G01 X-1.1851 Y1.7707 
G01 X-1.1799 Y1.7759 
G01 X-1.1799 Y1.7861 
G01 X-1.1711 Y1.7949 
G01 X-1.1609 Y1.7949 
G01 X-1.1582 Y1.7976 
G01 X-0.8201 Y1.8393 
G01 X-0.8201 Y1.8558 
G01 X-0.8206 Y1.8563 
G01 X-0.8206 Y1.9318 
G01 X-0.8117 Y1.9406 
G01 X-0.8002 Y1.9406 
G01 X-0.7907 Y1.9501 
G01 X-0.7692 Y1.9501 
G01 X-0.4651 Y1.9510 
G01 X-0.4442 Y1.9510 
G01 X-0.4388 Y1.9456 
G01 X-0.4194 Y1.9456 
G00 Z0.0200 
G00 X-2.3626 Y0.5433 
G01 Z-0.0070 F5.00  
G01 X-2.3626 Y0.5513 
G01 X-2.3723 Y0.5518 
G01 X-2.4003 Y0.5239 
G01 X-2.5697 Y0.5239 
G01 X-2.6026 Y0.5568 
G01 X-2.6026 Y0.6032 
G01 X-2.5697 Y0.6361 
G01 X-2.4003 Y0.6361 
G01 X-2.3871 Y0.6229 
G01 X-2.3626 Y0.6216 
G01 X-2.3626 Y0.6267 
G01 X-2.3537 Y0.6356 
G01 X-2.2782 Y0.6356 
G01 X-2.2694 Y0.6267 
G01 X-2.2694 Y0.5433 
G01 X-2.2782 Y0.5344 
G01 X-2.3537 Y0.5344 
G01 X-2.3626 Y0.5433 
G00 Z0.0200 
G00 X-1.4156 Y1.0933 
G01 Z-0.0070 F5.00  
G01 X-1.4156 Y1.1767 
G01 X-1.4068 Y1.1856 
G01 X-1.4041 Y1.1856 
G01 X-1.4041 Y1.2314 
G01 X-1.4041 Y1.2605 
G01 X-1.3926 Y1.2721 
G01 X-1.3926 Y1.2721 
G01 X-1.3835 Y1.2811 
G01 X-1.3815 Y1.2811 
G01 X-1.3385 Y1.3161 
G01 X-1.3295 Y1.3251 
G01 X-1.1651 Y1.3251 
G01 X-1.1566 Y1.3336 
G01 X-1.1184 Y1.3336 
G01 X-1.0914 Y1.3066 
G01 X-1.0914 Y1.2684 
G01 X-1.1184 Y1.2414 
G01 X-1.1566 Y1.2414 
G01 X-1.1701 Y1.2549 
G01 X-1.3025 Y1.2549 
G01 X-1.3339 Y1.2293 
G01 X-1.3339 Y1.1856 
G01 X-1.3313 Y1.1856 
G01 X-1.3224 Y1.1767 
G01 X-1.3224 Y1.0933 
G01 X-1.3313 Y1.0844 
G01 X-1.4068 Y1.0844 
G01 X-1.4156 Y1.0933 
G00 Z0.0200 
G00 X-1.1836 Y1.1684 
G01 Z-0.0070 F5.00  
G01 X-1.1836 Y1.2066 
G01 X-1.1566 Y1.2336 
G01 X-1.1184 Y1.2336 
G01 X-1.0914 Y1.2066 
G01 X-1.0914 Y1.1684 
G01 X-1.0931 Y1.1668 
G01 X-1.0545 Y1.0566 
G01 X-1.0499 Y1.0520 
G01 X-1.0499 Y1.0435 
G01 X-1.0499 Y1.0366 
G01 X-1.0389 Y1.0256 
G01 X-1.0389 Y0.8944 
G01 X-1.0659 Y0.8674 
G01 X-1.1041 Y0.8674 
G01 X-1.1311 Y0.8944 
G01 X-1.1311 Y1.0256 
G01 X-1.1214 Y1.0353 
G01 X-1.1596 Y1.1444 
G01 X-1.1836 Y1.1684 
G00 Z0.0200 
G00 X-2.5337 Y0.8356 
G01 Z-0.0070 F5.00  
G01 X-2.4582 Y0.8356 
G01 X-2.4494 Y0.8267 
G01 X-2.4494 Y0.7433 
G01 X-2.4582 Y0.7344 
G01 X-2.5337 Y0.7344 
G01 X-2.5387 Y0.7394 
G01 X-2.5389 Y0.7394 
G01 X-2.5389 Y0.6994 
G01 X-2.5659 Y0.6724 
G01 X-2.6041 Y0.6724 
G01 X-2.6311 Y0.6994 
G01 X-2.6311 Y0.8306 
G01 X-2.6041 Y0.8576 
G01 X-2.5659 Y0.8576 
G01 X-2.5389 Y0.8306 
G01 X-2.5389 Y0.8304 
G01 X-2.5337 Y0.8356 
G00 Z0.0200 
G00 X-0.8256 Y1.1633 
G01 Z-0.0070 F5.00  
G01 X-0.8256 Y1.2467 
G01 X-0.8168 Y1.2556 
G01 X-0.7413 Y1.2556 
G01 X-0.7324 Y1.2467 
G01 X-0.7324 Y1.1633 
G01 X-0.7409 Y1.1548 
G01 X-0.7409 Y1.1520 
G01 X-0.7402 Y1.1520 
G01 X-0.7313 Y1.1431 
G01 X-0.7313 Y1.0519 
G01 X-0.7402 Y1.0430 
G01 X-0.7499 Y1.0430 
G01 X-0.7499 Y1.0366 
G01 X-0.7389 Y1.0256 
G01 X-0.7389 Y0.8944 
G01 X-0.7659 Y0.8674 
G01 X-0.8041 Y0.8674 
G01 X-0.8311 Y0.8944 
G01 X-0.8311 Y1.0256 
G01 X-0.8201 Y1.0366 
G01 X-0.8201 Y1.0514 
G01 X-0.8206 Y1.0519 
G01 X-0.8206 Y1.1431 
G01 X-0.8117 Y1.1520 
G01 X-0.8110 Y1.1520 
G01 X-0.8110 Y1.1544 
G01 X-0.8168 Y1.1544 
G01 X-0.8256 Y1.1633 
G00 Z0.0200 
G00 X-1.0818 Y0.1374 
G01 Z-0.0070 F5.00  
G01 X-1.1282 Y0.1374 
G01 X-1.1611 Y0.1703 
G01 X-1.1611 Y0.2541 
G01 X-1.1880 Y0.2749 
G01 X-1.2417 Y0.2749 
G01 X-1.2506 Y0.2838 
G01 X-1.2506 Y0.3593 
G01 X-1.2417 Y0.3681 
G01 X-1.1583 Y0.3681 
G01 X-1.1494 Y0.3593 
G01 X-1.1494 Y0.3514 
G01 X-1.1282 Y0.3726 
G01 X-1.0818 Y0.3726 
G01 X-1.0489 Y0.3397 
G01 X-1.0489 Y0.1703 
G01 X-1.0818 Y0.1374 
G00 Z0.0200 
G00 X-0.8039 Y0.3247 
G01 Z-0.0070 F5.00  
G01 X-0.8039 Y0.1553 
G01 X-0.8368 Y0.1224 
G01 X-0.8832 Y0.1224 
G01 X-0.9161 Y0.1553 
G01 X-0.9161 Y0.3247 
G01 X-0.8951 Y0.3457 
G01 X-0.8951 Y0.3505 
G01 X-0.8991 Y0.3545 
G01 X-0.8991 Y0.3574 
G01 X-0.9017 Y0.3574 
G01 X-0.9106 Y0.3663 
G01 X-0.9106 Y0.4418 
G01 X-0.9017 Y0.4506 
G01 X-0.8183 Y0.4506 
G01 X-0.8094 Y0.4418 
G01 X-0.8094 Y0.3663 
G01 X-0.8183 Y0.3574 
G01 X-0.8249 Y0.3574 
G01 X-0.8249 Y0.3505 
G01 X-0.8249 Y0.3457 
G01 X-0.8039 Y0.3247 
G00 Z0.0200 
G00 X-3.0541 Y0.7526 
G01 Z-0.0070 F5.00  
G01 X-3.0159 Y0.7526 
G01 X-2.9889 Y0.7256 
G01 X-2.9889 Y0.5944 
G01 X-2.9999 Y0.5834 
G01 X-2.9999 Y0.4856 
G01 X-2.8165 Y0.3201 
G01 X-2.0102 Y0.3201 
G01 X-1.8201 Y0.5238 
G01 X-1.8201 Y0.5834 
G01 X-1.8311 Y0.5944 
G01 X-1.8311 Y0.7256 
G01 X-1.8041 Y0.7526 
G01 X-1.7659 Y0.7526 
G01 X-1.7389 Y0.7256 
G01 X-1.7389 Y0.5944 
G01 X-1.7499 Y0.5834 
G01 X-1.7499 Y0.5245 
G01 X-1.7499 Y0.4962 
G01 X-1.7499 Y0.4955 
G01 X-1.7597 Y0.4857 
G01 X-1.9599 Y0.2712 
G01 X-1.9599 Y0.2705 
G01 X-1.9698 Y0.2606 
G01 X-1.9698 Y0.2606 
G01 X-1.9748 Y0.2556 
G01 X-1.9805 Y0.2499 
G01 X-2.8155 Y0.2499 
G01 X-2.8435 Y0.2499 
G01 X-2.8445 Y0.2499 
G01 X-2.8541 Y0.2595 
G01 X-3.0485 Y0.4349 
G01 X-3.0495 Y0.4349 
G01 X-3.0592 Y0.4446 
G01 X-3.0648 Y0.4501 
G01 X-3.0701 Y0.4555 
G01 X-3.0701 Y0.5834 
G01 X-3.0811 Y0.5944 
G01 X-3.0811 Y0.7256 
G01 X-3.0541 Y0.7526 
G00 Z0.0200 
G00 X-0.9389 Y1.0256 
G01 Z-0.0070 F5.00  
G01 X-0.9389 Y0.8944 
G01 X-0.9659 Y0.8674 
G01 X-1.0041 Y0.8674 
G01 X-1.0311 Y0.8944 
G01 X-1.0311 Y1.0256 
G01 X-1.0201 Y1.0366 
G01 X-1.0201 Y1.5838 
G01 X-1.0349 Y1.5842 
G01 X-1.0349 Y1.5708 
G01 X-1.0438 Y1.5619 
G01 X-1.1193 Y1.5619 
G01 X-1.1281 Y1.5708 
G01 X-1.1281 Y1.6542 
G01 X-1.1193 Y1.6631 
G01 X-1.0438 Y1.6631 
G01 X-1.0349 Y1.6542 
G01 X-1.0349 Y1.6384 
G01 X-0.9847 Y1.6371 
G01 X-0.9738 Y1.6371 
G01 X-0.9735 Y1.6368 
G01 X-0.9579 Y1.6212 
G01 X-0.9579 Y1.6175 
G01 X-0.9499 Y1.6095 
G01 X-0.9499 Y1.0366 
G01 X-0.9389 Y1.0256 
G00 Z0.0200 
G00 X-1.1389 Y1.0256 
G01 Z-0.0070 F5.00  
G01 X-1.1389 Y0.8944 
G01 X-1.1659 Y0.8674 
G01 X-1.2041 Y0.8674 
G01 X-1.2311 Y0.8944 
G01 X-1.2311 Y1.0256 
G01 X-1.2121 Y1.0446 
G01 X-1.2121 Y1.0461 
G01 X-1.2387 Y1.0651 
G01 X-1.2911 Y1.0651 
G01 X-1.2999 Y1.0739 
G01 X-1.2999 Y1.1461 
G01 X-1.2911 Y1.1549 
G01 X-1.2189 Y1.1549 
G01 X-1.2101 Y1.1461 
G01 X-1.2101 Y1.1112 
G01 X-1.1763 Y1.0871 
G01 X-1.1738 Y1.0871 
G01 X-1.1674 Y1.0807 
G01 X-1.1674 Y1.0807 
G01 X-1.1579 Y1.0712 
G01 X-1.1579 Y1.0488 
G01 X-1.1579 Y1.0446 
G01 X-1.1389 Y1.0256 
G00 Z0.0200 
G00 X-1.3041 Y1.0526 
G01 Z-0.0070 F5.00  
G01 X-1.2659 Y1.0526 
G01 X-1.2389 Y1.0256 
G01 X-1.2389 Y0.8944 
G01 X-1.2659 Y0.8674 
G01 X-1.3041 Y0.8674 
G01 X-1.3311 Y0.8944 
G01 X-1.3311 Y1.0256 
G01 X-1.3041 Y1.0526 
G00 Z0.0200 
G00 X-1.4041 Y1.0526 
G01 Z-0.0070 F5.00  
G01 X-1.3659 Y1.0526 
G01 X-1.3389 Y1.0256 
G01 X-1.3389 Y0.8944 
G01 X-1.3659 Y0.8674 
G01 X-1.4041 Y0.8674 
G01 X-1.4311 Y0.8944 
G01 X-1.4311 Y1.0256 
G01 X-1.4041 Y1.0526 
G00 Z0.0200 
G00 X-1.5041 Y1.0526 
G01 Z-0.0070 F5.00  
G01 X-1.4659 Y1.0526 
G01 X-1.4389 Y1.0256 
G01 X-1.4389 Y0.8944 
G01 X-1.4659 Y0.8674 
G01 X-1.5041 Y0.8674 
G01 X-1.5311 Y0.8944 
G01 X-1.5311 Y1.0256 
G01 X-1.5041 Y1.0526 
G00 Z0.0200 
G00 X-1.9041 Y0.7526 
G01 Z-0.0070 F5.00  
G01 X-1.8659 Y0.7526 
G01 X-1.8389 Y0.7256 
G01 X-1.8389 Y0.5944 
G01 X-1.8499 Y0.5834 
G01 X-1.8499 Y0.5745 
G01 X-1.8499 Y0.5461 
G01 X-1.8499 Y0.5455 
G01 X-1.8598 Y0.5356 
G01 X-2.0099 Y0.3761 
G01 X-2.0099 Y0.3755 
G01 X-2.0198 Y0.3656 
G01 X-2.0198 Y0.3656 
G01 X-2.0258 Y0.3595 
G01 X-2.0305 Y0.3549 
G01 X-2.7655 Y0.3549 
G01 X-2.7936 Y0.3549 
G01 X-2.7945 Y0.3549 
G01 X-2.8042 Y0.3646 
G01 X-2.8486 Y0.4049 
G01 X-2.8495 Y0.4049 
G01 X-2.8592 Y0.4146 
G01 X-2.8592 Y0.4146 
G01 X-2.8657 Y0.4210 
G01 X-2.8701 Y0.4255 
G01 X-2.8701 Y0.5834 
G01 X-2.8811 Y0.5944 
G01 X-2.8811 Y0.7256 
G01 X-2.8541 Y0.7526 
G01 X-2.8159 Y0.7526 
G01 X-2.7889 Y0.7256 
G01 X-2.7889 Y0.5944 
G01 X-2.7999 Y0.5834 
G01 X-2.7999 Y0.4555 
G01 X-2.7664 Y0.4251 
G01 X-2.0602 Y0.4251 
G01 X-1.9201 Y0.5739 
G01 X-1.9201 Y0.5834 
G01 X-1.9311 Y0.5944 
G01 X-1.9311 Y0.7256 
G01 X-1.9041 Y0.7526 
G00 Z0.0200 
G00 X-1.7041 Y0.7526 
G01 Z-0.0070 F5.00  
G01 X-1.6659 Y0.7526 
G01 X-1.6389 Y0.7256 
G01 X-1.6389 Y0.5944 
G01 X-1.6499 Y0.5834 
G01 X-1.6499 Y0.4445 
G01 X-1.6499 Y0.4155 
G01 X-1.6705 Y0.3949 
G01 X-1.6805 Y0.3949 
G01 X-1.7079 Y0.3675 
G01 X-1.7079 Y0.3171 
G01 X-1.7279 Y0.2971 
G01 X-1.7279 Y0.2837 
G01 X-1.7094 Y0.2837 
G01 X-1.7005 Y0.2748 
G01 X-1.7005 Y0.2033 
G01 X-1.7094 Y0.1944 
G01 X-1.8006 Y0.1944 
G01 X-1.8095 Y0.2033 
G01 X-1.8095 Y0.2748 
G01 X-1.8006 Y0.2837 
G01 X-1.7821 Y0.2837 
G01 X-1.7821 Y0.3071 
G01 X-1.7921 Y0.3171 
G01 X-1.7921 Y0.4329 
G01 X-1.7674 Y0.4576 
G01 X-1.7326 Y0.4576 
G01 X-1.7248 Y0.4498 
G01 X-1.7201 Y0.4545 
G01 X-1.7201 Y0.5834 
G01 X-1.7311 Y0.5944 
G01 X-1.7311 Y0.7256 
G01 X-1.7041 Y0.7526 
G00 Z0.0200 
G00 X-1.2041 Y0.7526 
G01 Z-0.0070 F5.00  
G01 X-1.1659 Y0.7526 
G01 X-1.1389 Y0.7256 
G01 X-1.1389 Y0.5944 
G01 X-1.1659 Y0.5674 
G01 X-1.2041 Y0.5674 
G01 X-1.2311 Y0.5944 
G01 X-1.2311 Y0.7256 
G01 X-1.2041 Y0.7526 
G00 Z0.0200 
G00 X-1.1041 Y0.7526 
G01 Z-0.0070 F5.00  
G01 X-1.0659 Y0.7526 
G01 X-1.0389 Y0.7256 
G01 X-1.0389 Y0.5944 
G01 X-1.0659 Y0.5674 
G01 X-1.1041 Y0.5674 
G01 X-1.1311 Y0.5944 
G01 X-1.1311 Y0.7256 
G01 X-1.1041 Y0.7526 
G00 Z0.0200 
G00 X-1.0041 Y0.7526 
G01 Z-0.0070 F5.00  
G01 X-0.9659 Y0.7526 
G01 X-0.9389 Y0.7256 
G01 X-0.9389 Y0.5944 
G01 X-0.9625 Y0.5708 
G01 X-0.9553 Y0.5637 
G01 X-0.9394 Y0.5637 
G01 X-0.9305 Y0.5548 
G01 X-0.9305 Y0.5502 
G01 X-0.9106 Y0.5502 
G01 X-0.9106 Y0.5537 
G01 X-0.9017 Y0.5626 
G01 X-0.8183 Y0.5626 
G01 X-0.8094 Y0.5537 
G01 X-0.8094 Y0.4782 
G01 X-0.8183 Y0.4694 
G01 X-0.9017 Y0.4694 
G01 X-0.9106 Y0.4782 
G01 X-0.9106 Y0.4800 
G01 X-0.9338 Y0.4800 
G01 X-0.9394 Y0.4744 
G01 X-0.9588 Y0.4744 
G01 X-0.9642 Y0.4690 
G01 X-1.0057 Y0.4690 
G01 X-1.0112 Y0.4744 
G01 X-1.0306 Y0.4744 
G01 X-1.0395 Y0.4833 
G01 X-1.0395 Y0.4874 
G01 X-1.2370 Y0.4874 
G01 X-1.2576 Y0.5080 
G01 X-1.3201 Y0.5705 
G01 X-1.3201 Y0.5834 
G01 X-1.3311 Y0.5944 
G01 X-1.3311 Y0.7256 
G01 X-1.3041 Y0.7526 
G01 X-1.2659 Y0.7526 
G01 X-1.2389 Y0.7256 
G01 X-1.2389 Y0.5944 
G01 X-1.2418 Y0.5915 
G01 X-1.2080 Y0.5576 
G01 X-1.0367 Y0.5576 
G01 X-1.0306 Y0.5637 
G01 X-1.0147 Y0.5637 
G01 X-1.0075 Y0.5708 
G01 X-1.0311 Y0.5944 
G01 X-1.0311 Y0.7256 
G01 X-1.0041 Y0.7526 
G00 Z0.0200 
G00 X-0.9041 Y0.7526 
G01 Z-0.0070 F5.00  
G01 X-0.8659 Y0.7526 
G01 X-0.8389 Y0.7256 
G01 X-0.8389 Y0.5944 
G01 X-0.8659 Y0.5674 
G01 X-0.9041 Y0.5674 
G01 X-0.9311 Y0.5944 
G01 X-0.9311 Y0.7256 
G01 X-0.9041 Y0.7526 
G00 Z0.0200 
G00 X-0.8081 Y0.7644 
G01 Z-0.0070 F5.00  
G01 X-0.8081 Y0.8556 
G01 X-0.7992 Y0.8645 
G01 X-0.7277 Y0.8645 
G01 X-0.7229 Y0.8597 
G01 X-0.7201 Y0.8606 
G01 X-0.7201 Y1.3487 
G01 X-0.7250 Y1.3487 
G01 X-0.7338 Y1.3575 
G01 X-0.7338 Y1.4375 
G01 X-0.7250 Y1.4463 
G01 X-0.6450 Y1.4463 
G01 X-0.6362 Y1.4375 
G01 X-0.6362 Y1.3575 
G01 X-0.6450 Y1.3487 
G01 X-0.6499 Y1.3487 
G01 X-0.6499 Y0.8205 
G01 X-0.6705 Y0.7999 
G01 X-0.6795 Y0.7999 
G01 X-0.7188 Y0.7874 
G01 X-0.7188 Y0.7644 
G01 X-0.7277 Y0.7555 
G01 X-0.7330 Y0.7555 
G01 X-0.7389 Y0.6894 
G01 X-0.7389 Y0.5944 
G01 X-0.7659 Y0.5674 
G01 X-0.8041 Y0.5674 
G01 X-0.8311 Y0.5944 
G01 X-0.8311 Y0.7256 
G01 X-0.8041 Y0.7526 
G01 X-0.8038 Y0.7526 
G01 X-0.8032 Y0.7595 
G01 X-0.8081 Y0.7644 
G00 Z0.0200 
G00 X-0.1308 Y2.5206 
G01 Z-0.0070 F5.00  
G01 X-0.1219 Y2.5118 
G01 X-0.1219 Y2.4363 
G01 X-0.1308 Y2.4274 
G01 X-0.1482 Y2.4274 
G01 X-0.1517 Y2.4239 
G01 X-0.1728 Y2.4239 
G01 X-0.2149 Y2.4244 
G01 X-0.2149 Y2.4067 
G01 X-0.2105 Y2.4023 
G01 X-0.2105 Y2.3308 
G01 X-0.2194 Y2.3219 
G01 X-0.2388 Y2.3219 
G01 X-0.2442 Y2.3165 
G01 X-0.2857 Y2.3165 
G01 X-0.2912 Y2.3219 
G01 X-0.3106 Y2.3219 
G01 X-0.3195 Y2.3308 
G01 X-0.3195 Y2.4023 
G01 X-0.3151 Y2.4067 
G01 X-0.3151 Y2.4542 
G01 X-0.3151 Y2.4957 
G01 X-0.2857 Y2.5251 
G01 X-0.2647 Y2.5251 
G01 X-0.2647 Y2.5251 
G01 X-0.2442 Y2.5251 
G01 X-0.2440 Y2.5249 
G01 X-0.1515 Y2.5239 
G01 X-0.1482 Y2.5206 
G01 X-0.1308 Y2.5206 
G00 Z0.0200 
G00 X-1.3456 Y1.5694 
G01 Z-0.0070 F5.00  
G01 X-1.3456 Y1.6606 
G01 X-1.3367 Y1.6695 
G01 X-1.3051 Y1.6695 
G01 X-1.3051 Y1.7157 
G01 X-1.2999 Y1.7209 
G01 X-1.2999 Y1.7311 
G01 X-1.2911 Y1.7399 
G01 X-1.2809 Y1.7399 
G01 X-1.2757 Y1.7451 
G01 X-1.2342 Y1.7451 
G01 X-1.2291 Y1.7399 
G01 X-1.2189 Y1.7399 
G01 X-1.2101 Y1.7311 
G01 X-1.2101 Y1.7209 
G01 X-1.2049 Y1.7157 
G01 X-1.2049 Y1.6631 
G01 X-1.1557 Y1.6631 
G01 X-1.1469 Y1.6542 
G01 X-1.1469 Y1.5708 
G01 X-1.1557 Y1.5619 
G01 X-1.2312 Y1.5619 
G01 X-1.2342 Y1.5649 
G01 X-1.2342 Y1.5649 
G01 X-1.2608 Y1.5649 
G01 X-1.2652 Y1.5605 
G01 X-1.3367 Y1.5605 
G01 X-1.3456 Y1.5694 
G00 Z0.0200 
G00 X-1.6095 Y0.2083 
G01 Z-0.0070 F5.00  
G01 X-1.6095 Y0.2798 
G01 X-1.6006 Y0.2887 
G01 X-1.5821 Y0.2887 
G01 X-1.5821 Y0.3071 
G01 X-1.5921 Y0.3171 
G01 X-1.5921 Y0.3725 
G01 X-1.6201 Y0.4005 
G01 X-1.6201 Y0.4295 
G01 X-1.6201 Y0.5834 
G01 X-1.6311 Y0.5944 
G01 X-1.6311 Y0.7256 
G01 X-1.6041 Y0.7526 
G01 X-1.5659 Y0.7526 
G01 X-1.5389 Y0.7256 
G01 X-1.5389 Y0.5944 
G01 X-1.5499 Y0.5834 
G01 X-1.5499 Y0.4576 
G01 X-1.5326 Y0.4576 
G01 X-1.5079 Y0.4329 
G01 X-1.5079 Y0.3171 
G01 X-1.5279 Y0.2971 
G01 X-1.5279 Y0.2887 
G01 X-1.5094 Y0.2887 
G01 X-1.5005 Y0.2798 
G01 X-1.5005 Y0.2083 
G01 X-1.5094 Y0.1994 
G01 X-1.6006 Y0.1994 
G01 X-1.6095 Y0.2083 
G00 Z0.0200 
G00 X-0.8206 Y1.6413 
G01 Z-0.0070 F5.00  
G01 X-0.8206 Y1.7168 
G01 X-0.8117 Y1.7256 
G01 X-0.7943 Y1.7256 
G01 X-0.7907 Y1.7291 
G01 X-0.7492 Y1.7291 
G01 X-0.7457 Y1.7256 
G01 X-0.7283 Y1.7256 
G01 X-0.7194 Y1.7168 
G01 X-0.7194 Y1.6413 
G01 X-0.7199 Y1.6408 
G01 X-0.7199 Y1.6401 
G01 X-0.6307 Y1.6401 
G01 X-0.5906 Y1.6401 
G01 X-0.5892 Y1.6401 
G01 X-0.5754 Y1.6262 
G01 X-0.4806 Y1.5401 
G01 X-0.4792 Y1.5401 
G01 X-0.4654 Y1.5263 
G01 X-0.4654 Y1.5263 
G01 X-0.4558 Y1.5167 
G01 X-0.4499 Y1.5107 
G01 X-0.4499 Y0.3407 
G01 X-0.4439 Y0.3347 
G01 X-0.4439 Y0.1653 
G01 X-0.4768 Y0.1324 
G01 X-0.5232 Y0.1324 
G01 X-0.5561 Y0.1653 
G01 X-0.5561 Y0.3347 
G01 X-0.5501 Y0.3407 
G01 X-0.5501 Y1.4678 
G01 X-0.6294 Y1.5399 
G01 X-0.7442 Y1.5399 
G01 X-0.7492 Y1.5349 
G01 X-0.7856 Y1.5349 
G01 X-0.8401 Y1.4875 
G01 X-0.8401 Y1.4589 
G01 X-0.8489 Y1.4501 
G01 X-0.8508 Y1.4501 
G01 X-0.8548 Y1.2556 
G01 X-0.8532 Y1.2556 
G01 X-0.8444 Y1.2467 
G01 X-0.8444 Y1.1633 
G01 X-0.8532 Y1.1544 
G01 X-0.9287 Y1.1544 
G01 X-0.9376 Y1.1633 
G01 X-0.9376 Y1.2467 
G01 X-0.9287 Y1.2556 
G01 X-0.9250 Y1.2556 
G01 X-0.9210 Y1.4501 
G01 X-0.9211 Y1.4501 
G01 X-0.9299 Y1.4589 
G01 X-0.9299 Y1.5311 
G01 X-0.9211 Y1.5399 
G01 X-0.8868 Y1.5399 
G01 X-0.8201 Y1.5979 
G01 X-0.8201 Y1.6107 
G01 X-0.8201 Y1.6408 
G01 X-0.8206 Y1.6413 
G00 Z0.0200 
G00 X-1.7599 Y2.7439 
G01 Z-0.0070 F5.00  
G01 X-1.7599 Y2.7793 
G01 X-1.8110 Y2.8414 
G01 X-1.8170 Y2.8474 
G01 X-1.8250 Y2.8474 
G01 X-1.8391 Y2.8615 
G01 X-1.8390 Y2.8318 
G01 X-1.7663 Y2.7249 
G01 X-1.7639 Y2.7249 
G01 X-1.7551 Y2.7161 
G01 X-1.7551 Y2.7084 
G01 X-1.7499 Y2.7008 
G01 X-1.7499 Y2.6755 
G01 X-1.7551 Y2.6703 
G01 X-1.7551 Y2.6439 
G01 X-1.7639 Y2.6351 
G01 X-1.8361 Y2.6351 
G01 X-1.8449 Y2.6439 
G01 X-1.8449 Y2.7157 
G01 X-1.8950 Y2.7893 
G01 X-1.8950 Y2.6978 
G01 X-1.8352 Y2.6151 
G01 X-1.6973 Y2.6151 
G01 X-1.6723 Y2.6401 
G01 X-1.5977 Y2.6401 
G01 X-1.5051 Y2.6401 
G01 X-1.5051 Y2.7320 
G01 X-1.4961 Y2.7410 
G01 X-1.4961 Y2.7897 
G01 X-1.4632 Y2.8226 
G01 X-1.4168 Y2.8226 
G01 X-1.3839 Y2.7897 
G01 X-1.3839 Y2.7410 
G01 X-1.3749 Y2.7320 
G01 X-1.3749 Y2.6401 
G01 X-0.7642 Y2.6401 
G01 X-0.7487 Y2.6556 
G01 X-0.6613 Y2.6556 
G01 X-0.6208 Y2.6151 
G01 X-0.5193 Y2.6151 
G01 X-0.5176 Y2.7677 
G01 X-0.5176 Y3.1054 
G01 X-0.5439 Y3.1054 
G01 X-0.5788 Y3.1403 
G01 X-0.5788 Y3.1897 
G01 X-0.5439 Y3.2246 
G01 X-0.4850 Y3.2246 
G01 X-0.4795 Y3.2301 
G01 X-0.4255 Y3.2301 
G01 X-0.4200 Y3.2246 
G01 X-0.3611 Y3.2246 
G01 X-0.3262 Y3.1897 
G01 X-0.3262 Y3.1403 
G01 X-0.3611 Y3.1054 
G01 X-0.3874 Y3.1054 
G01 X-0.3874 Y2.7945 
G01 X-0.3874 Y2.7671 
G01 X-0.3874 Y2.7671 
G01 X-0.3874 Y2.7405 
G01 X-0.3877 Y2.7402 
G01 X-0.3899 Y2.5497 
G01 X-0.3899 Y2.5230 
G01 X-0.3902 Y2.5227 
G01 X-0.4049 Y2.5080 
G01 X-0.4049 Y2.4192 
G01 X-0.4005 Y2.4148 
G01 X-0.4005 Y2.3433 
G01 X-0.4094 Y2.3344 
G01 X-0.4288 Y2.3344 
G01 X-0.4342 Y2.3290 
G01 X-0.4757 Y2.3290 
G01 X-0.4812 Y2.3344 
G01 X-0.5006 Y2.3344 
G01 X-0.5095 Y2.3433 
G01 X-0.5095 Y2.4148 
G01 X-0.5051 Y2.4192 
G01 X-0.5051 Y2.4849 
G01 X-0.6208 Y2.4849 
G01 X-0.6613 Y2.4444 
G01 X-0.7487 Y2.4444 
G01 X-0.7642 Y2.4599 
G01 X-1.4823 Y2.4599 
G01 X-1.5444 Y2.4599 
G01 X-1.5424 Y2.1353 
G01 X-1.5424 Y2.0977 
G01 X-1.5928 Y2.0473 
G01 X-1.5678 Y2.0224 
G01 X-1.5663 Y1.9218 
G01 X-1.4436 Y1.9203 
G01 X-0.7950 Y2.2086 
G01 X-0.7945 Y2.2098 
G01 X-0.7648 Y2.2395 
G01 X-0.7260 Y2.2556 
G01 X-0.6840 Y2.2556 
G01 X-0.6495 Y2.2413 
G01 X-0.5095 Y2.2444 
G01 X-0.5095 Y2.2967 
G01 X-0.5006 Y2.3056 
G01 X-0.4812 Y2.3056 
G01 X-0.4757 Y2.3110 
G01 X-0.4342 Y2.3110 
G01 X-0.4288 Y2.3056 
G01 X-0.4094 Y2.3056 
G01 X-0.4005 Y2.2967 
G01 X-0.4005 Y2.2436 
G01 X-0.3195 Y2.2420 
G01 X-0.3195 Y2.2842 
G01 X-0.3106 Y2.2931 
G01 X-0.2912 Y2.2931 
G01 X-0.2857 Y2.2985 
G01 X-0.2442 Y2.2985 
G01 X-0.2388 Y2.2931 
G01 X-0.2194 Y2.2931 
G01 X-0.2105 Y2.2842 
G01 X-0.2105 Y2.2189 
G01 X-0.1799 Y2.1883 
G01 X-0.1799 Y2.1136 
G01 X-0.1799 Y0.1377 
G01 X-0.2048 Y0.1128 
G01 X-0.3098 Y-0.0023 
G01 X-0.3377 Y-0.0301 
G01 X-0.4123 Y-0.0301 
G01 X-0.4373 Y-0.0051 
G01 X-0.6380 Y-0.0051 
G01 X-0.6430 Y-0.0101 
G01 X-0.9580 Y-0.0101 
G01 X-0.9605 Y-0.0126 
G01 X-1.3030 Y-0.0126 
G01 X-1.4230 Y-0.0126 
G01 X-1.5280 Y-0.0126 
G01 X-1.6970 Y-0.0126 
G01 X-1.6973 Y-0.0123 
G01 X-1.7503 Y-0.0117 
G01 X-2.6098 Y-0.0116 
G01 X-2.9280 Y-0.0125 
G01 X-2.9280 Y-0.0126 
G01 X-2.9795 Y-0.0126 
G01 X-2.9820 Y-0.0126 
G01 X-2.9995 Y0.0049 
G01 X-3.1795 Y0.1624 
G01 X-3.2001 Y0.1830 
G01 X-3.2001 Y0.2370 
G01 X-3.1851 Y0.2520 
G01 X-3.1851 Y0.6807 
G01 X-3.1811 Y0.6847 
G01 X-3.1811 Y0.7256 
G01 X-3.1541 Y0.7526 
G01 X-3.1159 Y0.7526 
G01 X-3.0889 Y0.7256 
G01 X-3.0889 Y0.6847 
G01 X-3.0849 Y0.6807 
G01 X-3.0849 Y0.2527 
G01 X-2.9306 Y0.1177 
G01 X-2.7076 Y0.1183 
G01 X-2.7076 Y0.1632 
G01 X-2.6747 Y0.1961 
G01 X-2.5053 Y0.1961 
G01 X-2.4724 Y0.1632 
G01 X-2.4724 Y0.1186 
G01 X-1.8095 Y0.1185 
G01 X-1.8095 Y0.1567 
G01 X-1.8006 Y0.1656 
G01 X-1.7812 Y0.1656 
G01 X-1.7757 Y0.1710 
G01 X-1.7342 Y0.1710 
G01 X-1.7288 Y0.1656 
G01 X-1.7094 Y0.1656 
G01 X-1.7005 Y0.1567 
G01 X-1.7005 Y0.1179 
G01 X-1.6698 Y0.1176 
G01 X-1.6095 Y0.1176 
G01 X-1.6095 Y0.1617 
G01 X-1.6006 Y0.1706 
G01 X-1.5812 Y0.1706 
G01 X-1.5757 Y0.1760 
G01 X-1.5342 Y0.1760 
G01 X-1.5288 Y0.1706 
G01 X-1.5094 Y0.1706 
G01 X-1.5005 Y0.1617 
G01 X-1.5005 Y0.1176 
G01 X-1.4993 Y0.1176 
G01 X-1.4953 Y0.4445 
G01 X-1.5057 Y0.4549 
G01 X-1.5057 Y0.4549 
G01 X-1.5351 Y0.4842 
G01 X-1.5351 Y0.6392 
G01 X-1.5351 Y0.6617 
G01 X-1.5351 Y0.6617 
G01 X-1.5351 Y0.6807 
G01 X-1.5337 Y0.6821 
G01 X-1.5311 Y0.7216 
G01 X-1.5311 Y0.7256 
G01 X-1.5308 Y0.7259 
G01 X-1.5301 Y0.7366 
G01 X-1.5301 Y0.7547 
G01 X-1.5288 Y0.7561 
G01 X-1.5287 Y0.7571 
G01 X-1.5160 Y0.7699 
G01 X-1.4601 Y0.8297 
G01 X-1.4601 Y0.8307 
G01 X-1.4460 Y0.8448 
G01 X-1.4460 Y0.8448 
G01 X-1.4307 Y0.8601 
G01 X-1.3892 Y0.8601 
G01 X-0.9328 Y0.8601 
G01 X-0.9351 Y0.9594 
G01 X-0.9351 Y0.9807 
G01 X-0.9311 Y0.9847 
G01 X-0.9311 Y1.0256 
G01 X-0.9201 Y1.0366 
G01 X-0.9201 Y1.0430 
G01 X-0.9298 Y1.0430 
G01 X-0.9387 Y1.0519 
G01 X-0.9387 Y1.1431 
G01 X-0.9298 Y1.1520 
G01 X-0.8583 Y1.1520 
G01 X-0.8494 Y1.1431 
G01 X-0.8494 Y1.0519 
G01 X-0.8499 Y1.0514 
G01 X-0.8499 Y1.0366 
G01 X-0.8389 Y1.0256 
G01 X-0.8389 Y0.9847 
G01 X-0.8354 Y0.9812 
G01 X-0.8319 Y0.8312 
G01 X-0.8315 Y0.8307 
G01 X-0.8315 Y0.8106 
G01 X-0.8315 Y0.7989 
G01 X-0.8315 Y0.7892 
G01 X-0.8369 Y0.7838 
G01 X-0.8369 Y0.7644 
G01 X-0.8458 Y0.7555 
G01 X-0.9173 Y0.7555 
G01 X-0.9217 Y0.7599 
G01 X-1.3882 Y0.7599 
G01 X-1.3951 Y0.7526 
G01 X-1.3659 Y0.7526 
G01 X-1.3389 Y0.7256 
G01 X-1.3389 Y0.6231 
G01 X-1.3005 Y0.4787 
G01 X-1.2844 Y0.4787 
G01 X-1.2755 Y0.4698 
G01 X-1.2755 Y0.4689 
G01 X-1.2506 Y0.4688 
G01 X-1.2506 Y0.4712 
G01 X-1.2417 Y0.4801 
G01 X-1.1583 Y0.4801 
G01 X-1.1494 Y0.4712 
G01 X-1.1494 Y0.3957 
G01 X-1.1583 Y0.3869 
G01 X-1.2417 Y0.3869 
G01 X-1.2506 Y0.3957 
G01 X-1.2506 Y0.3986 
G01 X-1.2755 Y0.3987 
G01 X-1.2755 Y0.3983 
G01 X-1.2844 Y0.3894 
G01 X-1.3756 Y0.3894 
G01 X-1.3845 Y0.3983 
G01 X-1.3845 Y0.4698 
G01 X-1.3756 Y0.4787 
G01 X-1.3732 Y0.4787 
G01 X-1.3967 Y0.5674 
G01 X-1.4041 Y0.5674 
G01 X-1.4311 Y0.5944 
G01 X-1.4311 Y0.7140 
G01 X-1.4312 Y0.7139 
G01 X-1.4349 Y0.6584 
G01 X-1.4349 Y0.5257 
G01 X-1.4242 Y0.5151 
G01 X-1.3949 Y0.4857 
G01 X-1.3949 Y0.4647 
G01 X-1.3949 Y0.4647 
G01 X-1.3949 Y0.4442 
G01 X-1.3952 Y0.4440 
G01 X-1.3991 Y0.1176 
G01 X-1.3801 Y0.1176 
G01 X-1.3801 Y0.2758 
G01 X-1.3845 Y0.2802 
G01 X-1.3845 Y0.3517 
G01 X-1.3756 Y0.3606 
G01 X-1.3562 Y0.3606 
G01 X-1.3507 Y0.3660 
G01 X-1.3092 Y0.3660 
G01 X-1.3038 Y0.3606 
G01 X-1.2844 Y0.3606 
G01 X-1.2755 Y0.3517 
G01 X-1.2755 Y0.2802 
G01 X-1.2799 Y0.2758 
G01 X-1.2799 Y0.1176 
G01 X-1.0370 Y0.1176 
G01 X-1.0352 Y0.3609 
G01 X-1.0395 Y0.3652 
G01 X-1.0395 Y0.4367 
G01 X-1.0306 Y0.4456 
G01 X-0.9394 Y0.4456 
G01 X-0.9305 Y0.4367 
G01 X-0.9305 Y0.3652 
G01 X-0.9350 Y0.3607 
G01 X-0.9368 Y0.1201 
G01 X-0.7219 Y0.1201 
G01 X-0.7225 Y0.1417 
G01 X-0.7311 Y0.1503 
G01 X-0.7311 Y0.3197 
G01 X-0.6982 Y0.3526 
G01 X-0.6518 Y0.3526 
G01 X-0.6189 Y0.3197 
G01 X-0.6189 Y0.1503 
G01 X-0.6224 Y0.1467 
G01 X-0.6218 Y0.1251 
G01 X-0.4376 Y0.1251 
G01 X-0.3601 Y0.2099 
G01 X-0.3601 Y2.0626 
G01 X-0.4149 Y2.0637 
G01 X-0.4149 Y2.0592 
G01 X-0.4105 Y2.0548 
G01 X-0.4105 Y1.9833 
G01 X-0.4194 Y1.9744 
G01 X-0.4388 Y1.9744 
G01 X-0.4442 Y1.9690 
G01 X-0.4857 Y1.9690 
G01 X-0.4912 Y1.9744 
G01 X-0.5106 Y1.9744 
G01 X-0.5195 Y1.9833 
G01 X-0.5195 Y2.0548 
G01 X-0.5151 Y2.0592 
G01 X-0.5151 Y2.0640 
G01 X-0.6445 Y2.0612 
G01 X-0.6452 Y2.0605 
G01 X-0.6840 Y2.0444 
G01 X-0.7201 Y2.0444 
G01 X-0.7194 Y2.0437 
G01 X-0.7194 Y1.9682 
G01 X-0.7283 Y1.9594 
G01 X-0.7457 Y1.9594 
G01 X-0.7492 Y1.9559 
G01 X-0.7907 Y1.9559 
G01 X-0.7943 Y1.9594 
G01 X-0.8117 Y1.9594 
G01 X-0.8206 Y1.9682 
G01 X-0.8206 Y2.0000 
G01 X-1.3731 Y1.7545 
G01 X-1.3732 Y1.7544 
G01 X-1.3699 Y1.6106 
G01 X-1.3699 Y1.5892 
G01 X-1.3744 Y1.5847 
G01 X-1.3744 Y1.5694 
G01 X-1.3833 Y1.5605 
G01 X-1.3986 Y1.5605 
G01 X-1.3992 Y1.5599 
G01 X-1.4407 Y1.5599 
G01 X-1.4414 Y1.5605 
G01 X-1.4548 Y1.5605 
G01 X-1.4637 Y1.5694 
G01 X-1.4637 Y1.5828 
G01 X-1.4696 Y1.5888 
G01 X-1.4731 Y1.7405 
G01 X-1.6448 Y1.7425 
G01 X-1.6440 Y1.1598 
G01 X-1.6405 Y1.1563 
G01 X-1.6399 Y1.1557 
G01 X-1.6399 Y1.1357 
G01 X-1.6351 Y0.9671 
G01 X-1.6351 Y0.9807 
G01 X-1.6351 Y1.1557 
G01 X-1.6206 Y1.1703 
G01 X-1.6206 Y1.1806 
G01 X-1.6117 Y1.1895 
G01 X-1.5402 Y1.1895 
G01 X-1.5358 Y1.1851 
G01 X-1.5311 Y1.1851 
G01 X-1.5311 Y1.5257 
G01 X-1.5017 Y1.5551 
G01 X-1.4602 Y1.5551 
G01 X-1.4450 Y1.5399 
G01 X-1.4439 Y1.5399 
G01 X-1.4351 Y1.5311 
G01 X-1.4351 Y1.5300 
G01 X-1.4309 Y1.5257 
G01 X-1.4309 Y1.1142 
G01 X-1.4344 Y1.1107 
G01 X-1.4344 Y1.0933 
G01 X-1.4432 Y1.0844 
G01 X-1.5187 Y1.0844 
G01 X-1.5192 Y1.0849 
G01 X-1.5349 Y1.0849 
G01 X-1.5349 Y0.9807 
G01 X-1.5349 Y0.8807 
G01 X-1.5349 Y0.8392 
G01 X-1.5510 Y0.8231 
G01 X-1.5511 Y0.8231 
G01 X-1.5642 Y0.8099 
G01 X-1.5666 Y0.8099 
G01 X-1.6160 Y0.7681 
G01 X-1.6292 Y0.7549 
G01 X-1.9349 Y0.7549 
G01 X-1.9349 Y0.6392 
G01 X-1.9389 Y0.6352 
G01 X-1.9389 Y0.5944 
G01 X-1.9659 Y0.5674 
G01 X-2.0041 Y0.5674 
G01 X-2.0311 Y0.5944 
G01 X-2.0311 Y0.6352 
G01 X-2.0351 Y0.6392 
G01 X-2.0351 Y0.7549 
G01 X-2.1563 Y0.7549 
G01 X-2.1563 Y0.7326 
G01 X-2.1241 Y0.7326 
G01 X-2.1041 Y0.7526 
G01 X-2.0659 Y0.7526 
G01 X-2.0389 Y0.7256 
G01 X-2.0389 Y0.5944 
G01 X-2.0659 Y0.5674 
G01 X-2.1041 Y0.5674 
G01 X-2.1311 Y0.5944 
G01 X-2.1311 Y0.6440 
G01 X-2.1495 Y0.6624 
G01 X-2.1583 Y0.6624 
G01 X-2.1652 Y0.6555 
G01 X-2.1731 Y0.6555 
G01 X-2.1719 Y0.6356 
G01 X-2.1663 Y0.6356 
G01 X-2.1574 Y0.6267 
G01 X-2.1574 Y0.5433 
G01 X-2.1663 Y0.5344 
G01 X-2.2418 Y0.5344 
G01 X-2.2506 Y0.5433 
G01 X-2.2506 Y0.6267 
G01 X-2.2422 Y0.6352 
G01 X-2.2438 Y0.6626 
G01 X-2.2456 Y0.6644 
G01 X-2.2456 Y0.7549 
G01 X-2.2742 Y0.7549 
G01 X-2.2744 Y0.7547 
G01 X-2.2744 Y0.6644 
G01 X-2.2833 Y0.6555 
G01 X-2.3548 Y0.6555 
G01 X-2.3637 Y0.6644 
G01 X-2.3637 Y0.7344 
G01 X-2.4218 Y0.7344 
G01 X-2.4306 Y0.7433 
G01 X-2.4306 Y0.7607 
G01 X-2.4341 Y0.7642 
G01 X-2.4341 Y0.8057 
G01 X-2.4306 Y0.8093 
G01 X-2.4306 Y0.8267 
G01 X-2.4218 Y0.8356 
G01 X-2.3592 Y0.8356 
G01 X-2.3851 Y0.9004 
G01 X-2.3851 Y0.9099 
G01 X-2.7849 Y0.9099 
G01 X-2.7849 Y0.8557 
G01 X-2.7849 Y0.8142 
G01 X-2.8053 Y0.7938 
G01 X-2.8142 Y0.7849 
G01 X-2.8232 Y0.7849 
G01 X-2.8253 Y0.7838 
G01 X-2.8392 Y0.7699 
G01 X-2.8849 Y0.7699 
G01 X-2.8849 Y0.6392 
G01 X-2.8889 Y0.6352 
G01 X-2.8889 Y0.5944 
G01 X-2.9159 Y0.5674 
G01 X-2.9541 Y0.5674 
G01 X-2.9811 Y0.5944 
G01 X-2.9811 Y0.6352 
G01 X-2.9851 Y0.6392 
G01 X-2.9851 Y0.7699 
G01 X-3.6142 Y0.7699 
G01 X-3.6557 Y0.7699 
G01 X-3.6717 Y0.7859 
G01 X-3.6717 Y0.7859 
G01 X-3.6851 Y0.7992 
G01 X-3.6851 Y0.8014 
G01 X-4.0517 Y1.2259 
G01 X-4.0651 Y1.2392 
G01 X-4.0651 Y1.2414 
G01 X-4.0651 Y1.2807 
G01 X-4.0651 Y2.9942 
G01 X-4.0651 Y3.0304 
G01 X-4.0651 Y3.0357 
G01 X-4.0538 Y3.0471 
G01 X-3.9821 Y3.1525 
G01 X-3.9821 Y3.2171 
G01 X-3.9516 Y3.2476 
G01 X-3.9084 Y3.2476 
G01 X-3.8800 Y3.2192 
G01 X-3.8516 Y3.2476 
G01 X-3.8084 Y3.2476 
G01 X-3.7800 Y3.2192 
G01 X-3.7516 Y3.2476 
G01 X-3.7084 Y3.2476 
G01 X-3.6779 Y3.2171 
G01 X-3.6779 Y3.1901 
G01 X-3.6526 Y3.1901 
G01 X-3.6526 Y3.2095 
G01 X-3.6470 Y3.2150 
G01 X-3.6145 Y3.2476 
G01 X-3.5605 Y3.2476 
G01 X-3.3755 Y3.2476 
G01 X-3.3700 Y3.2421 
G01 X-3.3111 Y3.2421 
G01 X-3.2762 Y3.2072 
G01 X-3.2762 Y3.1578 
G01 X-3.3111 Y3.1229 
G01 X-3.3700 Y3.1229 
G01 X-3.3755 Y3.1174 
G01 X-3.5349 Y3.1174 
G01 X-3.5349 Y3.0980 
G01 X-3.5499 Y3.0830 
G01 X-3.5499 Y2.6201 
G01 X-3.4042 Y2.6201 
G01 X-3.3798 Y2.6445 
G01 X-3.3410 Y2.6606 
G01 X-3.2990 Y2.6606 
G01 X-3.2616 Y2.6451 
G01 X-3.1423 Y2.6451 
G01 X-3.0501 Y2.7373 
G01 X-2.9973 Y2.7901 
G01 X-2.6901 Y2.7901 
G01 X-2.6901 Y2.8873 
G01 X-2.6373 Y2.9401 
G01 X-2.5901 Y2.9873 
G01 X-2.5603 Y3.0171 
G01 X-2.5603 Y3.0171 
G01 X-2.5373 Y3.0401 
G01 X-2.5318 Y3.0401 
G01 X-2.3768 Y3.1651 
G01 X-2.3520 Y3.1651 
G01 X-2.3228 Y3.1942 
G01 X-2.3228 Y3.2232 
G01 X-2.2935 Y3.2526 
G01 X-2.2520 Y3.2526 
G01 X-2.2226 Y3.2232 
G01 X-2.2226 Y3.1897 
G01 X-2.2099 Y3.1770 
G01 X-2.2099 Y3.1230 
G01 X-2.2226 Y3.1103 
G01 X-2.2226 Y3.0767 
G01 X-2.2520 Y3.0474 
G01 X-2.2549 Y3.0474 
G01 X-2.2549 Y3.0377 
G01 X-2.2746 Y3.0180 
G01 X-2.2746 Y2.9230 
G01 X-2.2896 Y2.9080 
G01 X-2.2896 Y2.8767 
G01 X-2.3189 Y2.8474 
G01 X-2.3604 Y2.8474 
G01 X-2.3897 Y2.8767 
G01 X-2.3897 Y2.9080 
G01 X-2.3981 Y2.9164 
G01 X-2.4397 Y2.8829 
G01 X-2.5099 Y2.8127 
G01 X-2.5099 Y2.7473 
G01 X-2.4999 Y2.7373 
G01 X-2.4999 Y2.3373 
G01 X-2.3324 Y2.1698 
G01 X-2.3324 Y2.0952 
G01 X-2.3852 Y2.0424 
G01 X-2.4598 Y2.0424 
G01 X-2.6273 Y2.2099 
G01 X-2.6801 Y2.2627 
G01 X-2.6801 Y2.6099 
G01 X-2.9227 Y2.6099 
G01 X-3.0677 Y2.4649 
G01 X-3.1423 Y2.4649 
G01 X-3.2616 Y2.4649 
G01 X-3.2990 Y2.4494 
G01 X-3.3410 Y2.4494 
G01 X-3.3798 Y2.4655 
G01 X-3.4042 Y2.4899 
G01 X-3.5449 Y2.4899 
G01 X-3.5449 Y2.3117 
G01 X-3.5405 Y2.3073 
G01 X-3.5405 Y2.2358 
G01 X-3.5494 Y2.2269 
G01 X-3.5688 Y2.2269 
G01 X-3.5742 Y2.2215 
G01 X-3.6157 Y2.2215 
G01 X-3.6212 Y2.2269 
G01 X-3.6406 Y2.2269 
G01 X-3.6495 Y2.2358 
G01 X-3.6495 Y2.3073 
G01 X-3.6451 Y2.3117 
G01 X-3.6451 Y2.5080 
G01 X-3.6651 Y2.5280 
G01 X-3.6651 Y2.5820 
G01 X-3.6501 Y2.5970 
G01 X-3.6501 Y3.0599 
G01 X-3.6809 Y3.0599 
G01 X-3.7084 Y3.0324 
G01 X-3.7516 Y3.0324 
G01 X-3.7719 Y3.0527 
G01 X-3.7719 Y2.1458 
G01 X-3.6085 Y1.9201 
G01 X-3.4069 Y1.9201 
G01 X-3.4103 Y2.0884 
G01 X-3.6220 Y2.0884 
G01 X-3.6601 Y2.1265 
G01 X-3.6601 Y2.1804 
G01 X-3.6220 Y2.2185 
G01 X-3.4058 Y2.2185 
G01 X-3.3637 Y2.2606 
G01 X-3.2763 Y2.2606 
G01 X-3.2144 Y2.1987 
G01 X-3.2144 Y2.1113 
G01 X-3.2303 Y2.0954 
G01 X-3.2266 Y1.9169 
G01 X-3.2207 Y1.9167 
G01 X-3.2148 Y1.9226 
G01 X-2.7603 Y1.9226 
G01 X-2.5155 Y1.9251 
G01 X-2.4869 Y1.9251 
G01 X-2.4876 Y1.9644 
G01 X-2.4876 Y1.9920 
G01 X-2.4495 Y2.0301 
G01 X-2.3955 Y2.0301 
G01 X-2.3579 Y1.9924 
G01 X-2.3566 Y1.9204 
G01 X-2.1728 Y1.9229 
G01 X-2.1723 Y1.9234 
G01 X-2.1356 Y1.9234 
G01 X-2.0977 Y1.9234 
G01 X-2.0975 Y1.9232 
G01 X-2.0922 Y1.9231 
G01 X-2.0916 Y1.9457 
G01 X-2.1176 Y1.9718 
G01 X-2.1176 Y2.0182 
G01 X-2.0901 Y2.0457 
G01 X-2.0901 Y2.0518 
G01 X-2.1176 Y2.0793 
G01 X-2.1176 Y2.1257 
G01 X-2.0901 Y2.1532 
G01 X-2.0901 Y2.1543 
G01 X-2.1176 Y2.1818 
G01 X-2.1176 Y2.2282 
G01 X-2.0847 Y2.2611 
G01 X-2.0713 Y2.2611 
G01 X-2.0373 Y2.2951 
G01 X-2.0364 Y2.2951 
G01 X-2.0401 Y2.5547 
G01 X-2.0401 Y2.5695 
G01 X-2.0361 Y2.5735 
G01 X-2.0361 Y2.6251 
G01 X-2.1061 Y2.6251 
G01 X-2.1087 Y2.6277 
G01 X-2.1088 Y2.5649 
G01 X-2.1039 Y2.5649 
G01 X-2.0951 Y2.5561 
G01 X-2.0951 Y2.4839 
G01 X-2.1039 Y2.4751 
G01 X-2.1761 Y2.4751 
G01 X-2.1849 Y2.4839 
G01 X-2.1849 Y2.5561 
G01 X-2.1761 Y2.5649 
G01 X-2.1710 Y2.5649 
G01 X-2.1705 Y2.8620 
G01 X-2.1850 Y2.8474 
G01 X-2.1938 Y2.8474 
G01 X-2.2190 Y2.7399 
G01 X-2.2189 Y2.7397 
G01 X-2.2189 Y2.5703 
G01 X-2.2399 Y2.5493 
G01 X-2.2399 Y2.3749 
G01 X-2.2389 Y2.3749 
G01 X-2.2301 Y2.3661 
G01 X-2.2301 Y2.2939 
G01 X-2.2389 Y2.2851 
G01 X-2.3111 Y2.2851 
G01 X-2.3199 Y2.2939 
G01 X-2.3199 Y2.3661 
G01 X-2.3111 Y2.3749 
G01 X-2.3101 Y2.3749 
G01 X-2.3101 Y2.5493 
G01 X-2.3311 Y2.5703 
G01 X-2.3311 Y2.7397 
G01 X-2.2982 Y2.7726 
G01 X-2.2835 Y2.7726 
G01 X-2.2559 Y2.8901 
G01 X-2.2559 Y3.0232 
G01 X-2.2265 Y3.0526 
G01 X-2.1850 Y3.0526 
G01 X-2.1701 Y3.0377 
G01 X-2.1701 Y3.0579 
G01 X-2.1889 Y3.0767 
G01 X-2.1889 Y3.2232 
G01 X-2.1596 Y3.2526 
G01 X-2.1181 Y3.2526 
G01 X-2.0888 Y3.2232 
G01 X-2.0888 Y3.0767 
G01 X-2.1079 Y3.0576 
G01 X-2.1080 Y3.0373 
G01 X-2.0927 Y3.0526 
G01 X-2.0512 Y3.0526 
G01 X-2.0361 Y3.0375 
G01 X-2.0361 Y3.0578 
G01 X-2.0551 Y3.0767 
G01 X-2.0551 Y3.2232 
G01 X-2.0257 Y3.2526 
G01 X-1.9842 Y3.2526 
G01 X-1.9549 Y3.2232 
G01 X-1.9549 Y3.0767 
G01 X-1.9739 Y3.0578 
G01 X-1.9739 Y3.0375 
G01 X-1.9588 Y3.0526 
G01 X-1.9173 Y3.0526 
G01 X-1.9018 Y3.0371 
G01 X-1.9019 Y3.0574 
G01 X-1.9212 Y3.0767 
G01 X-1.9212 Y3.2232 
G01 X-1.8919 Y3.2526 
G01 X-1.8504 Y3.2526 
G01 X-1.8210 Y3.2232 
G01 X-1.8210 Y3.0767 
G01 X-1.8397 Y3.0581 
G01 X-1.8397 Y3.0379 
G01 X-1.8250 Y3.0526 
G01 X-1.7835 Y3.0526 
G01 X-1.7541 Y3.0232 
G01 X-1.7541 Y2.8932 
G01 X-1.7519 Y2.8800 
G01 X-1.7065 Y2.8249 
G01 X-1.6789 Y2.8249 
G01 X-1.6701 Y2.8161 
G01 X-1.6701 Y2.7439 
G01 X-1.6789 Y2.7351 
G01 X-1.7511 Y2.7351 
G01 X-1.7599 Y2.7439 
G00 Z0.0200 
G00 X-0.0449 Y-0.0361 
G01 Z-0.0070 F5.00  
G01 X-0.0449 Y0.0361 
G01 X-0.0361 Y0.0449 
G01 X0.0361 Y0.0449 
G01 X0.0449 Y0.0361 
G01 X0.0449 Y-0.0361 
G01 X0.0361 Y-0.0449 
G01 X-0.0361 Y-0.0449 
G01 X-0.0449 Y-0.0361 
G00 Z0.0200 
G00 X-1.4727 Y1.5656 
G01 Z-0.0070 F5.00  
G01 X-1.4727 Y1.5791 
G01 X-1.4785 Y1.5850 
G01 X-1.4819 Y1.7316 
G01 X-1.6358 Y1.7334 
G01 X-1.6350 Y1.1686 
G01 X-1.6296 Y1.1740 
G01 X-1.6296 Y1.1844 
G01 X-1.6155 Y1.1985 
G01 X-1.5401 Y1.1985 
G01 X-1.5401 Y1.5295 
G01 X-1.5055 Y1.5641 
G01 X-1.4711 Y1.5641 
G01 X-1.4727 Y1.5656 
G00 Z0.0200 
G00 X-0.7355 Y1.0349 
G01 Z-0.0070 F5.00  
G01 X-0.7299 Y1.0293 
G01 X-0.7299 Y0.8907 
G01 X-0.7471 Y0.8735 
G01 X-0.7291 Y0.8735 
G01 X-0.7291 Y1.0414 
G01 X-0.7355 Y1.0349 
G00 Z0.0200 
G00 X-0.7292 Y1.1537 
G01 Z-0.0070 F5.00  
G01 X-0.7291 Y1.1536 
G01 X-0.7291 Y1.1539 
G01 X-0.7292 Y1.1537 
G00 Z0.0200 
G00 X-0.9132 Y0.5638 
G01 Z-0.0070 F5.00  
G01 X-0.9350 Y0.5856 
G01 X-0.9479 Y0.5727 
G01 X-0.9356 Y0.5727 
G01 X-0.9222 Y0.5592 
G01 X-0.9178 Y0.5592 
G01 X-0.9132 Y0.5638 
G00 Z0.0200 
G00 X-0.4895 Y1.9600 
G01 Z-0.0070 F5.00  
G01 X-0.4949 Y1.9654 
G01 X-0.5144 Y1.9654 
G01 X-0.5285 Y1.9795 
G01 X-0.5285 Y2.0547 
G01 X-0.6415 Y2.0523 
G01 X-0.6822 Y2.0354 
G01 X-0.7104 Y2.0354 
G01 X-0.7104 Y1.9645 
G01 X-0.7157 Y1.9593 
G01 X-0.4883 Y1.9600 
G01 X-0.4895 Y1.9600 
G00 Z0.0200 
G00 X-0.7245 Y1.7346 
G01 Z-0.0070 F5.00  
G01 X-0.7104 Y1.7205 
G01 X-0.7104 Y1.6491 
G01 X-0.6345 Y1.6491 
G01 X-0.5872 Y1.6491 
G01 X-0.5855 Y1.6491 
G01 X-0.5692 Y1.6328 
G01 X-0.4772 Y1.5491 
G01 X-0.4755 Y1.5491 
G01 X-0.4592 Y1.5328 
G01 X-0.4592 Y1.5328 
G01 X-0.4479 Y1.5214 
G01 X-0.4409 Y1.5145 
G01 X-0.4409 Y0.3445 
G01 X-0.4349 Y0.3385 
G01 X-0.4349 Y0.1615 
G01 X-0.4624 Y0.1341 
G01 X-0.4415 Y0.1341 
G01 X-0.3691 Y0.2134 
G01 X-0.3691 Y2.0538 
G01 X-0.4015 Y2.0544 
G01 X-0.4015 Y1.9795 
G01 X-0.4156 Y1.9654 
G01 X-0.4351 Y1.9654 
G01 X-0.4405 Y1.9600 
G01 X-0.4351 Y1.9546 
G01 X-0.4156 Y1.9546 
G01 X-0.4015 Y1.9405 
G01 X-0.4015 Y1.8614 
G01 X-0.4156 Y1.8473 
G01 X-0.4351 Y1.8473 
G01 X-0.4404 Y1.8419 
G01 X-0.7109 Y1.8411 
G01 X-0.7109 Y1.8329 
G01 X-0.7104 Y1.8325 
G01 X-0.7104 Y1.7495 
G01 X-0.7245 Y1.7354 
G01 X-0.7420 Y1.7354 
G01 X-0.7424 Y1.7350 
G01 X-0.7420 Y1.7346 
G01 X-0.7245 Y1.7346 
G00 Z0.0200 
G00 X-2.0142 Y0.3291 
G01 Z-0.0070 F5.00  
G01 X-1.8291 Y0.5274 
G01 X-1.8291 Y0.5797 
G01 X-1.8350 Y0.5856 
G01 X-1.8409 Y0.5797 
G01 X-1.8409 Y0.5783 
G01 X-1.8409 Y0.5425 
G01 X-1.8409 Y0.5417 
G01 X-1.8533 Y0.5293 
G01 X-2.0009 Y0.3725 
G01 X-2.0009 Y0.3717 
G01 X-2.0134 Y0.3593 
G01 X-2.0134 Y0.3593 
G01 X-2.0209 Y0.3517 
G01 X-2.0267 Y0.3459 
G01 X-2.7617 Y0.3459 
G01 X-2.7970 Y0.3459 
G01 X-2.7983 Y0.3459 
G01 X-2.8104 Y0.3581 
G01 X-2.8520 Y0.3959 
G01 X-2.8533 Y0.3959 
G01 X-2.8654 Y0.4081 
G01 X-2.8654 Y0.4081 
G01 X-2.8735 Y0.4162 
G01 X-2.8791 Y0.4217 
G01 X-2.8791 Y0.5797 
G01 X-2.8850 Y0.5856 
G01 X-2.9122 Y0.5584 
G01 X-2.9578 Y0.5584 
G01 X-2.9850 Y0.5856 
G01 X-2.9909 Y0.5797 
G01 X-2.9909 Y0.4896 
G01 X-2.8130 Y0.3291 
G01 X-2.0142 Y0.3291 
G00 Z0.0200 
G00 X-1.7350 Y0.5856 
G01 Z-0.0070 F5.00  
G01 X-1.7409 Y0.5797 
G01 X-1.7409 Y0.5283 
G01 X-1.7409 Y0.4926 
G01 X-1.7409 Y0.4917 
G01 X-1.7533 Y0.4794 
G01 X-1.7652 Y0.4666 
G01 X-1.7291 Y0.4666 
G01 X-1.7291 Y0.5797 
G01 X-1.7350 Y0.5856 
G00 Z0.0200 
G00 X-1.5302 Y0.4666 
G01 Z-0.0070 F5.00  
G01 X-1.5409 Y0.4773 
G01 X-1.5409 Y0.4666 
G01 X-1.5302 Y0.4666 
G00 Z0.0200 
G00 X-1.8011 Y0.3133 
G01 Z-0.0070 F5.00  
G01 X-1.8011 Y0.4281 
G01 X-1.9509 Y0.2676 
G01 X-1.9509 Y0.2667 
G01 X-1.9633 Y0.2544 
G01 X-1.9633 Y0.2544 
G01 X-1.9696 Y0.2480 
G01 X-1.9767 Y0.2409 
G01 X-2.8117 Y0.2409 
G01 X-2.8470 Y0.2409 
G01 X-2.8483 Y0.2409 
G01 X-2.8604 Y0.2530 
G01 X-3.0519 Y0.4259 
G01 X-3.0533 Y0.4259 
G01 X-3.0654 Y0.4380 
G01 X-3.0724 Y0.4450 
G01 X-3.0759 Y0.4486 
G01 X-3.0759 Y0.2567 
G01 X-2.9272 Y0.1267 
G01 X-2.7166 Y0.1273 
G01 X-2.7166 Y0.1670 
G01 X-2.6785 Y0.2051 
G01 X-2.5015 Y0.2051 
G01 X-2.4634 Y0.1670 
G01 X-2.4634 Y0.1276 
G01 X-1.8185 Y0.1275 
G01 X-1.8185 Y0.1605 
G01 X-1.8044 Y0.1746 
G01 X-1.7849 Y0.1746 
G01 X-1.7795 Y0.1800 
G01 X-1.7305 Y0.1800 
G01 X-1.7251 Y0.1746 
G01 X-1.7056 Y0.1746 
G01 X-1.6915 Y0.1605 
G01 X-1.6915 Y0.1268 
G01 X-1.6697 Y0.1266 
G01 X-1.6185 Y0.1266 
G01 X-1.6185 Y0.1655 
G01 X-1.6044 Y0.1796 
G01 X-1.5849 Y0.1796 
G01 X-1.5795 Y0.1850 
G01 X-1.5305 Y0.1850 
G01 X-1.5251 Y0.1796 
G01 X-1.5076 Y0.1796 
G01 X-1.5074 Y0.1904 
G01 X-1.6044 Y0.1904 
G01 X-1.6185 Y0.2045 
G01 X-1.6185 Y0.2836 
G01 X-1.6044 Y0.2977 
G01 X-1.5911 Y0.2977 
G01 X-1.5911 Y0.3033 
G01 X-1.6011 Y0.3133 
G01 X-1.6011 Y0.3687 
G01 X-1.6291 Y0.3967 
G01 X-1.6291 Y0.4333 
G01 X-1.6291 Y0.5797 
G01 X-1.6350 Y0.5856 
G01 X-1.6409 Y0.5797 
G01 X-1.6409 Y0.4483 
G01 X-1.6409 Y0.4117 
G01 X-1.6667 Y0.3859 
G01 X-1.6767 Y0.3859 
G01 X-1.6989 Y0.3637 
G01 X-1.6989 Y0.3133 
G01 X-1.7189 Y0.2933 
G01 X-1.7189 Y0.2927 
G01 X-1.7056 Y0.2927 
G01 X-1.6915 Y0.2786 
G01 X-1.6915 Y0.1995 
G01 X-1.7056 Y0.1854 
G01 X-1.8044 Y0.1854 
G01 X-1.8185 Y0.1995 
G01 X-1.8185 Y0.2786 
G01 X-1.8044 Y0.2927 
G01 X-1.7911 Y0.2927 
G01 X-1.7911 Y0.3033 
G01 X-1.8011 Y0.3133 
G00 Z0.0200 
G00 X-2.0623 Y1.7338 
G01 Z-0.0070 F5.00  
G01 X-2.0759 Y1.7338 
G01 X-2.0759 Y1.7202 
G01 X-2.0623 Y1.7338 
G00 Z0.0200 
G00 X-1.3350 Y0.7344 
G01 Z-0.0070 F5.00  
G01 X-1.3185 Y0.7509 
G01 X-1.3515 Y0.7509 
G01 X-1.3350 Y0.7344 
G00 Z0.0200 
G00 X-1.2350 Y0.7344 
G01 Z-0.0070 F5.00  
G01 X-1.2185 Y0.7509 
G01 X-1.2515 Y0.7509 
G01 X-1.2350 Y0.7344 
G00 Z0.0200 
G00 X-1.1350 Y0.7344 
G01 Z-0.0070 F5.00  
G01 X-1.1185 Y0.7509 
G01 X-1.1515 Y0.7509 
G01 X-1.1350 Y0.7344 
G00 Z0.0200 
G00 X-1.0350 Y0.7344 
G01 Z-0.0070 F5.00  
G01 X-1.0185 Y0.7509 
G01 X-1.0515 Y0.7509 
G01 X-1.0350 Y0.7344 
G00 Z0.0200 
G00 X-0.9350 Y0.7344 
G01 Z-0.0070 F5.00  
G01 X-0.9220 Y0.7474 
G01 X-0.9254 Y0.7509 
G01 X-0.9515 Y0.7509 
G01 X-0.9350 Y0.7344 
G00 Z0.0200 
G00 X-0.9422 Y0.8784 
G01 Z-0.0070 F5.00  
G01 X-0.9515 Y0.8691 
G01 X-0.9420 Y0.8691 
G01 X-0.9422 Y0.8784 
G00 Z0.0200 
G00 X-1.0350 Y0.8856 
G01 Z-0.0070 F5.00  
G01 X-1.0515 Y0.8691 
G01 X-1.0185 Y0.8691 
G01 X-1.0350 Y0.8856 
G00 Z0.0200 
G00 X-1.1350 Y0.8856 
G01 Z-0.0070 F5.00  
G01 X-1.1515 Y0.8691 
G01 X-1.1185 Y0.8691 
G01 X-1.1350 Y0.8856 
G00 Z0.0200 
G00 X-1.2350 Y0.8856 
G01 Z-0.0070 F5.00  
G01 X-1.2515 Y0.8691 
G01 X-1.2185 Y0.8691 
G01 X-1.2350 Y0.8856 
G00 Z0.0200 
G00 X-1.3350 Y0.8856 
G01 Z-0.0070 F5.00  
G01 X-1.3515 Y0.8691 
G01 X-1.3185 Y0.8691 
G01 X-1.3350 Y0.8856 
G00 Z0.0200 
G00 X-1.9640 Y1.7334 
G01 Z-0.0070 F5.00  
G01 X-2.0053 Y1.7334 
G01 X-2.0074 Y1.7334 
G01 X-1.9850 Y1.7111 
G01 X-1.9602 Y1.7359 
G01 X-1.9615 Y1.7359 
G01 X-1.9640 Y1.7334 
G00 Z0.0200 
G00 X-2.2850 Y1.7111 
G01 Z-0.0070 F5.00  
G01 X-2.2636 Y1.7325 
G01 X-2.3059 Y1.7319 
G01 X-2.2850 Y1.7111 
G00 Z0.0200 
G00 X-2.2072 Y1.7332 
G01 Z-0.0070 F5.00  
G01 X-2.1941 Y1.7202 
G01 X-2.1941 Y1.7334 
G01 X-2.2072 Y1.7332 
G00 Z0.0200 
G00 X-0.9408 Y1.1537 
G01 Z-0.0070 F5.00  
G01 X-0.9409 Y1.1539 
G01 X-0.9409 Y1.1536 
G01 X-0.9408 Y1.1537 
G00 Z0.0200 
G00 X-0.9350 Y1.0344 
G01 Z-0.0070 F5.00  
G01 X-0.9345 Y1.0349 
G01 X-0.9409 Y1.0414 
G01 X-0.9409 Y1.0403 
G01 X-0.9350 Y1.0344 
G00 Z0.0200 
G00 X-2.3234 Y2.1735 
G01 Z-0.0070 F5.00  
G01 X-2.3234 Y2.0915 
G01 X-2.3815 Y2.0334 
G01 X-2.3861 Y2.0334 
G01 X-2.3490 Y1.9962 
G01 X-2.3478 Y1.9296 
G01 X-2.1766 Y1.9318 
G01 X-2.1761 Y1.9324 
G01 X-2.1357 Y1.9324 
G01 X-2.1009 Y1.9324 
G01 X-2.1007 Y1.9421 
G01 X-2.1266 Y1.9680 
G01 X-2.1266 Y2.0220 
G01 X-2.0998 Y2.0487 
G01 X-2.1266 Y2.0755 
G01 X-2.1266 Y2.1295 
G01 X-2.1023 Y2.1537 
G01 X-2.1266 Y2.1780 
G01 X-2.1266 Y2.2320 
G01 X-2.0885 Y2.2701 
G01 X-2.0750 Y2.2701 
G01 X-2.0454 Y2.2997 
G01 X-2.0491 Y2.5547 
G01 X-2.0491 Y2.5733 
G01 X-2.0451 Y2.5773 
G01 X-2.0451 Y2.6161 
G01 X-2.0997 Y2.6161 
G01 X-2.0998 Y2.5735 
G01 X-2.0861 Y2.5598 
G01 X-2.0861 Y2.4802 
G01 X-2.1002 Y2.4661 
G01 X-2.1798 Y2.4661 
G01 X-2.1939 Y2.4802 
G01 X-2.1939 Y2.5598 
G01 X-2.1800 Y2.5737 
G01 X-2.1795 Y2.8402 
G01 X-2.1813 Y2.8384 
G01 X-2.1867 Y2.8384 
G01 X-2.2099 Y2.7394 
G01 X-2.2099 Y2.5665 
G01 X-2.2309 Y2.5455 
G01 X-2.2309 Y2.3796 
G01 X-2.2211 Y2.3698 
G01 X-2.2211 Y2.2902 
